P3
240 240
255
1 0 0 1 0 0 3 1 1 1 0 0 1 0 0 1 0 0 1 0 0 1 0 0 
1 0 0 1 0 0 1 0 0 1 0 0 1 1 0 3 1 1 1 1 0 1 0 0 
1 1 0 1 0 0 3 1 1 1 0 0 1 0 0 1 0 0 1 0 0 1 0 0 
1 0 0 1 0 0 1 0 0 1 0 0 1 0 0 1 0 0 0 0 0 0 0 0 
0 0 0 0 0 0 1 0 0 0 0 0 0 0 0 0 0 0 1 0 0 0 0 0 
1 0 0 0 0 0 0 0 0 0 0 0 0 0 0 0 0 0 0 0 0 0 0 0 
0 0 0 0 0 0 0 0 0 0 0 0 0 0 0 0 0 0 0 0 0 0 0 0 
0 0 0 0 0 0 0 0 0 0 0 0 0 0 0 0 0 0 0 0 0 1 0 0 
0 0 0 0 0 0 0 0 0 0 0 0 0 0 0 0 0 0 0 0 0 0 0 0 
0 0 0 0 0 0 0 0 0 1 0 0 1 0 0 0 0 0 0 0 0 0 0 0 
0 0 0 0 0 0 0 0 0 0 0 0 1 0 0 0 0 0 0 0 0 0 0 0 
0 0 0 0 0 0 1 0 0 1 0 0 0 0 0 0 0 0 0 0 0 1 0 0 
0 0 0 0 0 0 1 1 0 0 0 0 25 6 4 3 1 1 1 0 0 1 0 0 
0 0 0 0 0 0 0 0 0 0 0 0 1 0 0 0 0 0 0 0 0 0 0 0 
0 0 0 0 0 0 0 0 0 0 0 0 1 1 0 0 0 0 0 0 0 0 0 0 
0 0 0 1 1 0 0 0 0 1 0 0 0 0 0 0 0 0 0 0 0 1 1 0 
1 1 0 1 0 0 1 1 0 0 0 0 3 1 1 1 1 0 0 0 0 0 0 0 
0 0 0 1 1 0 1 1 0 3 1 1 3 1 1 1 1 0 2 4 2 7 7 4 
2 6 3 4 10 4 4 5 4 4 8 4 1 7 4 25 6 4 10 18 10 10 18 10 
8 18 14 8 18 14 7 27 20 23 24 27 7 35 30 24 41 31 24 41 31 24 41 31 
24 40 47 53 43 37 24 40 47 24 40 47 24 56 55 24 56 55 24 56 55 54 63 80 
54 63 80 55 83 74 55 83 74 54 83 99 54 83 99 40 64 95 24 95 100 54 83 99 
59 95 109 59 95 109 29 95 109 23 120 116 27 121 132 7 126 130 7 113 119 7 113 119 
27 121 132 27 121 132 27 121 132 43 121 139 27 121 132 43 121 139 57 121 132 27 163 154 
65 150 115 126 172 135 147 177 131 128 189 167 128 189 167 128 189 167 128 189 167 156 195 167 
156 195 167 155 221 218 155 221 218 155 221 218 155 221 218 155 221 218 155 221 218 155 221 218 
155 221 218 155 221 218 155 221 218 155 221 218 155 221 218 155 221 218 155 221 218 160 226 247 
160 226 247 160 226 247 160 226 247 160 226 247 160 226 247 160 226 247 200 242 252 200 242 252 
200 242 252 200 242 252 200 242 252 200 242 252 242 253 234 242 253 234 242 253 234 242 253 234 
242 253 234 242 253 234 242 253 234 242 253 234 242 253 234 242 253 234 242 253 234 242 253 234 

3 1 1 1 0 0 3 1 1 1 0 0 1 0 0 1 0 0 1 0 0 1 0 0 
1 1 0 3 1 1 1 1 0 1 0 0 3 1 1 1 0 0 1 1 0 1 0 0 
1 0 0 1 0 0 3 1 1 1 0 0 1 0 0 0 0 0 1 0 0 1 0 0 
1 0 0 1 0 0 0 0 0 0 0 0 1 0 0 1 0 0 0 0 0 0 0 0 
0 0 0 0 0 0 0 0 0 0 0 0 1 0 0 0 0 0 0 0 0 0 0 0 
0 0 0 1 0 0 0 0 0 0 0 0 0 0 0 0 0 0 0 0 0 0 0 0 
0 0 0 0 0 0 0 0 0 0 0 0 0 0 0 1 0 0 0 0 0 0 0 0 
0 0 0 0 0 0 0 0 0 0 0 0 0 0 0 0 0 0 0 0 0 0 0 0 
0 0 0 0 0 0 0 0 0 0 0 0 0 0 0 0 0 0 0 0 0 0 0 0 
0 0 0 1 0 0 0 0 0 0 0 0 0 0 0 0 0 0 1 0 0 0 0 0 
0 0 0 0 0 0 0 0 0 0 0 0 0 0 0 0 0 0 0 0 0 0 0 0 
0 0 0 0 0 0 0 0 0 0 0 0 1 0 0 0 0 0 0 0 0 0 0 0 
1 0 0 1 0 0 0 0 0 0 0 0 0 0 0 1 0 0 0 0 0 1 0 0 
0 0 0 0 0 0 0 0 0 0 0 0 0 0 0 0 0 0 0 0 0 0 0 0 
0 0 0 0 0 0 0 0 0 0 0 0 0 0 0 0 0 0 0 0 0 1 0 0 
0 0 0 0 0 0 1 1 0 1 1 0 1 1 0 0 0 0 0 0 0 1 1 0 
0 0 0 1 1 0 1 1 0 1 1 0 0 0 0 0 0 0 0 0 0 0 2 2 
0 2 2 0 0 0 1 1 0 1 1 0 1 3 2 1 1 0 2 4 2 2 4 2 
1 4 4 1 4 4 1 7 4 1 6 4 4 9 6 7 10 8 10 18 10 1 16 14 
10 18 10 1 16 14 7 27 20 7 27 24 6 27 28 24 41 31 53 43 37 24 40 47 
24 40 47 24 40 47 24 40 47 24 40 47 24 56 55 24 56 55 24 56 55 54 63 80 
54 63 80 54 63 80 54 83 99 59 95 109 59 95 109 54 83 99 40 64 95 59 95 109 
59 95 109 29 95 109 29 95 109 42 120 116 23 120 116 27 121 132 27 121 132 7 126 130 
27 121 132 27 121 132 27 121 132 43 121 139 43 121 139 57 121 132 27 121 132 65 150 115 
56 162 154 126 172 135 126 172 135 147 177 131 128 189 167 156 195 167 128 189 167 156 195 167 
156 195 167 155 221 218 155 221 218 155 221 218 155 221 218 155 221 218 155 221 218 155 221 218 
156 186 216 155 221 218 155 221 218 155 221 218 155 221 218 160 226 247 160 226 247 160 226 247 
160 226 247 160 226 247 160 226 247 160 226 247 160 226 247 160 226 247 160 226 247 200 242 252 
200 242 252 200 242 252 200 242 252 200 242 252 242 253 234 242 253 234 242 253 234 242 253 234 
242 253 234 242 253 234 242 253 234 242 253 234 242 253 234 242 253 234 242 253 234 242 253 234 

1 0 0 1 0 0 1 0 0 1 0 0 1 0 0 1 0 0 1 0 0 1 0 0 
9 2 2 1 0 0 1 0 0 1 0 0 1 0 0 1 0 0 1 0 0 1 0 0 
1 0 0 1 0 0 1 0 0 1 0 0 1 0 0 1 0 0 0 0 0 1 0 0 
1 0 0 0 0 0 0 0 0 0 0 0 0 0 0 1 0 0 0 0 0 0 0 0 
0 0 0 0 0 0 0 0 0 0 0 0 0 0 0 0 0 0 0 0 0 0 0 0 
0 0 0 0 0 0 0 0 0 0 0 0 0 0 0 0 0 0 0 0 0 0 0 0 
0 0 0 0 0 0 0 0 0 0 0 0 0 0 0 0 0 0 0 0 0 0 0 0 
0 0 0 0 0 0 0 0 0 0 0 0 0 0 0 0 0 0 0 0 0 0 0 0 
0 0 0 0 0 0 0 0 0 0 0 0 0 0 0 0 0 0 0 0 0 0 0 0 
0 0 0 0 0 0 0 0 0 0 0 0 0 0 0 0 0 0 1 0 0 0 0 0 
0 0 0 0 0 0 0 0 0 1 0 0 0 0 0 0 0 0 0 0 0 0 0 0 
0 0 0 0 0 0 0 0 0 0 0 0 1 0 0 0 0 0 1 0 0 0 0 0 
0 0 0 0 0 0 0 0 0 0 0 0 0 0 0 0 0 0 0 0 0 0 0 0 
1 0 0 0 0 0 1 0 0 0 0 0 1 0 0 0 0 0 0 0 0 1 0 0 
0 0 0 0 0 0 0 0 0 1 0 0 0 0 0 0 0 0 0 0 0 0 0 0 
0 0 0 1 0 0 1 0 0 1 1 0 0 0 0 1 1 0 1 1 0 0 0 0 
0 0 0 0 0 0 1 0 0 1 1 0 1 1 0 0 0 0 0 0 0 0 2 2 
1 4 4 1 3 2 0 2 0 3 1 1 2 4 2 1 3 2 1 3 2 4 5 4 
2 6 3 2 6 3 4 10 4 7 10 8 1 11 6 15 7 5 7 10 8 24 23 9 
8 18 14 24 23 9 23 24 27 23 24 27 6 27 28 23 24 27 24 41 31 24 40 47 
24 40 47 24 40 47 24 56 55 24 56 55 24 56 55 24 56 55 24 56 55 54 63 80 
24 56 72 24 67 72 24 95 100 59 95 109 59 95 109 29 95 109 40 64 95 54 83 99 
54 83 99 59 95 109 29 95 109 23 120 116 23 120 116 27 121 132 27 121 132 27 121 132 
27 121 132 43 121 139 43 121 139 57 121 132 7 126 130 43 121 139 56 162 154 65 150 115 
56 162 154 56 162 154 93 181 160 93 181 160 128 189 167 128 189 167 156 195 167 156 195 167 
156 195 167 198 212 189 155 221 218 155 221 218 155 221 218 155 221 218 156 186 216 156 186 216 
155 221 218 155 221 218 155 221 218 155 221 218 160 226 247 160 226 247 160 226 247 160 226 247 
160 226 247 160 226 247 160 226 247 160 226 247 160 226 247 200 242 252 200 242 252 200 242 252 
200 242 252 200 242 252 200 242 252 242 253 234 242 253 234 242 253 234 242 253 234 242 253 234 
242 253 234 242 253 234 242 253 234 242 253 234 242 253 234 242 253 234 242 253 234 242 253 234 

1 0 0 1 0 0 1 0 0 1 0 0 1 0 0 1 0 0 1 0 0 1 0 0 
1 0 0 1 0 0 1 0 0 1 0 0 1 0 0 1 0 0 1 0 0 1 0 0 
1 0 0 1 0 0 1 0 0 0 0 0 1 0 0 0 0 0 0 0 0 0 0 0 
0 0 0 0 0 0 1 0 0 0 0 0 0 0 0 0 0 0 0 0 0 0 0 0 
0 0 0 0 0 0 0 0 0 0 0 0 0 0 0 3 1 1 0 0 0 0 0 0 
0 0 0 0 0 0 0 0 0 0 0 0 0 0 0 1 0 0 0 0 0 0 0 0 
0 0 0 0 0 0 0 0 0 0 0 0 9 2 2 0 0 0 0 0 0 0 0 0 
0 0 0 0 0 0 0 0 0 0 0 0 0 0 0 0 0 0 0 0 0 0 0 0 
0 0 0 0 0 0 0 0 0 0 0 0 0 0 0 0 0 0 0 0 0 0 0 0 
0 0 0 1 0 0 0 0 0 0 0 0 0 0 0 0 0 0 0 0 0 0 0 0 
0 0 0 0 0 0 0 0 0 0 0 0 0 0 0 0 0 0 0 0 0 0 0 0 
0 0 0 0 0 0 1 0 0 0 0 0 0 0 0 0 0 0 1 0 0 0 0 0 
1 0 0 0 0 0 0 0 0 0 0 0 0 0 0 0 0 0 1 0 0 0 0 0 
0 0 0 0 0 0 0 0 0 1 0 0 0 0 0 0 0 0 0 0 0 1 0 0 
1 0 0 0 0 0 1 0 0 0 0 0 0 0 0 1 0 0 0 0 0 1 1 0 
0 0 0 0 0 0 0 0 0 1 1 0 0 0 0 0 0 0 1 1 0 0 0 0 
1 1 0 1 1 0 0 0 0 1 1 0 0 0 0 1 1 0 1 1 2 1 6 4 
1 4 4 0 2 2 3 1 1 1 1 0 1 1 2 1 3 2 2 6 2 2 6 3 
4 5 4 5 9 2 4 5 4 1 11 6 7 10 8 1 16 14 7 10 8 1 20 14 
8 18 17 23 24 27 23 24 27 24 41 31 7 35 30 24 41 31 24 41 31 24 41 31 
24 40 47 24 40 47 24 56 55 24 56 55 24 56 55 24 56 55 54 63 80 24 56 55 
54 63 80 54 63 80 24 67 72 40 64 95 54 83 99 54 83 99 59 95 109 29 95 109 
29 95 109 29 95 109 29 95 109 42 120 116 27 121 132 27 121 132 43 121 139 57 121 132 
57 121 132 57 121 132 57 121 132 65 150 115 27 163 154 56 162 154 56 162 154 56 162 154 
56 162 154 93 181 160 93 181 160 93 181 160 93 181 160 128 189 167 156 195 167 156 195 167 
156 195 167 198 212 189 198 212 189 198 212 189 198 212 189 155 221 218 155 221 218 155 221 218 
155 221 218 201 238 223 160 226 247 160 226 247 200 242 252 200 242 252 200 242 252 200 242 252 
200 242 252 200 242 252 200 242 252 200 242 252 200 242 252 242 253 234 242 253 234 242 253 234 
242 253 234 242 253 234 242 253 234 242 253 234 242 253 234 242 253 234 242 253 234 242 253 234 
242 253 234 242 253 234 242 253 234 242 253 234 242 253 234 242 253 234 242 253 234 242 253 234 

0 0 0 1 0 0 1 0 0 1 0 0 0 0 0 1 0 0 1 1 0 1 0 0 
0 0 0 1 0 0 1 0 0 1 0 0 1 0 0 1 0 0 1 0 0 1 0 0 
0 0 0 1 0 0 1 0 0 0 0 0 1 0 0 0 0 0 0 0 0 0 0 0 
0 0 0 0 0 0 0 0 0 0 0 0 0 0 0 0 0 0 0 0 0 3 1 1 
0 0 0 0 0 0 0 0 0 0 0 0 0 0 0 0 0 0 0 0 0 0 0 0 
0 0 0 0 0 0 0 0 0 0 0 0 0 0 0 0 0 0 0 0 0 0 0 0 
0 0 0 0 0 0 0 0 0 0 0 0 0 0 0 0 0 0 0 0 0 0 0 0 
0 0 0 0 0 0 0 0 0 0 0 0 1 0 0 0 0 0 0 0 0 0 0 0 
0 0 0 0 0 0 1 0 0 0 0 0 0 0 0 0 0 0 0 0 0 0 0 0 
0 0 0 0 0 0 0 0 0 0 0 0 0 0 0 0 0 0 0 0 0 0 0 0 
0 0 0 0 0 0 0 0 0 0 0 0 0 0 0 1 0 0 0 0 0 1 0 0 
0 0 0 0 0 0 0 0 0 0 0 0 0 0 0 1 0 0 1 0 0 0 0 0 
1 0 0 3 1 1 9 2 2 0 0 0 1 0 0 0 0 0 0 0 0 0 0 0 
0 0 0 1 0 0 1 0 0 1 0 0 0 0 0 0 0 0 0 0 0 1 0 0 
1 0 0 0 0 0 0 0 0 0 0 0 0 0 0 0 0 0 0 0 0 0 0 0 
1 0 0 0 0 0 0 0 0 0 0 0 0 0 0 1 1 0 1 1 0 0 0 0 
1 1 0 0 0 0 0 0 0 1 1 0 1 1 0 0 0 0 0 2 2 0 4 3 
1 4 4 1 1 2 1 1 2 1 3 2 1 3 2 2 6 3 1 4 4 1 7 4 
2 10 2 4 10 4 7 10 8 7 10 8 1 16 14 10 18 10 1 16 14 8 18 14 
8 18 17 7 27 20 7 27 24 7 35 30 24 41 31 6 27 33 24 41 31 24 40 47 
24 40 47 24 56 55 24 56 55 24 56 55 24 56 55 24 56 55 24 56 55 24 67 72 
24 56 81 40 64 95 40 64 95 54 63 80 54 83 99 24 95 100 29 95 109 29 95 109 
29 95 109 42 120 116 23 120 116 23 120 116 27 121 132 27 121 132 43 121 139 7 126 130 
43 121 139 27 163 154 27 163 154 56 162 154 27 163 154 56 162 154 65 150 115 56 162 154 
93 181 160 128 189 167 128 189 167 93 181 160 93 181 160 128 189 167 128 189 167 156 195 167 
156 195 167 156 195 167 156 195 167 198 212 189 155 221 218 155 221 218 155 221 218 155 221 218 
200 242 252 200 242 252 200 242 252 200 242 252 200 242 252 200 242 252 200 242 252 200 242 252 
200 242 252 200 242 252 200 242 252 200 242 252 242 253 234 242 253 234 242 253 234 242 253 234 
242 253 234 242 253 234 242 253 234 242 253 234 242 253 234 242 253 234 242 253 234 242 253 234 
242 253 234 242 253 234 242 253 234 242 253 234 242 253 234 242 253 234 242 253 234 242 253 234 

1 0 0 1 0 0 1 0 0 1 1 0 1 0 0 1 0 0 1 0 0 1 0 0 
1 0 0 0 0 0 0 0 0 1 0 0 1 0 0 1 0 0 1 0 0 0 0 0 
1 0 0 1 0 0 1 0 0 1 0 0 0 0 0 0 0 0 0 0 0 0 0 0 
1 0 0 0 0 0 0 0 0 0 0 0 0 0 0 0 0 0 0 0 0 0 0 0 
0 0 0 0 0 0 0 0 0 0 0 0 0 0 0 0 0 0 0 0 0 0 0 0 
0 0 0 0 0 0 0 0 0 0 0 0 0 0 0 0 0 0 0 0 0 0 0 0 
0 0 0 0 0 0 0 0 0 0 0 0 0 0 0 0 0 0 0 0 0 0 0 0 
0 0 0 0 0 0 0 0 0 0 0 0 0 0 0 0 0 0 0 0 0 0 0 0 
0 0 0 0 0 0 0 0 0 0 0 0 0 0 0 0 0 0 0 0 0 0 0 0 
0 0 0 0 0 0 0 0 0 0 0 0 0 0 0 0 0 0 0 0 0 0 0 0 
0 0 0 0 0 0 0 0 0 0 0 0 0 0 0 0 0 0 1 0 0 0 0 0 
0 0 0 0 0 0 0 0 0 1 0 0 1 0 0 0 0 0 0 0 0 0 0 0 
1 0 0 1 0 0 9 2 2 1 0 0 0 0 0 0 0 0 0 0 0 0 0 0 
0 0 0 0 0 0 0 0 0 0 0 0 1 0 0 0 0 0 1 0 0 0 0 0 
1 1 0 0 0 0 1 0 0 0 0 0 0 0 0 1 0 0 0 0 0 0 0 0 
0 0 0 0 0 0 0 0 0 0 0 0 0 0 0 0 0 0 1 1 0 1 1 0 
1 1 0 1 1 0 1 1 0 0 2 0 1 1 0 0 0 0 0 3 1 1 3 2 
0 4 3 3 1 1 2 4 2 2 4 2 4 5 4 4 8 4 4 8 4 4 8 4 
4 5 4 4 9 6 10 10 6 10 18 5 1 16 14 8 18 14 8 18 14 10 18 10 
7 18 20 23 24 27 23 24 27 24 41 31 24 41 31 7 35 30 24 41 31 24 41 31 
24 40 47 24 56 55 24 56 55 24 56 55 24 67 72 54 63 80 24 56 72 24 67 72 
24 95 100 42 120 116 42 120 116 54 83 99 24 68 95 54 83 99 29 95 109 29 95 109 
59 95 109 59 95 109 29 95 109 42 120 116 23 120 116 43 121 139 27 121 132 43 121 139 
27 163 154 27 163 154 27 163 154 56 162 154 27 163 154 56 162 154 65 150 115 56 162 154 
93 181 160 93 181 160 93 181 160 93 181 160 128 189 167 128 189 167 128 189 167 128 189 167 
128 189 167 128 189 167 156 186 216 155 221 218 155 221 218 155 221 218 155 221 218 201 238 223 
200 242 252 200 242 252 160 226 247 160 226 247 200 242 252 200 242 252 200 242 252 200 242 252 
200 242 252 200 242 252 242 253 234 242 253 234 242 253 234 242 253 234 242 253 234 242 253 234 
242 253 234 242 253 234 242 253 234 242 253 234 242 253 234 242 253 234 242 253 234 242 253 234 
242 253 234 242 253 234 242 253 234 242 253 234 242 253 234 242 253 234 242 253 234 242 253 234 

1 0 0 1 0 0 1 0 0 1 0 0 1 0 0 1 0 0 1 0 0 1 0 0 
1 0 0 3 1 1 1 0 0 1 0 0 1 0 0 3 1 1 1 0 0 1 0 0 
1 0 0 0 0 0 0 0 0 0 0 0 0 0 0 1 0 0 0 0 0 0 0 0 
0 0 0 0 0 0 0 0 0 0 0 0 0 0 0 0 0 0 0 0 0 0 0 0 
0 0 0 0 0 0 0 0 0 0 0 0 0 0 0 0 0 0 0 0 0 0 0 0 
0 0 0 0 0 0 0 0 0 0 0 0 0 0 0 0 0 0 0 0 0 0 0 0 
0 0 0 0 0 0 0 0 0 0 0 0 0 0 0 0 0 0 0 0 0 0 0 0 
0 0 0 0 0 0 0 0 0 0 0 0 0 0 0 0 0 0 0 0 0 0 0 0 
0 0 0 0 0 0 0 0 0 0 0 0 0 0 0 0 0 0 0 0 0 0 0 0 
0 0 0 0 0 0 0 0 0 0 0 0 0 0 0 0 0 0 0 0 0 0 0 0 
0 0 0 0 0 0 0 0 0 0 0 0 0 0 0 0 0 0 0 0 0 0 0 0 
0 0 0 0 0 0 0 0 0 0 0 0 0 0 0 0 0 0 1 1 0 1 0 0 
0 0 0 1 0 0 0 0 0 1 0 0 0 0 0 0 0 0 0 0 0 0 0 0 
1 0 0 0 0 0 1 0 0 1 0 0 1 1 0 1 1 0 0 0 0 1 1 0 
1 1 0 1 0 0 1 0 0 1 1 0 1 1 0 0 0 0 0 0 0 0 0 0 
0 0 0 0 0 0 1 0 0 0 0 0 0 0 0 1 1 0 1 1 0 1 1 0 
1 1 0 2 4 2 3 1 1 3 1 1 1 1 0 1 1 0 1 3 2 0 4 3 
0 4 3 1 3 2 1 3 2 2 6 2 4 5 4 7 7 4 4 5 4 1 7 4 
4 12 4 7 10 8 7 10 8 1 8 8 10 18 10 8 18 17 10 18 10 8 18 17 
7 27 20 7 27 24 24 41 31 24 41 31 7 35 30 24 41 31 24 41 31 7 41 43 
24 40 47 24 40 47 24 56 55 54 63 80 55 83 74 54 92 81 54 83 99 40 64 95 
59 95 109 42 120 116 42 120 116 27 76 117 24 68 95 29 95 109 29 95 109 59 95 109 
29 95 109 23 120 116 23 120 116 42 120 116 42 120 116 27 121 132 43 121 139 27 121 132 
27 163 154 27 163 154 27 163 154 56 162 154 56 162 154 27 163 154 56 162 154 56 162 154 
56 162 154 93 181 160 93 181 160 93 181 160 128 189 167 128 189 167 128 189 167 128 189 167 
128 189 167 128 189 167 156 186 216 155 221 218 155 221 218 155 221 218 155 221 218 155 221 218 
160 226 247 160 226 247 160 226 247 160 226 247 160 226 247 160 226 247 200 242 252 200 242 252 
200 242 252 200 242 252 200 242 252 200 242 252 200 242 252 200 242 252 200 242 252 200 242 252 
242 253 234 242 253 234 242 253 234 242 253 234 242 253 234 242 253 234 242 253 234 242 253 234 
242 253 234 242 253 234 242 253 234 242 253 234 242 253 234 242 253 234 242 253 234 242 253 234 

3 1 1 1 1 0 1 1 0 3 1 1 3 1 1 3 1 1 1 0 0 0 0 0 
1 0 0 1 0 0 1 0 0 1 0 0 1 0 0 1 0 0 1 0 0 1 0 0 
0 0 0 1 0 0 1 0 0 1 0 0 0 0 0 1 0 0 0 0 0 0 0 0 
0 0 0 0 0 0 0 0 0 0 0 0 15 7 5 0 0 0 0 0 0 0 0 0 
0 0 0 0 0 0 0 0 0 0 0 0 0 0 0 0 0 0 0 0 0 0 0 0 
0 0 0 0 0 0 0 0 0 0 0 0 0 0 0 0 0 0 0 0 0 0 0 0 
0 0 0 0 0 0 0 0 0 0 0 0 0 0 0 0 0 0 0 0 0 0 0 0 
0 0 0 0 0 0 0 0 0 0 0 0 0 0 0 0 0 0 0 0 0 0 0 0 
0 0 0 1 0 0 0 0 0 0 0 0 0 0 0 0 0 0 0 0 0 0 0 0 
0 0 0 1 0 0 0 0 0 0 0 0 0 0 0 3 1 1 0 0 0 0 0 0 
0 0 0 0 0 0 1 0 0 0 0 0 1 0 0 0 0 0 1 0 0 0 0 0 
1 0 0 1 0 0 1 0 0 1 0 0 1 0 0 1 0 0 1 1 0 1 0 0 
1 0 0 1 0 0 0 0 0 0 0 0 25 6 4 1 0 0 1 0 0 0 0 0 
0 0 0 1 0 0 1 0 0 1 0 0 1 1 0 0 0 0 1 0 0 1 1 0 
1 0 0 1 1 0 0 0 0 1 1 0 1 1 0 1 1 0 1 1 0 0 0 0 
1 1 0 1 1 0 0 0 0 1 1 0 3 1 1 1 1 0 1 1 0 1 1 0 
1 1 0 3 1 1 3 1 1 1 3 2 1 3 2 0 3 1 3 1 1 0 5 1 
0 4 3 0 4 3 2 4 2 1 6 4 4 8 4 4 10 4 10 11 4 4 9 6 
10 18 5 5 19 10 10 18 10 8 18 14 8 18 17 8 18 17 24 23 9 8 18 17 
7 27 20 23 24 27 24 41 31 24 41 31 24 41 31 7 41 43 24 40 47 24 40 47 
24 40 47 53 43 37 24 56 55 54 63 80 54 92 81 59 95 109 29 95 109 40 64 95 
24 68 95 24 95 100 29 95 109 29 95 109 24 95 100 29 95 109 29 95 109 29 95 109 
29 95 109 23 120 116 42 120 116 27 121 132 57 121 132 57 121 132 27 121 132 7 126 130 
27 163 154 27 163 154 56 162 154 56 162 154 56 162 154 56 162 154 56 162 154 56 162 154 
56 162 154 93 181 160 93 181 160 128 189 167 128 189 167 128 189 167 128 189 167 128 189 216 
128 189 167 128 189 216 155 221 218 155 221 218 155 221 218 155 221 218 155 221 218 155 221 218 
160 226 247 160 226 247 160 226 247 160 226 247 160 226 247 160 226 247 160 226 247 200 242 252 
160 226 247 200 242 252 200 242 252 200 242 252 200 242 252 200 242 252 200 242 252 242 253 234 
242 253 234 242 253 234 242 253 234 242 253 234 242 253 234 242 253 234 242 253 234 242 253 234 
242 253 234 242 253 234 242 253 234 242 253 234 242 253 234 242 253 234 242 253 234 242 253 234 

1 0 0 1 1 0 1 1 0 3 1 1 3 1 1 3 1 1 1 0 0 1 0 0 
1 0 0 3 1 1 1 0 0 1 0 0 3 1 1 0 0 0 0 0 0 1 0 0 
1 1 0 1 0 0 1 0 0 1 0 0 3 1 1 1 0 0 0 0 0 0 0 0 
0 0 0 0 0 0 0 0 0 3 1 1 1 0 0 0 0 0 0 0 0 1 0 0 
0 0 0 0 0 0 0 0 0 0 0 0 1 0 0 0 0 0 0 0 0 0 0 0 
0 0 0 0 0 0 0 0 0 0 0 0 0 0 0 0 0 0 0 0 0 0 0 0 
0 0 0 0 0 0 1 0 0 0 0 0 0 0 0 1 0 0 0 0 0 0 0 0 
0 0 0 0 0 0 0 0 0 0 0 0 0 0 0 0 0 0 25 6 4 1 0 0 
0 0 0 0 0 0 0 0 0 0 0 0 0 0 0 1 0 0 0 0 0 0 0 0 
1 0 0 0 0 0 0 0 0 0 0 0 0 0 0 0 0 0 1 0 0 1 0 0 
0 0 0 1 0 0 0 0 0 1 0 0 0 0 0 1 0 0 1 0 0 0 0 0 
0 0 0 0 0 0 1 1 0 1 1 0 0 0 0 1 1 0 1 0 0 0 0 0 
1 1 0 1 1 0 0 0 0 0 0 0 1 1 0 0 0 0 1 0 0 0 0 0 
1 1 0 0 0 0 1 1 0 0 0 0 1 1 0 0 0 0 0 0 0 1 1 0 
1 1 0 0 0 0 1 1 0 1 1 0 1 1 0 1 1 0 0 0 0 1 1 0 
3 1 1 3 1 1 0 0 0 3 1 1 1 1 0 0 0 0 0 0 0 1 1 0 
0 3 1 1 1 2 1 3 2 1 3 2 1 3 2 0 2 2 1 3 2 1 3 2 
0 4 3 4 5 4 1 12 4 4 12 4 1 8 8 4 9 6 4 9 6 7 10 8 
10 18 5 5 19 10 1 16 14 1 16 14 8 18 17 8 18 17 7 27 20 7 27 24 
7 27 24 23 24 27 6 27 33 24 41 31 24 41 31 7 41 43 24 40 47 24 40 47 
24 40 47 24 40 47 24 56 55 24 56 55 24 67 72 54 83 99 40 64 95 24 56 81 
40 64 95 40 64 95 54 83 99 40 64 95 54 83 99 29 95 109 24 95 100 29 95 109 
29 95 109 23 120 116 7 126 130 7 126 130 27 121 132 27 121 132 27 121 132 27 121 132 
43 121 139 27 163 154 27 163 154 56 162 154 27 163 154 27 163 154 56 162 154 93 181 160 
56 162 154 93 181 160 93 181 160 93 181 160 128 189 167 128 189 167 128 189 167 128 189 167 
128 189 167 128 189 167 128 189 216 155 221 218 155 221 218 155 221 218 155 221 218 155 221 218 
160 226 247 160 226 247 160 226 247 160 226 247 160 226 247 160 226 247 160 226 247 160 226 247 
160 226 247 160 226 247 200 242 252 200 242 252 200 242 252 242 253 234 242 253 234 242 253 234 
242 253 234 242 253 234 242 253 234 242 253 234 242 253 234 242 253 234 242 253 234 242 253 234 
242 253 234 242 253 234 242 253 234 242 253 234 242 253 234 242 253 234 242 253 234 242 253 234 

1 1 0 3 1 1 3 1 1 3 1 1 3 1 1 1 1 0 3 1 1 3 1 1 
1 1 0 1 1 0 3 1 1 1 0 0 1 1 0 1 1 0 1 1 0 1 0 0 
1 0 0 0 0 0 1 0 0 1 0 0 0 0 0 1 0 0 1 0 0 1 0 0 
3 1 1 0 0 0 0 0 0 3 1 1 1 0 0 0 0 0 0 0 0 0 0 0 
0 0 0 0 0 0 0 0 0 0 0 0 1 0 0 0 0 0 0 0 0 0 0 0 
0 0 0 0 0 0 0 0 0 1 0 0 0 0 0 0 0 0 0 0 0 0 0 0 
0 0 0 0 0 0 0 0 0 0 0 0 0 0 0 0 0 0 0 0 0 0 0 0 
3 1 1 0 0 0 0 0 0 0 0 0 0 0 0 0 0 0 0 0 0 0 0 0 
0 0 0 0 0 0 0 0 0 1 0 0 0 0 0 0 0 0 0 0 0 0 0 0 
1 0 0 1 0 0 1 0 0 1 0 0 0 0 0 0 0 0 1 0 0 0 0 0 
1 0 0 0 0 0 0 0 0 1 0 0 1 0 0 1 1 0 1 1 0 1 1 0 
0 0 0 0 0 0 1 1 0 1 1 0 1 0 0 1 1 0 1 1 0 1 1 0 
1 1 0 1 1 0 1 1 0 1 1 0 1 1 0 0 0 0 1 1 0 1 1 0 
0 0 0 0 0 0 1 1 0 0 0 0 1 1 0 1 1 0 1 1 0 1 1 0 
1 1 0 0 0 0 1 1 0 0 0 0 1 1 0 0 2 0 1 1 0 1 1 0 
1 1 0 1 1 0 1 1 0 0 2 0 1 1 0 0 0 0 1 1 0 0 2 0 
1 3 2 2 4 2 1 3 2 2 4 2 0 5 1 1 3 2 2 4 2 5 9 2 
2 6 3 4 5 4 1 7 4 1 11 6 4 9 6 7 10 8 1 13 6 5 19 10 
7 10 8 7 10 8 10 18 10 10 18 10 8 18 14 7 27 20 7 27 20 7 27 24 
6 27 28 7 35 30 23 24 27 24 41 31 24 41 31 24 41 31 24 40 47 24 40 47 
24 56 55 24 40 47 24 56 55 24 56 55 24 56 72 24 67 72 55 83 74 40 64 95 
24 68 95 40 64 95 54 83 99 40 64 95 24 95 100 29 95 109 7 96 112 29 95 109 
23 120 116 42 120 116 7 126 130 27 121 132 27 121 132 42 120 116 27 121 132 57 121 132 
65 150 115 43 121 139 27 163 154 27 163 154 27 163 154 27 163 154 56 162 154 56 162 154 
56 162 154 93 181 160 93 181 160 93 181 160 93 181 160 128 189 167 128 189 167 128 189 167 
128 189 167 128 189 167 155 221 218 155 221 218 155 221 218 155 221 218 155 221 218 155 221 218 
155 221 218 160 226 247 160 226 247 160 226 247 160 226 247 160 226 247 160 226 247 200 242 252 
200 242 252 200 242 252 200 242 252 200 242 252 242 253 234 242 253 234 242 253 234 242 253 234 
242 253 234 242 253 234 200 242 252 200 242 252 242 253 234 242 253 234 242 253 234 242 253 234 
242 253 234 242 253 234 242 253 234 242 253 234 242 253 234 242 253 234 242 253 234 242 253 234 

3 1 1 3 1 1 3 1 1 3 1 1 3 1 1 3 1 1 9 2 2 3 1 1 
9 2 2 1 1 0 1 1 0 3 1 1 3 1 1 3 1 1 3 1 1 1 1 0 
1 1 0 1 1 0 0 0 0 1 0 0 1 0 0 1 0 0 1 0 0 0 0 0 
1 0 0 1 0 0 1 0 0 0 0 0 0 0 0 0 0 0 0 0 0 0 0 0 
0 0 0 0 0 0 0 0 0 0 0 0 0 0 0 0 0 0 0 0 0 0 0 0 
0 0 0 0 0 0 0 0 0 0 0 0 0 0 0 0 0 0 0 0 0 0 0 0 
0 0 0 1 0 0 0 0 0 0 0 0 1 0 0 1 0 0 0 0 0 0 0 0 
3 1 1 0 0 0 0 0 0 0 0 0 0 0 0 1 0 0 0 0 0 0 0 0 
0 0 0 0 0 0 0 0 0 1 0 0 0 0 0 1 0 0 0 0 0 1 0 0 
3 1 1 0 0 0 1 1 0 0 0 0 1 0 0 0 0 0 1 1 0 1 0 0 
1 1 0 1 0 0 1 1 0 1 1 0 0 0 0 1 1 0 0 0 0 1 0 0 
1 1 0 0 0 0 1 1 0 1 1 0 1 1 0 3 1 1 1 1 0 1 1 0 
3 1 1 1 1 0 1 1 0 3 1 1 0 0 0 1 1 0 3 1 1 1 1 0 
1 1 0 0 0 0 3 1 1 1 1 0 3 1 1 3 1 1 3 1 1 0 0 0 
1 1 0 3 1 1 0 0 0 3 1 1 1 1 0 1 1 0 1 1 0 3 1 1 
1 1 0 1 1 0 3 1 1 1 1 0 1 1 0 2 4 2 2 4 2 2 4 2 
1 3 2 1 1 2 2 4 2 1 3 2 4 5 4 5 9 2 2 6 3 4 10 4 
1 9 6 4 12 4 4 9 6 10 18 10 1 13 6 1 19 10 6 8 10 24 23 9 
8 18 14 24 23 9 1 16 14 10 18 10 7 27 20 7 27 20 7 27 20 6 27 28 
6 27 28 24 41 31 24 41 31 24 41 31 7 35 30 24 40 47 24 40 47 24 40 47 
24 40 47 24 56 55 24 56 55 24 56 55 24 56 72 24 67 72 54 92 81 54 83 99 
24 68 95 24 68 95 24 95 100 24 68 95 29 95 109 29 95 109 29 95 109 29 95 109 
29 95 109 23 120 116 23 120 116 27 121 132 7 126 130 7 126 130 7 126 130 27 121 132 
43 121 139 43 121 139 27 163 154 27 163 154 56 162 154 27 163 154 56 162 154 56 162 154 
93 181 160 93 181 160 93 181 160 93 181 160 93 181 160 128 189 167 128 189 167 128 189 167 
128 189 216 128 189 216 155 221 218 155 221 218 155 221 218 155 221 218 155 221 218 155 221 218 
155 221 218 160 226 247 160 226 247 160 226 247 200 242 252 200 242 252 200 242 252 200 242 252 
200 242 252 200 242 252 200 242 252 200 242 252 200 242 252 242 253 234 242 253 234 242 253 234 
200 242 252 200 242 252 200 242 252 242 253 234 242 253 234 242 253 234 242 253 234 242 253 234 
242 253 234 242 253 234 242 253 234 242 253 234 242 253 234 242 253 234 242 253 234 242 253 234 

3 1 1 3 1 1 3 1 1 3 1 1 3 1 1 3 1 1 3 1 1 3 1 1 
3 1 1 3 1 1 3 1 1 3 1 1 3 1 1 1 1 0 3 1 1 1 1 0 
1 1 0 1 1 0 1 0 0 1 1 0 1 0 0 0 0 0 1 0 0 0 0 0 
1 0 0 0 0 0 3 1 1 0 0 0 0 0 0 0 0 0 0 0 0 0 0 0 
0 0 0 1 0 0 0 0 0 0 0 0 0 0 0 0 0 0 0 0 0 0 0 0 
0 0 0 0 0 0 0 0 0 0 0 0 0 0 0 1 0 0 0 0 0 0 0 0 
1 0 0 1 0 0 0 0 0 1 0 0 0 0 0 0 0 0 0 0 0 0 0 0 
1 0 0 1 0 0 0 0 0 0 0 0 0 0 0 0 0 0 0 0 0 0 0 0 
0 0 0 0 0 0 1 0 0 0 0 0 3 1 1 0 0 0 1 1 0 1 0 0 
1 0 0 1 1 0 3 1 1 1 1 0 1 1 0 1 1 0 1 1 0 0 0 0 
1 1 0 0 0 0 0 0 0 0 0 0 1 1 0 1 1 0 1 1 0 1 0 0 
3 1 1 1 1 0 1 1 0 3 1 1 0 2 0 3 1 1 3 1 1 1 1 0 
1 1 0 1 1 0 1 1 0 1 1 0 1 1 0 3 1 1 3 1 1 1 1 0 
3 1 1 0 0 0 1 1 0 3 1 1 1 1 0 3 1 1 3 1 1 1 1 0 
0 0 0 1 1 0 0 2 0 3 1 1 3 1 1 0 2 0 1 1 0 1 3 2 
2 4 2 0 3 1 0 3 1 1 3 2 1 3 2 1 3 2 4 5 4 1 4 4 
7 7 4 2 6 3 1 4 4 1 7 4 4 5 4 4 10 4 4 10 4 4 9 6 
4 9 6 7 10 8 4 9 6 1 13 6 7 10 8 10 18 10 24 23 9 8 18 14 
5 19 10 10 18 10 10 18 10 7 27 20 7 18 20 7 27 20 7 27 20 6 27 28 
7 35 30 6 27 28 23 24 27 23 24 27 7 34 46 7 34 46 24 40 47 24 40 47 
24 40 47 24 56 55 24 56 55 24 56 55 54 63 80 55 83 74 54 83 99 24 68 95 
24 68 95 54 83 99 54 83 99 54 83 99 59 95 109 42 120 116 23 120 116 29 95 109 
29 95 109 42 120 116 7 113 119 7 126 130 27 121 132 27 121 132 7 126 130 57 121 132 
27 163 154 27 163 154 27 163 154 56 162 154 56 162 154 56 162 154 56 162 154 94 154 160 
93 181 160 93 181 160 93 181 160 93 181 160 128 189 167 128 189 167 128 189 167 128 189 167 
128 189 216 128 189 216 155 221 218 155 221 218 155 221 218 155 221 218 155 221 218 160 226 247 
160 226 247 160 226 247 200 242 252 200 242 252 200 242 252 200 242 252 200 242 252 200 242 252 
200 242 252 200 242 252 200 242 252 200 242 252 200 242 252 200 242 252 200 242 252 200 242 252 
200 242 252 200 242 252 242 253 234 242 253 234 242 253 234 242 253 234 242 253 234 242 253 234 
242 253 234 242 253 234 242 253 234 242 253 234 242 253 234 242 253 234 242 253 234 242 253 234 

3 1 1 9 2 2 3 1 1 3 1 1 9 2 2 9 2 2 3 1 1 3 1 1 
3 1 1 9 2 2 9 2 2 1 1 0 25 6 4 3 1 1 3 1 1 1 1 0 
1 1 0 3 1 1 1 0 0 1 1 0 15 7 5 1 1 0 1 0 0 1 0 0 
0 0 0 0 0 0 1 0 0 0 0 0 0 0 0 1 0 0 0 0 0 1 0 0 
0 0 0 1 0 0 1 0 0 0 0 0 0 0 0 1 0 0 1 0 0 1 0 0 
1 0 0 1 0 0 1 0 0 0 0 0 0 0 0 1 0 0 0 0 0 0 0 0 
0 0 0 1 0 0 1 0 0 1 0 0 1 0 0 1 0 0 1 0 0 1 0 0 
0 0 0 1 0 0 0 0 0 0 0 0 0 0 0 0 0 0 1 1 0 0 0 0 
0 0 0 0 0 0 1 1 0 1 0 0 1 1 0 0 0 0 1 1 0 9 2 2 
0 0 0 1 1 0 9 2 2 3 1 1 1 1 0 1 1 0 1 1 0 1 1 0 
9 2 2 1 1 0 1 1 0 3 1 1 3 1 1 0 2 0 1 1 0 1 1 0 
3 1 1 3 1 1 3 1 1 1 1 0 3 1 1 3 1 1 3 1 1 1 1 0 
1 1 0 1 1 0 3 1 1 3 1 1 1 1 0 3 1 1 1 1 0 1 1 0 
3 1 1 0 3 1 1 1 0 3 1 1 3 1 1 3 1 1 3 1 1 3 1 1 
1 1 0 1 3 2 3 1 1 1 1 2 3 1 1 1 1 0 1 3 2 0 3 1 
1 3 2 2 4 2 1 3 2 1 1 2 2 6 2 0 4 3 2 4 2 4 5 4 
4 8 4 2 6 3 7 7 4 2 6 3 4 8 4 1 6 4 4 9 6 4 9 6 
10 11 4 4 12 4 1 11 6 7 10 8 7 10 8 1 16 14 8 18 14 8 18 14 
8 18 17 7 27 20 7 27 20 23 24 27 23 24 27 7 27 20 7 27 24 24 41 31 
7 27 24 6 27 28 23 24 27 6 27 33 24 40 47 24 40 47 24 40 47 24 40 47 
24 40 47 24 40 47 24 56 55 24 56 72 24 67 72 55 83 74 40 64 95 40 64 95 
54 92 81 24 95 100 24 95 100 54 83 99 59 95 109 42 120 116 42 120 116 42 120 116 
23 120 116 27 121 132 27 121 132 27 121 132 27 121 132 43 121 139 43 121 139 43 121 139 
65 150 115 27 163 154 27 163 154 56 162 154 56 162 154 94 154 160 93 181 160 93 181 160 
56 162 154 93 181 160 93 181 160 93 181 160 128 189 167 156 195 167 128 189 167 128 189 216 
128 189 216 156 186 216 155 221 218 155 221 218 155 221 218 155 221 218 160 226 247 160 226 247 
160 226 247 160 226 247 160 226 247 200 242 252 200 242 252 160 226 247 200 242 252 200 242 252 
200 242 252 160 226 247 160 226 247 160 226 247 200 242 252 200 242 252 200 242 252 200 242 252 
200 242 252 200 242 252 242 253 234 242 253 234 242 253 234 242 253 234 242 253 234 242 253 234 
242 253 234 242 253 234 242 253 234 242 253 234 242 253 234 242 253 234 242 253 234 242 253 234 

3 1 1 9 2 2 9 2 2 3 1 1 3 1 1 9 2 2 9 2 2 3 1 1 
3 1 1 3 1 1 3 1 1 1 1 0 3 1 1 1 1 0 1 1 0 1 1 0 
1 1 0 1 1 0 3 1 1 1 1 0 1 1 0 1 0 0 1 1 0 1 1 0 
1 0 0 1 1 0 1 0 0 3 1 1 0 0 0 0 0 0 1 0 0 1 0 0 
0 0 0 1 0 0 1 0 0 0 0 0 0 0 0 1 0 0 1 0 0 1 0 0 
3 1 1 1 0 0 1 0 0 1 1 0 1 0 0 1 0 0 1 1 0 0 0 0 
0 0 0 1 0 0 1 1 0 1 1 0 1 0 0 1 0 0 1 0 0 1 1 0 
1 0 0 0 0 0 15 7 5 24 23 9 1 1 0 1 1 0 1 0 0 1 1 0 
1 1 0 1 1 0 25 6 4 3 1 1 0 0 0 1 0 0 1 1 0 1 1 0 
1 1 0 1 1 0 3 1 1 1 1 0 3 1 1 3 1 1 3 1 1 1 1 0 
9 2 2 3 1 1 3 1 1 3 1 1 0 2 0 0 2 0 1 1 0 1 3 2 
3 1 1 3 1 1 1 1 0 3 1 1 2 4 2 3 1 1 1 1 0 1 1 0 
3 1 1 3 1 1 1 1 0 3 1 1 1 1 0 0 2 0 3 1 1 1 1 0 
1 1 0 1 3 2 3 1 1 3 1 1 3 1 1 3 1 1 3 1 1 3 1 1 
1 1 0 1 1 0 1 3 2 1 3 2 0 3 1 1 3 2 1 3 2 2 4 2 
2 4 2 2 4 2 2 4 2 2 4 2 2 4 2 2 4 2 15 7 5 1 7 4 
4 5 4 4 8 4 7 7 4 1 9 4 4 9 6 4 9 6 4 9 6 1 11 6 
4 12 4 2 15 5 5 19 10 5 19 10 6 27 12 1 16 14 8 18 14 8 18 17 
24 23 9 7 18 20 24 23 9 7 27 20 7 27 20 7 27 24 6 27 28 7 35 30 
7 27 24 24 41 31 7 35 30 24 41 31 24 40 47 24 40 47 24 40 47 24 40 47 
24 40 47 24 56 55 24 56 55 54 63 80 55 83 74 24 68 95 24 68 95 54 63 80 
40 64 95 54 83 99 24 95 100 29 95 109 29 95 109 42 120 116 27 121 132 27 121 132 
42 120 116 23 120 116 27 121 132 27 121 132 7 126 130 27 121 132 57 121 132 65 150 115 
65 150 115 27 163 154 27 163 154 56 162 154 93 181 160 93 181 160 93 181 160 56 162 154 
93 181 160 93 181 160 93 181 160 128 189 167 128 189 167 128 189 167 156 195 167 155 221 218 
155 221 218 155 221 218 155 221 218 155 221 218 160 226 247 160 226 247 200 242 252 200 242 252 
160 226 247 160 226 247 160 226 247 160 226 247 160 226 247 160 226 247 160 226 247 160 226 247 
200 242 252 200 242 252 200 242 252 200 242 252 200 242 252 200 242 252 200 242 252 200 242 252 
200 242 252 242 253 234 242 253 234 242 253 234 242 253 234 242 253 234 242 253 234 242 253 234 
242 253 234 242 253 234 242 253 234 242 253 234 242 253 234 242 253 234 242 253 234 242 253 234 

3 1 1 3 1 1 9 2 2 3 1 1 3 1 1 3 1 1 3 1 1 25 6 4 
9 2 2 3 1 1 9 2 2 3 1 1 3 1 1 3 1 1 3 1 1 3 1 1 
3 1 1 3 1 1 9 2 2 1 1 0 1 1 0 1 0 0 1 0 0 1 1 0 
3 1 1 1 0 0 1 1 0 0 0 0 1 0 0 15 7 5 1 0 0 1 0 0 
1 1 0 1 0 0 1 1 0 1 1 0 1 0 0 1 0 0 0 0 0 1 1 0 
1 1 0 0 0 0 0 0 0 1 0 0 1 0 0 1 1 0 1 1 0 1 1 0 
1 1 0 1 0 0 1 0 0 1 0 0 0 0 0 3 1 1 1 0 0 1 1 0 
1 1 0 1 1 0 1 1 0 1 1 0 1 1 0 3 1 1 1 1 0 1 1 0 
3 1 1 1 1 0 1 1 0 3 1 1 3 1 1 3 1 1 3 1 1 3 1 1 
3 1 1 3 1 1 1 1 0 3 1 1 3 1 1 1 1 0 0 2 0 0 0 0 
0 2 0 1 1 0 1 1 0 3 1 1 3 1 1 3 1 1 2 4 2 3 1 1 
3 1 1 1 1 0 1 3 2 1 1 0 3 1 1 3 1 1 3 1 1 3 1 1 
3 1 1 1 1 0 3 1 1 3 1 1 1 1 0 1 3 2 1 1 0 3 1 1 
1 3 2 2 4 2 1 1 0 1 1 0 2 4 2 1 1 0 2 4 2 2 4 2 
0 2 0 2 4 2 1 3 2 1 3 2 1 3 2 5 9 2 1 3 2 2 6 2 
0 4 3 2 4 2 2 4 2 4 5 4 1 3 2 4 5 4 4 5 4 1 7 4 
4 8 4 4 9 6 7 10 8 1 9 6 1 11 6 5 19 10 7 10 8 1 16 14 
1 19 10 1 13 6 1 20 14 8 18 14 1 16 14 5 19 10 10 18 10 8 18 14 
8 18 14 7 27 20 7 27 20 7 18 20 7 27 20 23 24 27 6 27 28 7 35 30 
7 35 30 24 41 31 24 41 31 24 41 31 24 40 47 24 40 47 24 40 47 24 40 47 
24 56 55 24 56 55 24 56 55 24 56 72 54 63 80 24 67 72 55 83 74 54 63 80 
40 64 95 54 83 99 29 95 109 29 95 109 29 95 109 29 95 109 57 121 132 56 162 154 
27 121 132 27 121 132 43 121 139 27 121 132 42 120 116 43 121 139 27 121 132 27 163 154 
65 150 115 65 150 115 56 162 154 56 162 154 93 181 160 93 181 160 93 181 160 56 162 154 
93 181 160 128 159 167 128 189 167 128 189 167 156 195 167 155 221 218 155 221 218 155 221 218 
155 221 218 155 221 218 155 221 218 160 226 247 160 226 247 160 226 247 160 226 247 160 226 247 
160 226 247 160 226 247 160 226 247 160 226 247 160 226 247 160 226 247 160 226 247 160 226 247 
200 242 252 200 242 252 200 242 252 200 242 252 200 242 252 200 242 252 200 242 252 242 253 234 
242 253 234 242 253 234 242 253 234 242 253 234 242 253 234 242 253 234 242 253 234 242 253 234 
242 253 234 242 253 234 242 253 234 242 253 234 242 253 234 242 253 234 242 253 234 242 253 234 

9 2 2 3 1 1 9 2 2 9 2 2 9 2 2 9 2 2 3 1 1 9 2 2 
3 1 1 9 2 2 3 1 1 3 1 1 3 1 1 3 1 1 9 2 2 3 1 1 
3 1 1 9 2 2 3 1 1 3 1 1 3 1 1 1 1 0 1 1 0 3 1 1 
1 1 0 1 1 0 3 1 1 3 1 1 1 0 0 1 1 0 1 1 0 1 0 0 
3 1 1 1 1 0 3 1 1 1 1 0 1 0 0 1 1 0 1 1 0 1 1 0 
1 1 0 0 0 0 1 1 0 3 1 1 3 1 1 3 1 1 3 1 1 1 1 0 
1 1 0 1 1 0 1 0 0 3 1 1 1 1 0 3 1 1 1 1 0 1 1 0 
1 1 0 1 1 0 1 1 0 3 1 1 3 1 1 1 1 0 3 1 1 1 1 0 
3 1 1 1 1 0 1 1 0 3 1 1 3 1 1 3 1 1 3 1 1 3 1 1 
3 1 1 3 1 1 3 1 1 3 1 1 3 1 1 1 1 0 1 1 0 3 1 1 
0 0 0 0 2 0 3 1 1 3 1 1 1 1 0 1 3 2 1 1 0 1 1 0 
9 2 2 3 1 1 1 3 2 3 1 1 3 1 1 1 3 2 3 1 1 3 1 1 
3 1 1 3 1 1 2 4 2 2 4 2 2 4 2 2 4 2 2 4 2 1 3 2 
9 2 2 3 1 1 3 1 1 1 3 2 1 3 2 2 4 2 2 4 2 1 3 2 
2 4 2 1 1 2 2 4 2 2 4 2 1 3 2 4 5 4 1 3 2 4 5 4 
0 4 3 2 6 2 2 4 2 0 4 3 2 6 2 0 6 3 1 4 4 1 4 4 
7 10 8 10 10 6 4 5 4 1 11 6 10 18 10 1 8 8 1 13 6 1 16 14 
1 16 14 10 18 10 1 16 14 8 18 14 8 18 17 10 18 10 8 18 14 1 20 14 
10 18 10 7 27 20 7 27 20 7 27 24 7 35 30 23 24 27 6 27 28 6 27 33 
24 40 47 24 40 47 24 40 47 24 41 31 24 40 47 24 40 47 24 40 47 24 40 47 
24 40 47 24 56 55 24 56 72 24 56 72 24 67 72 54 63 80 54 63 80 40 64 95 
54 83 99 24 68 95 29 95 109 29 95 109 29 95 109 42 120 116 56 162 154 56 162 154 
27 121 132 43 121 139 27 121 132 43 121 139 27 121 132 27 121 132 43 121 139 43 121 139 
56 162 154 56 162 154 56 162 154 56 162 154 56 162 154 93 181 160 94 154 160 93 181 160 
93 181 160 128 189 167 156 195 167 155 221 218 155 221 218 155 221 218 155 221 218 155 221 218 
155 221 218 155 221 218 155 221 218 155 221 218 201 238 223 160 226 247 160 226 247 160 226 247 
160 226 247 160 226 247 160 226 247 160 226 247 160 226 247 160 226 247 160 226 247 160 226 247 
200 242 252 200 242 252 200 242 252 200 242 252 200 242 252 200 242 252 242 253 234 242 253 234 
242 253 234 242 253 234 242 253 234 242 253 234 242 253 234 200 242 252 242 253 234 242 253 234 
242 253 234 242 253 234 242 253 234 242 253 234 242 253 234 242 253 234 242 253 234 242 253 234 

9 2 2 9 2 2 3 1 1 3 1 1 3 1 1 9 2 2 9 2 2 9 2 2 
9 2 2 9 2 2 3 1 1 3 1 1 1 1 0 3 1 1 3 1 1 3 1 1 
3 1 1 3 1 1 1 1 0 3 1 1 3 1 1 3 1 1 1 1 0 3 1 1 
1 1 0 1 1 0 1 1 0 1 1 0 3 1 1 3 1 1 1 1 0 1 1 0 
0 0 0 1 1 0 1 1 0 1 1 0 1 1 0 1 1 0 3 1 1 1 1 0 
1 0 0 1 1 0 1 1 0 1 1 0 1 1 0 3 1 1 3 1 1 1 1 0 
1 1 0 0 0 0 1 1 0 3 1 1 1 1 0 1 1 0 3 1 1 1 1 0 
1 1 0 1 1 0 3 1 1 1 1 0 1 1 0 3 1 1 1 1 0 1 1 0 
3 1 1 3 1 1 3 1 1 3 1 1 3 1 1 3 1 1 3 1 1 9 2 2 
2 4 2 3 1 1 3 1 1 3 1 1 3 1 1 1 1 0 3 1 1 3 1 1 
0 3 1 3 1 1 2 4 2 3 1 1 1 1 0 3 1 1 3 1 1 3 1 1 
0 3 1 9 2 2 3 1 1 3 1 1 3 1 1 1 1 0 2 4 2 2 4 2 
3 1 1 3 1 1 1 3 2 2 4 2 2 4 2 3 1 1 2 4 2 9 2 2 
2 4 2 2 4 2 1 1 2 2 4 2 2 4 2 1 3 2 3 1 1 1 3 2 
2 4 2 1 3 2 2 4 2 1 3 2 7 7 4 4 5 4 1 1 2 2 4 2 
2 4 2 0 5 1 4 5 4 0 4 3 11 7 4 2 6 3 1 7 4 1 9 4 
1 11 6 7 10 8 10 18 5 4 9 6 1 13 6 7 10 8 10 18 10 1 20 14 
8 18 14 8 18 14 10 18 10 10 18 10 7 27 20 1 19 17 7 27 20 8 18 17 
7 27 20 7 27 20 1 19 17 7 27 24 23 24 27 23 24 27 7 35 30 24 41 31 
24 40 47 24 40 47 7 41 43 7 34 46 24 40 47 7 41 43 24 40 47 24 40 47 
24 56 55 24 56 55 24 56 72 24 67 72 24 56 72 54 63 80 55 83 74 54 83 99 
54 83 99 24 95 100 29 95 109 29 95 109 42 120 116 57 121 132 43 121 139 43 121 139 
27 121 132 27 121 132 57 121 132 43 121 139 27 121 132 27 121 132 43 121 139 43 121 139 
65 150 115 56 162 154 56 162 154 27 163 154 56 162 154 94 154 160 93 181 160 128 189 167 
128 189 167 156 195 167 156 195 167 155 221 218 155 221 218 155 221 218 155 221 218 155 221 218 
155 221 218 155 221 218 155 221 218 201 238 223 201 238 223 160 226 247 160 226 247 160 226 247 
160 226 247 160 226 247 160 226 247 160 226 247 160 226 247 160 226 247 160 226 247 160 226 247 
200 242 252 160 226 247 200 242 252 200 242 252 200 242 252 242 253 234 242 253 234 242 253 234 
242 253 234 242 253 234 242 253 234 242 253 234 242 253 234 242 253 234 242 253 234 242 253 234 
242 253 234 242 253 234 242 253 234 242 253 234 242 253 234 242 253 234 242 253 234 242 253 234 

9 2 2 9 2 2 9 2 2 9 2 2 3 1 1 3 1 1 3 1 1 3 1 1 
3 1 1 3 1 1 3 1 1 3 1 1 3 1 1 3 1 1 3 1 1 3 1 1 
3 1 1 3 1 1 3 1 1 3 1 1 3 1 1 9 2 2 3 1 1 3 1 1 
3 1 1 1 1 0 9 2 2 1 1 0 3 1 1 3 1 1 1 1 0 1 1 0 
3 1 1 1 1 0 0 0 0 3 1 1 3 1 1 3 1 1 3 1 1 3 1 1 
3 1 1 3 1 1 3 1 1 3 1 1 3 1 1 3 1 1 3 1 1 3 1 1 
3 1 1 3 1 1 1 1 0 3 1 1 3 1 1 1 1 0 1 1 0 1 1 0 
3 1 1 9 2 2 3 1 1 1 1 0 25 6 4 3 1 1 3 1 1 1 1 0 
3 1 1 1 1 0 1 1 0 1 1 0 3 1 1 3 1 1 1 1 0 3 1 1 
3 1 1 9 2 2 2 4 2 3 1 1 3 1 1 0 2 0 3 1 1 3 1 1 
3 1 1 9 2 2 1 3 2 3 1 1 2 4 2 1 1 2 2 4 2 2 4 2 
2 4 2 3 1 1 1 1 0 1 3 2 1 3 2 1 3 2 3 1 1 2 4 2 
1 3 2 25 6 4 11 7 4 1 1 2 1 3 2 4 5 4 3 1 1 2 4 2 
2 4 2 2 6 2 2 4 2 4 5 4 2 4 2 1 3 2 2 4 2 2 4 2 
2 4 2 0 5 1 1 3 2 2 4 2 2 6 2 2 6 3 2 6 3 4 5 4 
4 5 4 0 5 1 4 5 4 4 5 4 4 5 4 7 7 4 4 8 4 4 12 4 
1 9 6 1 9 6 7 10 8 1 8 8 5 19 10 10 18 10 5 19 10 1 20 14 
1 20 14 10 18 10 8 18 14 8 18 14 7 27 20 7 27 20 7 18 20 7 27 20 
7 27 20 7 18 20 7 27 20 7 27 24 23 24 27 7 27 24 23 24 27 7 35 30 
6 27 33 7 34 46 24 40 47 24 40 47 24 40 47 24 40 47 7 41 43 24 56 55 
24 56 55 24 67 72 24 67 72 24 67 72 24 56 72 24 68 95 54 83 99 24 95 100 
54 83 99 54 83 99 24 95 100 59 95 109 7 96 112 42 120 116 42 120 116 42 120 116 
27 121 132 27 121 132 27 121 132 43 121 139 27 121 132 57 121 132 43 121 139 57 121 132 
65 150 115 56 162 154 27 163 154 27 163 154 27 163 154 56 162 154 93 181 160 156 195 167 
156 195 167 156 195 167 93 191 199 128 189 167 128 189 167 128 189 167 128 189 167 156 186 216 
155 221 218 155 221 218 155 221 218 201 238 223 160 226 247 160 226 247 160 226 247 160 226 247 
160 226 247 160 226 247 160 226 247 160 226 247 160 226 247 160 226 247 160 226 247 160 226 247 
160 226 247 160 226 247 200 242 252 242 253 234 242 253 234 242 253 234 242 253 234 242 253 234 
242 253 234 242 253 234 242 253 234 200 242 252 200 242 252 242 253 234 242 253 234 242 253 234 
242 253 234 242 253 234 242 253 234 242 253 234 242 253 234 242 253 234 242 253 234 242 253 234 

15 7 5 9 2 2 9 2 2 15 7 5 9 2 2 1 3 2 3 1 1 3 1 1 
9 2 2 3 1 1 3 1 1 3 1 1 3 1 1 3 1 1 3 1 1 9 2 2 
3 1 1 3 1 1 9 2 2 3 1 1 3 1 1 9 2 2 3 1 1 3 1 1 
3 1 1 9 2 2 3 1 1 3 1 1 3 1 1 3 1 1 1 1 0 3 1 1 
3 1 1 3 1 1 3 1 1 3 1 1 1 1 0 3 1 1 3 1 1 1 1 0 
1 1 0 3 1 1 25 6 4 3 1 1 9 2 2 3 1 1 1 1 0 3 1 1 
1 1 0 3 1 1 1 1 0 1 1 0 3 1 1 3 1 1 3 1 1 3 1 1 
3 1 1 1 1 0 3 1 1 3 1 1 3 1 1 3 1 1 1 3 2 3 1 1 
3 1 1 1 1 0 3 1 1 3 1 1 2 4 2 3 1 1 2 4 2 3 1 1 
9 2 2 2 4 2 1 3 2 2 4 2 2 4 2 1 3 2 2 4 2 4 5 4 
2 4 2 15 7 5 7 7 4 9 2 2 2 4 2 1 3 2 2 4 2 0 3 1 
2 4 2 2 4 2 3 1 1 7 7 4 2 6 2 1 3 2 11 7 4 10 9 2 
2 4 2 2 4 2 2 4 2 2 4 2 4 5 4 1 3 2 1 3 2 2 4 2 
1 3 2 2 4 2 2 4 2 0 4 3 4 5 4 2 4 2 1 1 2 2 4 2 
5 9 2 4 5 4 2 4 2 4 5 4 0 3 1 0 5 1 5 9 2 0 4 3 
5 9 2 4 5 4 0 6 3 2 6 3 11 7 4 1 7 4 1 6 4 1 13 6 
1 11 6 7 10 8 10 10 6 10 18 10 10 18 10 10 18 10 8 18 14 1 16 14 
8 18 17 8 18 17 24 23 9 8 18 17 1 19 17 23 24 27 23 24 27 7 27 24 
23 24 27 7 27 20 7 27 20 7 27 24 7 27 24 6 27 28 7 35 30 7 35 30 
24 41 31 24 41 31 24 40 47 24 40 47 24 40 47 24 40 47 24 40 47 24 56 55 
24 56 55 24 67 72 24 67 72 24 67 72 24 67 72 54 92 81 24 95 100 24 95 100 
24 68 95 7 75 102 24 95 100 29 95 109 29 95 109 42 120 116 7 113 119 42 120 116 
42 120 116 27 121 132 27 121 132 43 121 139 43 121 139 57 121 132 56 162 154 56 162 154 
56 162 154 93 181 160 56 162 154 27 163 154 56 162 154 56 162 154 93 181 160 128 189 167 
128 189 167 93 181 160 93 181 160 128 189 167 128 189 167 128 189 167 128 189 167 156 186 216 
155 221 218 155 221 218 155 221 218 160 226 247 160 226 247 160 226 247 160 226 247 160 226 247 
160 226 247 160 226 247 160 226 247 160 226 247 160 226 247 160 226 247 200 242 252 200 242 252 
200 242 252 200 242 252 242 253 234 242 253 234 242 253 234 242 253 234 242 253 234 200 242 252 
200 242 252 200 242 252 200 242 252 200 242 252 242 253 234 242 253 234 242 253 234 242 253 234 
242 253 234 242 253 234 242 253 234 242 253 234 242 253 234 242 253 234 242 253 234 200 242 252 

9 2 2 9 2 2 11 7 4 9 2 2 9 2 2 9 2 2 9 2 2 9 2 2 
9 2 2 9 2 2 9 2 2 9 2 2 3 1 1 9 2 2 9 2 2 9 2 2 
9 2 2 3 1 1 3 1 1 9 2 2 3 1 1 3 1 1 3 1 1 3 1 1 
1 1 0 3 1 1 2 4 2 3 1 1 3 1 1 9 2 2 3 1 1 3 1 1 
3 1 1 3 1 1 3 1 1 1 1 0 3 1 1 3 1 1 1 1 0 3 1 1 
9 2 2 1 1 0 3 1 1 3 1 1 3 1 1 3 1 1 3 1 1 9 2 2 
3 1 1 3 1 1 3 1 1 3 1 1 0 3 1 3 1 1 3 1 1 9 2 2 
3 1 1 3 1 1 9 2 2 3 1 1 3 1 1 3 1 1 4 5 4 9 2 2 
1 1 0 3 1 1 9 2 2 2 4 2 4 5 4 1 3 2 3 1 1 1 3 2 
0 4 3 2 6 2 3 1 1 4 5 4 2 4 2 1 3 2 3 1 1 1 3 2 
1 1 2 11 7 4 4 5 4 1 3 2 2 4 2 7 7 4 2 4 2 2 6 2 
0 5 1 2 6 2 1 3 2 1 3 2 4 5 4 2 4 2 2 4 2 9 2 2 
5 9 2 4 5 4 3 1 1 2 4 2 4 5 4 2 4 2 2 4 2 2 4 2 
2 6 2 4 5 4 1 3 2 4 5 4 5 9 2 1 3 2 2 4 2 4 5 4 
4 8 4 7 7 4 15 7 5 4 5 4 2 6 3 2 6 3 2 6 3 2 6 3 
7 7 4 10 9 2 4 10 4 4 5 4 10 11 4 1 4 4 1 9 6 15 7 5 
1 11 6 1 11 6 4 9 6 7 10 8 1 19 10 8 18 14 24 23 9 8 18 14 
8 18 14 1 19 17 7 27 20 7 18 20 7 27 20 7 27 20 8 18 17 23 24 27 
23 24 27 7 18 20 23 24 27 7 35 30 7 35 30 6 27 33 24 41 31 24 41 31 
53 43 37 24 41 31 24 40 47 7 41 43 7 41 43 24 40 47 24 56 55 24 56 55 
24 56 72 24 67 72 24 67 72 24 67 72 24 67 72 24 68 95 24 68 95 24 95 100 
24 68 95 24 95 100 24 68 95 24 95 100 29 95 109 29 95 109 42 120 116 23 120 116 
27 121 132 27 121 132 7 126 130 57 121 132 65 150 115 94 154 160 56 162 154 27 163 154 
56 162 154 56 162 154 56 162 154 27 163 154 56 162 154 56 162 154 56 162 154 56 162 154 
93 181 160 93 181 160 93 181 160 128 189 167 93 181 160 128 189 167 128 189 167 156 195 167 
156 186 216 155 221 218 155 221 218 160 226 247 160 226 247 160 226 247 160 226 247 160 226 247 
160 226 247 160 226 247 160 226 247 160 226 247 160 226 247 160 226 247 160 226 247 200 242 252 
242 253 234 242 253 234 242 253 234 242 253 234 242 253 234 200 242 252 200 242 252 200 242 252 
200 242 252 200 242 252 200 242 252 200 242 252 200 242 252 242 253 234 242 253 234 242 253 234 
200 242 252 242 253 234 242 253 234 242 253 234 242 253 234 242 253 234 242 253 234 200 242 252 

15 7 5 11 7 4 15 7 5 9 2 2 15 7 5 3 1 1 15 7 5 9 2 2 
9 2 2 9 2 2 15 7 5 9 2 2 9 2 2 2 4 2 15 7 5 9 2 2 
3 1 1 9 2 2 9 2 2 3 1 1 3 1 1 2 4 2 3 1 1 3 1 1 
3 1 1 9 2 2 3 1 1 3 1 1 3 1 1 3 1 1 3 1 1 3 1 1 
9 2 2 3 1 1 3 1 1 1 3 2 9 2 2 3 1 1 3 1 1 2 4 2 
3 1 1 3 1 1 3 1 1 3 1 1 2 4 2 3 1 1 1 3 2 3 1 1 
3 1 1 2 4 2 3 1 1 3 1 1 3 1 1 2 4 2 3 1 1 9 2 2 
3 1 1 2 4 2 3 1 1 15 7 5 2 4 2 9 2 2 1 3 2 3 1 1 
1 3 2 3 1 1 9 2 2 9 2 2 4 5 4 10 9 2 4 5 4 10 9 2 
2 6 2 1 3 2 2 4 2 1 3 2 2 6 2 1 3 2 4 5 4 2 6 2 
2 4 2 3 1 1 2 4 2 2 4 2 7 7 4 4 8 4 2 4 2 4 5 4 
2 4 2 2 6 2 2 4 2 7 7 4 7 7 4 2 4 2 2 4 2 5 9 2 
2 6 3 2 6 3 2 4 2 1 3 2 1 7 4 9 2 2 10 9 2 9 2 2 
7 7 4 2 4 2 4 5 4 2 6 3 10 9 2 0 6 3 10 9 2 2 6 3 
7 7 4 1 4 4 1 7 4 4 8 4 4 5 4 11 7 4 1 7 4 4 10 4 
1 7 4 4 8 4 5 9 2 4 8 4 4 9 6 10 11 4 1 9 6 1 13 6 
7 10 8 1 8 8 5 19 10 1 13 6 1 16 14 1 20 14 8 18 14 1 16 14 
8 18 14 1 19 17 7 27 20 7 27 20 7 27 24 23 24 27 7 27 20 7 27 20 
23 24 27 7 18 20 7 27 24 23 24 27 24 41 31 24 41 31 7 41 43 24 40 47 
24 40 47 24 40 47 24 40 47 24 40 47 24 40 47 24 40 47 24 40 47 7 45 53 
24 56 72 24 67 72 24 67 72 24 56 81 24 68 95 24 68 95 59 95 109 89 107 111 
29 95 109 7 75 102 7 75 102 24 95 100 29 95 109 42 120 116 23 120 116 42 120 116 
43 121 139 27 121 132 27 121 132 56 162 154 56 162 154 56 162 154 56 162 154 27 163 154 
56 162 154 56 162 154 27 163 154 56 162 154 56 162 154 56 162 154 56 162 154 93 181 160 
93 181 160 93 181 160 56 162 154 93 181 160 93 181 160 128 189 167 128 189 167 128 189 216 
155 221 218 155 221 218 155 221 218 155 221 218 155 221 218 160 226 247 160 226 247 160 226 247 
160 226 247 160 226 247 160 226 247 160 226 247 160 226 247 200 242 252 200 242 252 242 253 234 
242 253 234 242 253 234 242 253 234 200 242 252 200 242 252 160 226 247 160 226 247 200 242 252 
200 242 252 200 242 252 200 242 252 200 242 252 200 242 252 242 253 234 200 242 252 200 242 252 
200 242 252 242 253 234 242 253 234 242 253 234 242 253 234 200 242 252 200 242 252 200 242 252 

11 7 4 25 6 4 7 7 4 15 7 5 25 6 4 9 2 2 15 7 5 7 7 4 
4 5 4 4 5 4 9 2 2 11 7 4 9 2 2 15 7 5 9 2 2 9 2 2 
9 2 2 9 2 2 3 1 1 3 1 1 9 2 2 3 1 1 3 1 1 3 1 1 
9 2 2 3 1 1 9 2 2 9 2 2 2 4 2 3 1 1 3 1 1 3 1 1 
3 1 1 1 1 0 3 1 1 2 6 2 1 1 0 3 1 1 3 1 1 9 2 2 
9 2 2 3 1 1 3 1 1 2 4 2 3 1 1 9 2 2 15 7 5 2 4 2 
15 7 5 2 4 2 2 4 2 2 4 2 1 1 0 0 5 1 1 1 2 3 1 1 
9 2 2 9 2 2 9 2 2 7 7 4 2 4 2 0 5 1 1 3 2 4 5 4 
9 2 2 2 4 2 4 5 4 25 6 4 2 4 2 4 5 4 1 3 2 2 4 2 
9 2 2 4 5 4 11 7 4 2 6 3 7 7 4 4 5 4 0 5 1 2 4 2 
2 6 2 7 7 4 11 7 4 11 7 4 1 7 4 4 8 4 2 6 3 4 5 4 
5 9 2 2 6 3 4 8 4 1 3 2 4 5 4 5 9 2 7 7 4 2 6 3 
25 6 4 7 7 4 2 6 3 10 11 4 1 7 4 4 5 4 4 8 4 0 4 3 
10 9 2 7 7 4 4 8 4 1 9 4 25 6 4 2 6 3 1 9 4 4 5 4 
4 5 4 1 9 4 4 8 4 5 9 2 4 8 4 4 8 4 7 7 4 10 10 6 
1 12 4 4 8 4 4 10 4 4 12 4 2 15 5 7 10 8 1 8 8 2 15 5 
5 19 10 5 19 10 10 18 10 5 19 10 10 18 10 1 20 14 1 19 17 8 18 17 
23 24 27 7 27 20 7 27 20 7 27 24 7 27 24 7 27 24 7 27 20 7 18 20 
23 24 27 23 24 27 23 24 27 6 27 28 7 35 30 24 41 31 7 41 43 7 41 43 
7 34 46 24 41 31 24 41 31 7 41 43 7 35 30 7 41 43 24 40 47 24 56 72 
54 63 80 54 83 99 59 95 109 89 107 111 126 145 104 147 177 131 164 179 131 198 196 136 
126 172 135 7 81 122 24 68 95 24 95 100 29 95 109 42 120 116 27 121 132 27 121 132 
43 121 139 27 121 132 43 121 139 56 162 154 27 163 154 56 162 154 56 162 154 27 163 154 
56 162 154 56 162 154 56 162 154 56 162 154 56 162 154 56 162 154 56 162 154 93 181 160 
93 181 160 93 181 160 93 181 160 93 181 160 93 181 160 128 189 167 128 189 167 156 186 216 
155 221 218 155 221 218 155 221 218 155 221 218 155 221 218 155 221 218 160 226 247 160 226 247 
160 226 247 160 226 247 160 226 247 160 226 247 200 242 252 242 253 234 242 253 234 242 253 234 
242 253 234 200 242 252 200 242 252 160 226 247 160 226 247 160 226 247 160 226 247 200 242 252 
200 242 252 200 242 252 200 242 252 200 242 252 200 242 252 200 242 252 200 242 252 200 242 252 
242 253 234 242 253 234 242 253 234 242 253 234 200 242 252 200 242 252 200 242 252 200 242 252 

15 7 5 7 7 4 25 6 4 10 9 2 15 7 5 11 7 4 7 7 4 9 2 2 
9 2 2 11 7 4 15 7 5 25 6 4 9 2 2 15 7 5 11 7 4 4 5 4 
9 2 2 4 5 4 9 2 2 9 2 2 9 2 2 9 2 2 4 5 4 9 2 2 
9 2 2 15 7 5 9 2 2 1 1 2 9 2 2 9 2 2 3 1 1 9 2 2 
9 2 2 3 1 1 3 1 1 2 4 2 1 1 2 4 5 4 1 3 2 3 1 1 
2 4 2 3 1 1 2 4 2 4 5 4 9 2 2 3 1 1 9 2 2 9 2 2 
2 4 2 1 3 2 4 5 4 11 7 4 2 4 2 2 4 2 4 5 4 2 4 2 
2 4 2 2 4 2 7 7 4 25 6 4 9 2 2 1 3 2 2 4 2 7 7 4 
11 7 4 2 4 2 5 9 2 9 2 2 15 7 5 2 4 2 9 2 2 10 9 2 
4 8 4 2 6 3 2 10 2 4 8 4 7 7 4 2 10 2 2 6 3 4 5 4 
11 7 4 4 5 4 2 6 3 7 7 4 7 7 4 4 8 4 4 8 4 10 11 4 
1 4 4 2 6 3 4 8 4 4 5 4 10 9 2 4 8 4 7 7 4 15 7 5 
11 7 4 4 8 4 4 5 4 15 7 5 7 7 4 2 6 3 1 6 4 5 9 2 
4 10 4 4 9 6 4 12 4 4 8 4 4 8 4 2 6 3 1 9 4 4 10 4 
1 6 4 4 9 6 4 8 4 4 8 4 1 6 4 4 12 4 4 9 6 4 9 6 
1 13 6 1 9 4 25 6 4 7 10 8 7 10 8 10 18 10 2 15 5 1 13 6 
7 10 8 1 19 10 1 16 14 1 16 14 1 20 14 7 27 20 23 24 27 7 27 20 
7 27 20 7 27 24 7 27 20 7 27 24 7 27 24 7 27 24 7 27 20 7 27 20 
7 27 24 7 27 24 23 24 27 7 35 30 24 41 31 24 41 31 7 35 30 7 35 30 
6 27 33 6 27 33 7 35 30 24 41 31 7 41 43 24 40 47 7 45 53 93 78 89 
155 144 112 147 177 131 164 179 131 198 196 136 197 213 164 238 227 170 238 227 170 238 227 170 
156 195 167 7 81 122 7 75 102 29 95 109 29 95 109 23 120 116 27 121 132 27 121 132 
43 121 139 43 121 139 43 121 139 57 121 132 27 121 132 27 121 132 43 121 139 27 163 154 
27 163 154 27 163 154 56 162 154 56 162 154 56 162 154 56 162 154 93 181 160 93 181 160 
93 181 160 93 181 160 93 181 160 93 181 160 128 189 167 128 189 167 128 189 167 156 186 216 
155 221 218 155 221 218 155 221 218 155 221 218 155 221 218 155 221 218 160 226 247 160 226 247 
160 226 247 160 226 247 160 226 247 200 242 252 242 253 234 242 253 234 242 253 234 242 253 234 
200 242 252 200 242 252 200 242 252 160 226 247 160 226 247 160 226 247 160 226 247 160 226 247 
200 242 252 200 242 252 200 242 252 200 242 252 200 242 252 200 242 252 200 242 252 200 242 252 
242 253 234 242 253 234 242 253 234 200 242 252 200 242 252 200 242 252 160 226 247 200 242 252 

25 6 4 7 7 4 7 7 4 15 7 5 15 7 5 25 6 4 7 7 4 15 7 5 
15 7 5 9 2 2 15 7 5 7 7 4 4 5 4 4 5 4 7 7 4 7 7 4 
11 7 4 15 7 5 7 7 4 4 5 4 15 7 5 7 7 4 4 5 4 7 7 4 
2 4 2 9 2 2 7 7 4 7 7 4 15 7 5 3 1 1 9 2 2 11 7 4 
9 2 2 1 3 2 3 1 1 2 4 2 1 3 2 4 5 4 1 3 2 9 2 2 
1 3 2 9 2 2 2 4 2 15 7 5 4 5 4 4 5 4 4 5 4 7 7 4 
4 5 4 1 3 2 9 2 2 4 5 4 24 23 9 4 5 4 4 5 4 5 9 2 
3 1 1 7 7 4 4 5 4 7 7 4 4 5 4 4 5 4 25 6 4 7 7 4 
4 5 4 7 7 4 4 8 4 15 7 5 11 7 4 11 7 4 7 7 4 2 4 2 
4 5 4 11 7 4 4 8 4 4 8 4 5 9 2 4 8 4 7 7 4 4 8 4 
4 8 4 4 8 4 5 9 2 11 7 4 15 7 5 7 7 4 11 7 4 25 6 4 
7 7 4 15 7 5 4 8 4 7 7 4 25 6 4 4 8 4 4 8 4 7 7 4 
5 9 2 5 9 2 10 11 4 15 7 5 10 11 4 4 8 4 4 8 4 10 10 6 
7 10 8 4 9 6 1 6 4 4 9 6 4 10 4 4 10 4 10 11 4 1 6 4 
1 9 6 2 15 5 7 10 8 4 9 6 4 9 6 4 9 6 7 10 8 2 15 5 
1 11 6 4 12 4 10 10 6 1 13 6 8 18 14 10 18 10 1 16 14 10 18 10 
7 10 8 1 16 14 24 23 9 5 19 10 1 16 14 8 18 17 7 27 20 8 18 17 
7 27 20 24 23 9 7 27 20 7 27 20 7 18 20 7 27 20 7 27 24 7 27 24 
7 27 24 7 27 20 7 27 24 7 27 24 7 35 30 24 41 31 7 35 30 6 27 33 
7 35 30 23 24 27 7 41 43 6 27 33 7 35 30 7 41 43 7 41 60 199 169 104 
238 227 170 197 213 164 197 213 164 197 213 164 197 213 164 197 213 164 197 213 164 197 213 164 
126 172 135 7 73 121 7 75 102 29 95 109 7 113 119 7 113 119 27 121 132 42 120 116 
27 121 132 27 121 132 57 121 132 57 121 132 43 121 139 27 163 154 65 150 115 27 163 154 
27 163 154 56 162 154 56 162 154 56 162 154 56 162 154 93 181 160 56 162 154 93 181 160 
93 181 160 93 181 160 93 181 160 93 181 160 128 189 167 128 189 167 128 189 167 156 195 167 
155 221 218 155 221 218 155 221 218 155 221 218 155 221 218 155 221 218 160 226 247 160 226 247 
160 226 247 200 242 252 200 242 252 242 253 234 242 253 234 242 253 234 200 242 252 160 226 247 
160 226 247 160 226 247 160 226 247 160 226 247 160 226 247 160 226 247 160 226 247 160 226 247 
200 242 252 200 242 252 200 242 252 200 242 252 200 242 252 200 242 252 200 242 252 200 242 252 
242 253 234 242 253 234 242 253 234 200 242 252 160 226 247 160 226 247 160 226 247 200 242 252 

9 2 2 10 9 2 15 7 5 15 7 5 25 6 4 15 7 5 15 7 5 15 7 5 
4 5 4 7 7 4 25 6 4 11 7 4 11 7 4 15 7 5 9 2 2 25 6 4 
15 7 5 4 5 4 11 7 4 7 7 4 7 7 4 15 7 5 25 6 4 25 6 4 
7 7 4 7 7 4 11 7 4 4 5 4 4 5 4 5 9 2 2 6 2 9 2 2 
7 7 4 4 5 4 4 5 4 4 5 4 2 4 2 4 5 4 11 7 4 11 7 4 
2 4 2 1 3 2 2 4 2 3 1 1 15 7 5 9 2 2 2 4 2 4 5 4 
7 7 4 11 7 4 15 7 5 11 7 4 4 5 4 9 2 2 7 7 4 1 3 2 
2 6 2 4 5 4 11 7 4 2 4 2 7 7 4 2 6 3 7 7 4 5 9 2 
4 5 4 5 9 2 4 8 4 2 6 3 4 8 4 4 5 4 10 18 5 4 8 4 
10 11 4 10 11 4 5 9 2 11 7 4 10 11 4 4 8 4 10 9 2 7 7 4 
10 11 4 15 7 5 7 7 4 7 7 4 4 10 4 7 7 4 4 8 4 7 7 4 
15 7 5 2 10 2 4 5 4 15 7 5 2 6 3 4 12 4 11 7 4 10 9 2 
4 5 4 4 9 6 4 9 6 4 9 6 15 7 5 4 12 4 25 6 4 4 12 4 
4 9 6 4 9 6 7 10 8 4 12 4 1 9 6 7 7 4 4 12 4 10 11 4 
10 11 4 10 10 6 10 18 10 7 10 8 1 11 6 4 9 6 10 18 5 2 15 5 
7 10 8 5 19 6 5 19 6 1 13 6 8 18 14 8 18 14 5 19 10 8 18 14 
5 19 10 10 18 10 1 16 14 1 16 14 8 18 14 10 18 10 1 19 17 23 24 27 
7 27 20 7 18 20 7 27 20 1 19 17 23 24 27 7 27 20 7 27 24 7 27 20 
7 27 20 8 18 17 7 27 24 23 24 27 6 27 33 6 27 33 7 27 24 6 27 28 
7 35 30 7 35 30 7 34 46 24 41 31 24 41 31 7 41 43 24 41 78 199 197 101 
197 213 164 197 213 164 156 195 167 156 195 167 156 195 167 147 177 131 126 172 135 126 145 132 
59 95 109 7 75 102 7 75 102 29 95 109 7 113 119 7 126 130 27 121 132 23 120 116 
23 120 116 27 121 132 57 121 132 65 150 115 43 121 139 27 163 154 43 121 139 27 163 154 
56 162 154 27 163 154 56 162 154 27 163 154 27 163 154 56 162 154 56 162 154 56 162 154 
56 162 154 93 181 160 93 181 160 93 181 160 128 189 167 128 189 167 156 195 167 156 195 167 
156 186 216 155 221 218 155 221 218 155 221 218 155 221 218 155 221 218 160 226 247 200 242 252 
200 242 252 200 242 252 242 253 234 200 242 252 200 242 252 160 226 247 160 226 247 160 226 247 
160 226 247 160 226 247 160 226 247 160 226 247 160 226 247 160 226 247 160 226 247 160 226 247 
160 226 247 200 242 252 160 226 247 160 226 247 160 226 247 200 242 252 200 242 252 200 242 252 
242 253 234 242 253 234 200 242 252 160 226 247 160 226 247 160 226 247 160 226 247 160 226 247 

25 6 4 11 7 4 15 7 5 11 7 4 15 7 5 7 7 4 11 7 4 11 7 4 
11 7 4 11 7 4 15 7 5 11 7 4 11 7 4 7 7 4 10 9 2 11 7 4 
15 7 5 15 7 5 7 7 4 15 7 5 15 7 5 7 7 4 7 7 4 11 7 4 
15 7 5 7 7 4 7 7 4 5 9 2 11 7 4 11 7 4 7 7 4 7 7 4 
15 7 5 11 7 4 11 7 4 15 7 5 2 4 2 4 8 4 4 5 4 4 5 4 
9 2 2 7 7 4 3 1 1 3 1 1 11 7 4 25 6 4 2 4 2 4 5 4 
4 5 4 2 6 3 11 7 4 1 3 2 4 5 4 15 7 5 4 5 4 11 7 4 
7 7 4 11 7 4 7 7 4 2 6 3 4 5 4 4 8 4 10 11 4 4 8 4 
7 7 4 4 10 4 10 11 4 10 11 4 25 6 4 1 7 4 10 9 2 4 5 4 
4 8 4 4 9 6 7 7 4 10 11 4 10 11 4 4 12 4 4 5 4 1 7 4 
4 12 4 15 7 5 10 11 4 10 10 6 7 7 4 10 11 4 10 11 4 4 10 4 
4 12 4 4 12 4 24 23 9 25 6 4 4 12 4 24 23 9 15 7 5 10 11 4 
10 10 6 15 7 5 7 7 4 15 7 5 7 7 4 4 9 6 1 11 6 10 10 6 
10 10 6 15 7 5 7 10 8 10 18 5 4 12 4 4 9 6 10 18 10 10 18 10 
7 10 8 4 12 4 7 10 8 10 18 10 7 10 8 5 19 10 10 18 10 10 18 10 
7 10 8 1 13 6 10 18 10 24 23 9 10 18 10 5 19 10 10 18 10 1 16 14 
8 18 14 1 16 14 5 19 10 1 16 14 6 27 12 10 18 10 7 27 20 1 19 17 
7 27 20 7 27 20 1 19 17 7 27 20 7 18 20 7 27 20 7 27 20 7 27 20 
7 27 24 7 27 24 24 41 31 7 35 30 23 24 27 7 27 24 7 27 24 6 27 33 
7 35 30 7 35 30 24 41 31 24 41 31 7 41 43 7 41 43 7 41 60 155 154 99 
164 179 131 126 172 135 94 154 160 88 132 124 97 125 111 89 107 111 89 107 111 59 95 109 
54 83 99 24 68 95 24 95 100 23 120 116 27 121 132 27 121 132 27 121 132 23 120 116 
23 120 116 27 121 132 43 121 139 57 121 132 43 121 139 43 121 139 43 121 139 65 150 115 
65 150 115 56 162 154 56 162 154 27 163 154 27 163 154 56 162 154 56 162 154 56 162 154 
56 162 154 93 181 160 93 181 160 128 189 167 128 189 167 128 189 167 156 195 167 156 195 167 
156 195 167 155 221 218 155 221 218 155 221 218 155 221 218 201 238 223 200 242 252 200 242 252 
200 242 252 200 242 252 200 242 252 200 242 252 160 226 247 160 226 247 160 226 247 160 226 247 
160 226 247 160 226 247 160 226 247 160 226 247 160 226 247 160 226 247 160 226 247 160 226 247 
160 226 247 160 226 247 160 226 247 160 226 247 160 226 247 160 226 247 200 242 252 200 242 252 
242 253 234 200 242 252 160 226 247 160 226 247 160 226 247 160 226 247 160 226 247 160 226 247 

15 7 5 15 7 5 25 6 4 25 6 4 25 6 4 15 7 5 15 7 5 11 7 4 
15 7 5 10 9 2 7 7 4 25 6 4 15 7 5 15 7 5 7 7 4 15 7 5 
7 7 4 25 6 4 15 7 5 15 7 5 15 7 5 15 7 5 4 5 4 11 7 4 
11 7 4 15 7 5 7 7 4 9 2 2 9 2 2 15 7 5 5 9 2 11 7 4 
11 7 4 4 5 4 4 5 4 10 9 2 4 8 4 7 7 4 7 7 4 7 7 4 
2 4 2 11 7 4 4 5 4 11 7 4 4 8 4 4 8 4 7 7 4 10 11 4 
2 6 3 7 7 4 4 8 4 9 2 2 4 5 4 25 6 4 7 7 4 4 5 4 
11 7 4 4 8 4 11 7 4 7 7 4 4 10 4 7 7 4 11 7 4 7 7 4 
15 7 5 4 8 4 10 9 2 4 5 4 4 10 4 10 11 4 10 18 5 4 5 4 
10 10 6 10 10 6 6 8 10 25 6 4 10 11 4 11 7 4 5 9 2 4 8 4 
7 7 4 10 18 5 4 5 4 10 10 6 4 9 6 4 12 4 4 9 6 2 15 5 
4 9 6 24 23 9 25 6 4 4 9 6 10 18 5 10 10 6 10 10 6 10 10 6 
7 10 8 10 10 6 10 18 5 4 12 4 10 11 4 10 10 6 10 11 4 1 8 8 
10 18 5 10 10 6 10 18 5 10 10 6 1 4 6 10 11 4 7 10 8 10 18 10 
2 15 5 4 12 4 1 11 6 10 18 10 7 10 8 5 19 10 5 19 6 1 16 14 
5 19 10 5 19 10 7 10 8 10 18 10 1 16 14 5 19 10 7 10 8 5 19 10 
1 20 14 1 16 14 8 18 14 1 20 14 6 27 12 1 20 14 7 18 20 7 27 20 
7 27 20 1 19 17 1 19 17 7 27 20 7 27 20 7 27 20 7 27 24 1 19 17 
7 27 24 7 27 24 6 27 28 6 27 33 6 27 28 7 35 30 7 35 30 7 35 30 
24 41 31 6 27 33 24 41 31 6 27 33 24 41 31 7 41 43 7 41 43 54 63 80 
93 98 84 88 87 111 59 95 109 93 98 84 59 95 109 59 95 109 59 95 109 24 95 100 
29 95 109 29 95 109 29 95 109 7 113 119 27 121 132 27 121 132 7 113 119 23 120 116 
23 120 116 27 121 132 27 121 132 27 121 132 27 121 132 27 121 132 43 121 139 43 121 139 
27 163 154 56 162 154 65 150 115 56 162 154 56 162 154 27 163 154 56 162 154 56 162 154 
56 162 154 93 181 160 93 181 160 128 189 167 128 189 167 128 189 167 156 195 167 156 195 167 
156 195 167 155 221 218 155 221 218 155 221 218 201 238 223 201 238 223 242 253 234 242 253 234 
200 242 252 200 242 252 160 226 247 160 226 247 160 226 247 160 226 247 160 226 247 160 226 247 
160 226 247 160 226 247 160 226 247 160 226 247 160 226 247 160 226 247 160 226 247 160 226 247 
160 226 247 160 226 247 160 226 247 160 226 247 160 226 247 160 226 247 200 242 252 200 242 252 
200 242 252 200 242 252 160 226 247 160 226 247 160 226 247 160 226 247 155 221 218 155 221 218 

15 7 5 7 7 4 15 7 5 25 6 4 25 6 4 15 7 5 25 6 4 15 7 5 
25 6 4 15 7 5 7 7 4 15 7 5 15 7 5 4 8 4 11 7 4 10 9 2 
10 11 4 11 7 4 7 7 4 11 7 4 15 7 5 11 7 4 15 7 5 10 11 4 
10 10 6 11 7 4 11 7 4 11 7 4 4 8 4 15 7 5 11 7 4 15 7 5 
10 11 4 7 7 4 15 7 5 10 9 2 7 7 4 7 7 4 4 5 4 4 5 4 
4 5 4 7 7 4 5 9 2 7 7 4 25 6 4 15 7 5 7 7 4 4 5 4 
4 5 4 4 5 4 15 7 5 15 7 5 7 7 4 4 5 4 15 7 5 10 9 2 
4 5 4 7 7 4 7 7 4 25 6 4 15 7 5 10 11 4 4 8 4 15 7 5 
4 8 4 10 11 4 4 8 4 4 10 4 10 10 6 7 7 4 4 12 4 11 7 4 
4 9 6 10 18 5 10 10 6 10 10 6 4 8 4 15 7 5 7 7 4 10 11 4 
1 9 6 4 9 6 7 7 4 10 18 5 7 10 8 10 18 5 10 18 5 10 10 6 
10 18 5 4 12 4 10 10 6 10 18 5 1 19 10 10 18 10 10 18 5 10 11 4 
2 15 5 7 10 8 7 10 8 7 10 8 10 18 5 7 7 4 4 9 6 10 18 5 
7 10 8 7 10 8 7 10 8 4 9 6 10 18 5 7 10 8 6 8 10 10 18 5 
10 18 5 1 11 6 10 18 5 1 19 10 10 18 10 10 18 10 7 10 8 5 19 10 
10 18 10 1 16 14 24 23 9 1 16 14 1 19 10 5 19 10 1 19 10 1 19 10 
5 19 10 5 19 10 10 18 10 8 18 14 8 18 14 8 18 17 10 18 10 1 19 17 
8 18 17 1 19 17 7 27 20 7 27 20 7 18 20 7 27 20 7 27 20 7 27 20 
7 27 20 7 27 24 6 27 28 6 27 33 7 35 30 24 41 31 6 27 33 6 27 33 
7 35 30 7 41 43 7 41 43 7 41 43 6 27 33 7 34 46 7 41 43 24 40 47 
24 67 72 54 63 80 54 63 80 54 92 81 54 83 99 59 95 109 54 83 99 54 92 81 
59 95 109 29 95 109 29 95 109 23 120 116 27 121 132 7 113 119 23 120 116 23 120 116 
7 126 130 27 121 132 27 121 132 27 121 132 43 121 139 7 126 130 27 121 132 27 163 154 
43 121 139 27 163 154 56 162 154 27 163 154 27 163 154 27 163 154 56 162 154 56 162 154 
93 181 160 56 162 154 93 181 160 93 181 160 93 181 160 128 189 167 128 189 167 128 189 167 
156 195 167 156 186 216 155 221 218 201 238 223 201 238 223 242 253 234 201 238 223 201 238 223 
160 226 247 155 221 218 155 221 218 155 221 218 160 226 247 160 226 247 160 226 247 160 226 247 
160 226 247 160 226 247 160 226 247 160 226 247 160 226 247 160 226 247 160 226 247 160 226 247 
160 226 247 160 226 247 160 226 247 160 226 247 160 226 247 160 226 247 200 242 252 200 242 252 
200 242 252 160 226 247 160 226 247 160 226 247 160 226 247 160 226 247 155 221 218 155 221 218 

11 7 4 25 6 4 11 7 4 15 7 5 15 7 5 7 7 4 11 7 4 15 7 5 
11 7 4 7 7 4 7 7 4 25 6 4 10 11 4 2 6 3 2 6 3 7 7 4 
10 10 6 15 7 5 25 6 4 25 6 4 7 7 4 7 7 4 15 7 5 15 7 5 
10 10 6 15 7 5 15 7 5 15 7 5 4 10 4 15 7 5 10 10 6 25 6 4 
15 7 5 11 7 4 15 7 5 2 6 3 7 7 4 10 9 2 10 9 2 0 6 3 
7 7 4 25 6 4 11 7 4 7 7 4 11 7 4 9 2 2 11 7 4 11 7 4 
15 7 5 10 11 4 11 7 4 7 7 4 11 7 4 10 9 2 4 5 4 9 2 2 
11 7 4 11 7 4 10 11 4 10 11 4 15 7 5 10 10 6 11 7 4 11 7 4 
4 12 4 5 9 2 7 7 4 10 10 6 15 7 5 4 9 6 7 7 4 7 7 4 
10 11 4 10 11 4 7 7 4 10 10 6 4 8 4 2 15 5 4 12 4 7 10 8 
4 12 4 10 11 4 4 9 6 10 11 4 10 11 4 4 9 6 25 6 4 2 15 5 
4 12 4 10 18 5 7 10 8 10 10 6 1 13 6 10 18 5 10 11 4 15 7 5 
2 15 5 4 12 4 4 12 4 10 18 5 4 9 6 4 10 4 10 18 5 7 10 8 
15 7 5 2 19 6 7 10 8 10 18 5 1 13 6 5 19 6 7 10 8 2 15 5 
2 15 5 5 19 6 5 19 6 1 16 14 5 19 10 10 18 10 5 19 6 10 18 10 
5 19 10 10 18 10 1 16 14 10 18 10 1 19 10 6 27 12 1 19 10 10 18 10 
1 19 10 8 18 14 8 18 17 1 20 14 1 16 14 6 27 12 8 18 17 1 19 17 
6 27 12 1 19 17 7 27 20 1 19 17 7 27 20 23 24 27 7 27 24 1 19 17 
23 24 27 7 35 30 7 35 30 6 27 33 7 35 30 7 35 30 7 35 30 7 35 30 
7 35 30 7 34 46 7 41 43 7 34 46 7 34 46 7 41 43 7 45 53 24 40 47 
24 56 55 24 56 72 24 56 81 55 83 74 93 78 89 54 83 99 93 78 89 54 83 99 
24 68 95 40 64 95 54 83 99 23 120 116 29 95 109 23 120 116 29 95 109 23 120 116 
57 121 132 27 121 132 57 121 132 43 121 139 27 121 132 27 121 132 43 121 139 57 121 132 
56 162 154 27 163 154 27 163 154 27 163 154 56 162 154 56 162 154 27 163 154 56 162 154 
93 181 160 93 181 160 93 181 160 93 181 160 93 181 160 93 181 160 128 189 167 128 189 167 
156 195 167 155 221 218 201 238 223 201 238 223 201 238 223 201 238 223 201 238 223 155 221 218 
155 221 218 155 221 218 155 221 218 155 221 218 155 221 218 160 226 247 160 226 247 160 226 247 
160 226 247 160 226 247 160 226 247 160 226 247 160 226 247 160 226 247 160 226 247 160 226 247 
160 226 247 160 226 247 160 226 247 160 226 247 160 226 247 160 226 247 200 242 252 200 242 252 
200 242 252 160 226 247 160 226 247 155 221 218 128 189 216 155 221 218 128 189 216 128 189 216 

11 7 4 15 7 5 25 6 4 15 7 5 25 6 4 9 2 2 11 7 4 15 7 5 
25 6 4 7 7 4 4 10 4 15 7 5 10 11 4 2 6 3 2 6 3 15 7 5 
25 6 4 11 7 4 15 7 5 15 7 5 15 7 5 4 8 4 15 7 5 15 7 5 
15 7 5 11 7 4 15 7 5 15 7 5 4 9 6 15 7 5 15 7 5 10 10 6 
15 7 5 7 7 4 15 7 5 4 5 4 4 5 4 7 7 4 5 9 2 7 7 4 
4 5 4 2 6 3 11 7 4 7 7 4 9 2 2 11 7 4 7 7 4 4 5 4 
15 7 5 7 7 4 7 7 4 25 6 4 15 7 5 7 7 4 11 7 4 10 11 4 
11 7 4 25 6 4 15 7 5 7 7 4 4 9 6 4 9 6 4 9 6 10 10 6 
10 10 6 4 9 6 4 12 4 7 7 4 4 12 4 7 10 8 10 11 4 4 12 4 
15 7 5 15 7 5 15 7 5 25 6 4 10 11 4 1 13 6 7 10 8 10 18 5 
15 7 5 4 12 4 4 12 4 7 10 8 1 9 6 4 9 6 1 12 4 10 18 5 
24 23 9 5 19 6 7 10 8 10 11 4 7 10 8 7 10 8 7 10 8 10 18 5 
10 18 5 4 9 6 7 10 8 1 13 6 10 10 6 4 9 6 24 23 9 5 19 6 
10 18 10 10 18 10 1 13 6 4 9 6 5 19 10 5 19 10 5 19 6 1 13 6 
10 18 10 5 19 10 7 10 8 5 19 6 8 18 14 8 18 14 10 18 10 10 18 10 
8 18 14 1 19 10 1 19 10 5 19 10 24 23 9 24 23 9 5 19 10 1 16 14 
5 19 10 8 18 14 1 16 14 8 18 14 6 27 12 8 18 14 1 19 17 1 19 17 
7 18 20 7 27 20 1 19 17 7 27 20 7 27 24 7 27 24 7 27 24 7 27 24 
6 27 28 6 27 28 6 27 33 7 35 30 6 27 33 24 41 31 6 27 33 6 27 33 
24 41 31 7 41 43 24 40 47 24 40 47 7 41 43 24 40 47 24 40 47 24 56 55 
24 56 55 54 63 80 54 63 80 93 78 89 93 78 89 93 78 89 93 98 84 55 83 74 
24 68 95 24 95 100 29 95 109 29 95 109 7 96 112 29 95 109 23 120 116 42 120 116 
42 120 116 27 121 132 27 121 132 27 121 132 7 126 130 27 121 132 27 121 132 27 163 154 
27 163 154 27 163 154 27 163 154 27 163 154 27 163 154 27 163 154 27 163 154 56 162 154 
56 162 154 93 181 160 93 181 160 93 181 160 93 181 160 128 189 167 128 189 167 156 195 167 
198 212 189 201 238 223 201 238 223 201 238 223 201 238 223 155 221 218 155 221 218 155 221 218 
155 221 218 155 221 218 155 221 218 155 221 218 160 226 247 160 226 247 155 221 218 160 226 247 
160 226 247 160 226 247 160 226 247 160 226 247 160 226 247 160 226 247 160 226 247 160 226 247 
160 226 247 160 226 247 160 226 247 160 226 247 160 226 247 200 242 252 200 242 252 200 242 252 
160 226 247 155 221 218 155 221 218 155 221 218 128 189 216 128 189 216 128 189 216 128 189 216 

9 2 2 15 7 5 5 9 2 15 7 5 25 6 4 15 7 5 15 7 5 15 7 5 
25 6 4 25 6 4 15 7 5 15 7 5 10 11 4 7 7 4 4 5 4 25 6 4 
15 7 5 15 7 5 15 7 5 10 18 5 11 7 4 15 7 5 15 7 5 15 7 5 
11 7 4 10 11 4 11 7 4 15 7 5 10 18 5 15 7 5 10 10 6 10 11 4 
15 7 5 15 7 5 4 9 6 7 7 4 15 7 5 4 8 4 11 7 4 11 7 4 
15 7 5 2 6 3 4 8 4 7 7 4 10 9 2 11 7 4 4 5 4 7 7 4 
10 9 2 7 7 4 15 7 5 11 7 4 10 11 4 10 9 2 4 5 4 10 11 4 
7 7 4 10 11 4 11 7 4 10 11 4 7 10 8 10 10 6 10 10 6 15 7 5 
4 12 4 4 12 4 4 9 6 10 11 4 2 15 5 10 18 5 4 9 6 10 11 4 
10 10 6 10 18 5 2 15 5 7 10 8 7 7 4 4 12 4 4 12 4 1 9 6 
4 12 4 2 15 5 10 10 6 10 18 5 7 10 8 10 18 5 1 11 6 4 9 6 
2 15 5 1 11 6 10 18 5 7 10 8 24 23 9 10 10 6 10 11 4 10 18 10 
10 18 10 25 6 4 10 18 5 10 18 10 7 10 8 2 15 5 7 10 8 10 18 10 
7 10 8 10 18 5 6 8 10 4 12 4 10 18 10 10 18 10 7 10 8 1 13 6 
10 18 10 5 19 10 10 18 10 5 19 10 1 19 10 1 16 14 10 18 10 5 19 10 
1 16 14 1 16 14 1 16 14 10 18 10 24 23 9 8 18 14 8 18 14 1 20 14 
1 16 14 5 19 10 1 20 14 1 20 14 1 20 14 1 20 14 1 19 17 23 24 27 
7 27 24 7 27 24 7 27 20 7 27 20 7 27 24 23 24 27 7 27 24 6 27 28 
6 27 28 6 27 33 7 35 30 7 35 30 6 27 33 24 41 31 24 41 31 6 27 33 
7 35 30 7 34 46 24 40 47 24 40 47 24 40 47 24 40 47 24 56 55 7 45 53 
24 56 55 24 56 72 54 63 80 54 63 80 54 83 99 54 83 99 54 63 80 24 67 72 
40 64 95 24 95 100 29 95 109 29 95 109 7 96 112 7 96 112 29 95 109 42 120 116 
42 120 116 27 121 132 27 121 132 42 120 116 57 121 132 27 121 132 27 163 154 43 121 139 
27 163 154 27 163 154 27 163 154 27 163 154 56 162 154 56 162 154 56 162 154 93 181 160 
93 181 160 94 154 160 93 181 160 93 181 160 128 189 167 128 189 167 198 212 189 198 212 189 
201 238 223 198 212 189 198 212 189 156 186 216 155 221 218 155 221 218 156 186 216 155 221 218 
128 189 216 155 221 218 155 221 218 155 221 218 160 226 247 155 221 218 128 189 216 155 221 218 
155 221 218 160 226 247 160 226 247 160 226 247 155 221 218 128 189 216 160 226 247 160 226 247 
160 226 247 160 226 247 160 226 247 160 226 247 160 226 247 200 242 252 200 242 252 160 226 247 
155 221 218 155 221 218 128 189 216 128 189 216 128 189 216 128 189 216 128 189 216 128 189 216 

25 6 4 7 7 4 15 7 5 11 7 4 11 7 4 7 7 4 25 6 4 15 7 5 
15 7 5 25 6 4 11 7 4 11 7 4 25 6 4 15 7 5 15 7 5 15 7 5 
15 7 5 10 18 5 11 7 4 10 11 4 25 6 4 4 5 4 15 7 5 7 7 4 
4 12 4 10 18 5 4 9 6 4 8 4 7 7 4 10 11 4 10 9 2 25 6 4 
15 7 5 10 10 6 10 11 4 7 7 4 1 4 6 15 7 5 7 7 4 25 6 4 
7 7 4 5 9 2 7 7 4 15 7 5 15 7 5 25 6 4 4 10 4 1 4 4 
11 7 4 15 7 5 2 6 3 7 7 4 11 7 4 5 9 2 15 7 5 7 7 4 
7 7 4 15 7 5 10 10 6 7 7 4 4 9 6 10 18 5 7 10 8 4 9 6 
10 10 6 7 10 8 25 6 4 7 7 4 10 18 5 10 10 6 4 12 4 10 10 6 
10 18 10 1 11 6 4 9 6 10 18 5 1 9 6 1 11 6 7 10 8 25 6 4 
4 9 6 1 13 6 2 15 5 1 8 8 2 15 5 10 10 6 25 6 4 15 7 5 
10 18 5 4 12 4 10 18 5 1 13 6 10 10 6 10 18 10 10 18 5 10 11 4 
5 19 6 7 10 8 10 10 6 10 18 10 7 10 8 10 18 5 5 19 10 10 18 10 
10 18 10 10 18 10 10 18 5 10 18 5 10 18 10 10 18 10 10 18 10 7 10 8 
1 16 14 7 10 8 1 13 6 2 15 5 10 18 10 6 27 12 5 19 10 5 19 10 
8 18 14 24 23 9 1 16 14 10 18 10 8 18 14 24 23 9 8 18 14 24 23 9 
1 16 14 5 19 10 8 18 14 8 18 14 6 27 12 6 27 12 8 18 17 8 18 17 
7 27 24 7 27 24 7 27 24 6 27 28 7 27 24 7 27 24 23 24 27 6 27 28 
6 27 28 6 27 33 24 41 31 7 35 30 23 24 27 24 41 31 24 41 31 24 41 31 
24 41 31 6 27 33 7 41 43 7 41 43 24 40 47 24 40 47 24 40 47 7 45 53 
24 56 55 24 56 72 54 63 80 54 63 80 55 83 74 40 64 95 40 64 95 40 64 95 
40 64 95 24 68 95 54 83 99 24 95 100 29 95 109 29 95 109 29 95 109 42 120 116 
27 121 132 42 120 116 42 120 116 57 121 132 57 121 132 43 121 139 56 162 154 56 162 154 
27 163 154 27 163 154 27 163 154 27 163 154 56 162 154 27 163 154 56 162 154 56 162 154 
93 181 160 56 162 154 93 181 160 128 189 167 156 195 167 198 212 189 198 212 189 198 212 189 
198 212 189 156 195 167 128 189 167 128 189 216 128 189 216 156 195 167 128 189 216 155 221 218 
155 221 218 155 221 218 155 221 218 155 221 218 155 221 218 155 221 218 155 221 218 155 221 218 
155 221 218 128 189 216 155 221 218 160 226 247 160 226 247 160 226 247 160 226 247 160 226 247 
160 226 247 160 226 247 155 221 218 155 221 218 160 226 247 160 226 247 200 242 252 155 221 218 
155 221 218 128 189 216 128 189 216 128 189 216 128 189 216 128 189 216 128 189 216 128 189 216 

11 7 4 11 7 4 7 7 4 11 7 4 15 7 5 15 7 5 4 5 4 15 7 5 
15 7 5 15 7 5 10 11 4 10 10 6 15 7 5 25 6 4 7 7 4 15 7 5 
15 7 5 10 11 4 15 7 5 10 11 4 15 7 5 15 7 5 7 7 4 10 11 4 
11 7 4 15 7 5 4 12 4 15 7 5 25 6 4 10 11 4 7 7 4 7 7 4 
15 7 5 10 11 4 10 11 4 15 7 5 4 12 4 11 7 4 10 9 2 4 5 4 
10 9 2 15 7 5 7 7 4 2 6 3 2 6 3 10 9 2 4 5 4 7 7 4 
11 7 4 4 5 4 10 9 2 10 9 2 2 6 3 15 7 5 10 11 4 7 7 4 
10 9 2 4 8 4 4 8 4 7 7 4 4 12 4 24 23 9 10 18 5 10 10 6 
15 7 5 15 7 5 10 18 5 10 10 6 10 10 6 1 11 6 10 10 6 10 18 5 
10 18 5 10 10 6 10 10 6 10 18 5 4 12 4 4 12 4 10 18 5 4 12 4 
10 11 4 4 9 6 10 18 5 7 10 8 1 9 6 4 12 4 4 12 4 24 23 9 
4 9 6 7 10 8 7 10 8 10 18 5 10 18 5 10 18 5 7 10 8 10 11 4 
10 10 6 10 18 10 10 18 10 10 18 10 7 10 8 1 8 8 10 18 10 10 18 10 
10 18 5 4 12 4 1 13 6 7 10 8 10 10 6 10 10 6 7 10 8 10 18 10 
10 18 10 1 19 10 10 18 10 5 19 6 5 19 10 10 18 10 8 18 14 8 18 14 
1 20 14 24 23 9 6 27 12 5 19 10 1 16 14 24 23 9 1 16 14 5 19 10 
1 16 14 6 27 12 1 19 17 6 27 12 8 18 17 10 18 10 8 18 17 7 27 20 
6 27 28 7 27 24 23 24 27 7 35 30 7 27 24 6 27 28 7 35 30 24 41 31 
24 41 31 6 27 33 24 41 31 24 41 31 24 41 31 7 35 30 24 41 31 24 41 31 
7 41 43 7 41 43 24 41 31 24 56 55 24 40 47 24 56 55 24 56 55 24 56 55 
24 56 55 24 56 72 24 56 72 55 83 74 54 92 81 24 68 95 24 67 72 24 56 81 
54 83 99 24 95 100 54 83 99 29 95 109 54 83 99 54 83 99 42 120 116 42 120 116 
42 120 116 57 121 132 43 121 139 57 121 132 43 121 139 56 162 154 56 162 154 27 163 154 
56 162 154 27 163 154 27 163 154 27 163 154 56 162 154 56 162 154 56 162 154 56 162 154 
56 162 154 93 181 160 128 189 167 156 195 167 198 212 189 198 212 189 198 212 189 156 195 167 
128 189 167 93 191 199 93 181 160 93 191 199 128 189 167 128 189 167 128 189 216 155 221 218 
155 221 218 128 189 216 128 189 216 128 189 216 128 189 216 128 189 216 128 189 216 155 221 218 
128 189 216 128 189 216 155 221 218 155 221 218 155 221 218 155 221 218 160 226 247 160 226 247 
160 226 247 128 189 216 155 221 218 155 221 218 201 238 223 201 238 223 201 238 223 155 221 218 
128 189 216 128 189 216 128 189 216 128 189 216 128 189 216 128 189 216 128 189 216 128 189 216 

7 7 4 5 9 2 7 7 4 11 7 4 15 7 5 10 11 4 15 7 5 25 6 4 
25 6 4 10 11 4 10 10 6 10 10 6 11 7 4 10 11 4 10 11 4 11 7 4 
15 7 5 25 6 4 15 7 5 25 6 4 15 7 5 15 7 5 4 8 4 7 7 4 
15 7 5 15 7 5 15 7 5 10 10 6 24 23 9 7 7 4 11 7 4 10 11 4 
7 10 8 1 11 6 10 10 6 15 7 5 24 23 9 7 7 4 10 9 2 11 7 4 
2 6 3 25 6 4 25 6 4 1 4 4 5 9 2 11 7 4 11 7 4 4 8 4 
7 7 4 7 7 4 15 7 5 10 9 2 4 5 4 10 9 2 15 7 5 7 7 4 
11 7 4 4 5 4 10 11 4 4 12 4 4 8 4 15 7 5 4 9 6 7 7 4 
10 10 6 10 10 6 10 10 6 10 11 4 24 23 9 5 19 6 15 7 5 6 8 10 
1 11 6 25 6 4 25 6 4 10 10 6 4 12 4 10 11 4 10 11 4 10 11 4 
4 9 6 4 12 4 7 10 8 7 10 8 15 7 5 5 19 6 10 18 5 10 10 6 
10 10 6 10 10 6 15 7 5 10 18 5 4 12 4 10 11 4 10 10 6 10 18 5 
15 7 5 24 23 9 24 23 9 10 18 10 10 18 10 10 18 10 7 10 8 10 18 10 
10 18 5 5 19 6 4 12 4 5 19 6 7 10 8 10 10 6 10 10 6 5 19 10 
5 19 10 24 23 9 6 27 12 10 18 10 10 18 10 10 18 10 10 18 10 8 18 14 
8 18 14 1 16 14 1 16 14 10 18 10 1 20 14 1 19 17 6 27 12 6 27 12 
8 18 14 8 18 14 5 19 10 8 18 14 10 18 10 1 16 14 1 20 14 7 18 20 
7 27 24 7 27 24 23 24 27 7 35 30 23 24 27 7 35 30 24 41 31 6 27 33 
24 41 31 6 27 28 6 27 28 6 27 28 7 35 30 23 24 27 24 41 31 6 27 33 
24 40 47 24 40 47 24 40 47 24 40 47 24 40 47 24 56 55 24 56 55 24 56 55 
24 56 55 24 56 72 24 56 72 24 67 72 24 67 72 24 68 95 24 67 72 24 68 95 
24 95 100 24 95 100 54 83 99 24 95 100 29 95 109 29 95 109 29 95 109 42 120 116 
42 120 116 42 120 116 42 120 116 57 121 132 57 121 132 65 150 115 65 150 115 27 121 132 
27 121 132 27 163 154 56 162 154 56 162 154 65 150 115 65 150 115 56 162 154 56 162 154 
93 181 160 156 195 167 197 213 164 197 213 164 197 213 164 156 195 167 128 189 167 93 181 160 
93 181 160 93 181 160 93 181 160 93 181 160 93 181 160 128 189 167 128 189 167 156 195 167 
128 189 216 128 189 216 128 189 216 128 189 216 93 191 199 128 189 216 155 221 218 155 221 218 
128 189 216 128 189 216 128 189 216 128 189 216 128 189 216 155 221 218 160 226 247 160 226 247 
160 226 247 155 221 218 155 221 218 155 221 218 201 238 223 201 238 223 155 221 218 155 221 218 
128 189 216 93 191 199 128 189 216 128 189 216 128 189 216 128 189 216 128 189 216 128 189 216 

15 7 5 7 7 4 7 7 4 7 7 4 10 11 4 7 7 4 11 7 4 15 7 5 
15 7 5 15 7 5 11 7 4 10 11 4 7 7 4 15 7 5 25 6 4 11 7 4 
11 7 4 25 6 4 15 7 5 15 7 5 11 7 4 7 7 4 15 7 5 10 11 4 
11 7 4 2 6 3 10 10 6 15 7 5 15 7 5 10 10 6 15 7 5 10 18 5 
15 7 5 15 7 5 10 10 6 10 11 4 11 7 4 7 7 4 25 6 4 7 7 4 
4 5 4 4 10 4 4 5 4 5 9 2 10 11 4 10 11 4 15 7 5 15 7 5 
11 7 4 2 6 3 7 7 4 7 7 4 7 7 4 10 11 4 4 5 4 10 9 2 
4 8 4 7 7 4 7 7 4 15 7 5 10 11 4 10 11 4 11 7 4 10 10 6 
4 12 4 10 18 5 4 12 4 10 10 6 4 12 4 10 10 6 10 18 5 24 23 9 
7 10 8 10 18 5 25 6 4 25 6 4 24 23 9 10 10 6 15 7 5 4 9 6 
10 10 6 10 10 6 7 10 8 7 10 8 2 15 5 7 10 8 15 7 5 4 9 6 
10 10 6 10 18 5 7 10 8 10 18 5 10 18 5 7 10 8 10 18 5 10 18 5 
10 18 5 24 23 9 10 18 10 24 23 9 10 18 10 24 23 9 24 23 9 24 23 9 
24 23 9 10 18 10 5 19 10 7 10 8 4 9 6 10 18 5 5 19 10 10 18 10 
10 18 10 10 18 10 10 10 6 10 18 10 10 18 10 10 18 10 8 18 14 6 27 12 
10 18 10 8 18 14 1 20 14 1 16 14 1 20 14 8 18 14 1 16 14 24 23 9 
8 18 14 8 18 14 6 27 12 1 16 14 1 20 14 1 19 17 6 27 12 7 27 20 
7 27 24 6 27 28 23 24 27 23 24 27 6 27 28 23 24 27 24 41 31 6 27 28 
7 35 30 24 41 31 24 41 31 7 35 30 7 35 30 6 27 33 7 34 46 7 34 46 
24 40 47 24 40 47 24 40 47 24 40 47 24 40 47 24 56 55 24 56 55 24 56 55 
24 56 72 24 67 72 24 67 72 7 56 82 24 67 72 24 67 72 40 64 95 24 68 95 
24 68 95 24 95 100 24 95 100 29 95 109 29 95 109 29 95 109 29 95 109 42 120 116 
27 121 132 23 120 116 42 120 116 27 121 132 27 121 132 27 121 132 42 120 116 23 120 116 
42 120 116 27 121 132 56 162 154 56 162 154 65 150 115 56 162 154 94 154 160 126 172 135 
164 179 131 198 196 136 197 213 164 156 195 167 128 189 167 93 181 160 93 181 160 93 181 160 
93 181 160 93 181 160 56 162 154 93 181 160 93 181 160 93 191 199 93 191 199 93 191 199 
93 191 199 93 191 199 93 191 199 93 191 199 128 189 216 128 189 216 128 189 216 128 189 216 
128 189 216 155 221 218 128 189 216 128 189 216 128 189 216 128 189 216 160 226 247 160 226 247 
128 189 216 155 221 218 155 221 218 155 221 218 155 221 218 155 221 218 128 189 216 128 189 216 
128 189 216 128 189 216 128 189 216 128 189 216 128 189 216 128 189 216 93 191 199 93 191 199 

11 7 4 15 7 5 11 7 4 15 7 5 7 7 4 4 10 4 10 11 4 11 7 4 
15 7 5 11 7 4 10 11 4 10 10 6 11 7 4 7 7 4 15 7 5 25 6 4 
15 7 5 15 7 5 11 7 4 25 6 4 15 7 5 7 7 4 15 7 5 15 7 5 
15 7 5 4 8 4 10 11 4 10 10 6 10 10 6 10 11 4 7 10 8 10 10 6 
15 7 5 15 7 5 4 5 4 10 11 4 15 7 5 4 10 4 7 7 4 7 7 4 
7 7 4 10 11 4 11 7 4 7 7 4 5 9 2 4 10 4 7 7 4 4 5 4 
7 7 4 7 7 4 10 11 4 11 7 4 7 7 4 7 7 4 4 5 4 11 7 4 
7 7 4 15 7 5 7 7 4 7 7 4 10 11 4 4 8 4 7 7 4 10 10 6 
5 19 6 10 11 4 10 10 6 10 11 4 1 13 6 2 15 5 10 10 6 24 23 9 
15 7 5 2 15 5 10 10 6 7 10 8 10 10 6 10 11 4 4 12 4 1 11 6 
10 11 4 10 10 6 7 10 8 10 10 6 10 18 10 10 18 5 25 6 4 10 18 5 
1 13 6 15 7 5 10 18 5 10 10 6 10 18 10 10 18 5 10 18 10 10 10 6 
10 18 5 15 7 5 5 19 6 7 10 8 10 10 6 10 18 10 10 18 10 7 10 8 
10 10 6 10 18 10 10 18 10 10 18 10 24 23 9 10 18 10 10 18 10 5 19 10 
5 19 10 10 18 10 5 19 10 10 18 10 5 19 10 5 19 10 8 18 14 24 23 9 
1 16 14 1 16 14 8 18 14 6 27 12 1 16 14 10 18 10 1 16 14 1 16 14 
8 18 14 1 16 14 1 20 14 8 18 17 1 20 14 7 18 20 8 18 17 7 18 20 
7 18 20 6 27 28 6 27 28 6 27 28 6 27 28 6 27 28 7 35 30 7 27 24 
7 35 30 6 27 33 7 35 30 7 35 30 6 27 33 7 35 30 24 40 47 7 41 43 
24 40 47 24 41 31 7 41 43 7 41 43 24 40 47 7 45 53 24 56 55 24 56 55 
24 56 72 24 56 72 24 67 72 24 67 72 24 67 72 24 67 72 24 67 72 40 64 95 
24 95 100 7 75 102 24 95 100 24 95 100 29 95 109 29 95 109 23 120 116 23 120 116 
29 95 109 23 120 116 27 121 132 7 126 130 27 121 132 27 121 132 27 121 132 23 120 116 
42 120 116 43 121 139 63 125 116 65 150 115 56 162 154 94 154 160 147 177 131 189 174 152 
198 196 136 198 196 136 156 195 167 93 181 160 56 162 154 56 162 154 56 162 154 93 181 160 
93 181 160 93 181 160 56 162 154 93 181 160 93 181 160 93 191 199 93 181 160 93 181 160 
93 191 199 93 191 199 93 191 199 93 191 199 128 189 216 93 191 199 93 191 199 128 189 216 
128 189 216 128 189 216 128 189 216 93 191 199 128 189 216 155 221 218 155 221 218 155 221 218 
128 189 216 128 189 216 155 221 218 155 221 218 155 221 218 128 189 216 128 189 216 128 189 216 
93 191 199 93 191 199 93 191 199 93 191 199 93 191 199 93 191 199 93 191 199 93 191 199 

10 11 4 7 7 4 15 7 5 25 6 4 11 7 4 15 7 5 7 7 4 25 6 4 
11 7 4 10 9 2 10 11 4 15 7 5 5 9 2 11 7 4 7 7 4 7 7 4 
15 7 5 15 7 5 7 7 4 11 7 4 7 7 4 7 7 4 10 11 4 11 7 4 
25 6 4 7 10 8 15 7 5 10 10 6 10 11 4 10 10 6 10 11 4 15 7 5 
10 9 2 11 7 4 4 5 4 7 7 4 10 11 4 10 11 4 11 7 4 7 7 4 
7 7 4 7 7 4 10 11 4 7 7 4 9 2 2 7 7 4 25 6 4 7 7 4 
15 7 5 7 7 4 7 7 4 15 7 5 15 7 5 10 9 2 10 11 4 7 7 4 
10 11 4 10 10 6 25 6 4 10 18 5 10 11 4 4 8 4 25 6 4 4 9 6 
4 12 4 4 10 4 4 9 6 10 18 5 1 13 6 10 10 6 10 18 5 10 18 5 
4 5 4 10 10 6 5 19 6 10 18 10 7 10 8 10 10 6 15 7 5 1 9 6 
4 10 4 4 12 4 10 18 5 4 9 6 7 10 8 10 10 6 1 11 6 10 10 6 
10 18 10 24 23 9 1 8 8 15 7 5 24 23 9 10 18 5 1 11 6 10 10 6 
1 13 6 10 18 10 10 18 10 10 18 10 5 19 10 10 18 10 6 8 10 24 23 9 
10 18 10 10 18 5 4 9 6 10 10 6 5 19 6 10 18 10 10 18 10 1 16 14 
5 19 10 10 18 10 5 19 10 6 8 10 10 18 10 8 18 14 24 23 9 10 18 10 
1 16 14 1 16 14 8 18 14 10 18 10 8 18 14 10 18 10 10 18 10 10 18 10 
1 19 10 1 20 14 1 20 14 1 19 17 1 19 17 7 27 20 7 27 20 7 27 20 
7 27 20 7 27 24 7 27 24 7 27 24 6 27 28 7 35 30 7 35 30 6 27 28 
23 24 27 7 35 30 24 41 31 6 27 33 24 41 31 24 40 47 7 41 43 24 41 31 
24 40 47 24 40 47 24 40 47 24 40 47 24 40 47 24 40 47 24 56 55 24 56 72 
24 56 72 24 56 72 24 56 81 24 67 72 54 63 80 24 67 72 24 67 72 24 68 95 
24 68 95 24 95 100 24 95 100 29 95 109 29 95 109 29 95 109 29 95 109 29 95 109 
23 120 116 29 95 109 23 120 116 27 121 132 27 121 132 27 121 132 27 121 132 43 121 139 
27 121 132 43 121 139 65 150 115 56 162 154 126 172 135 164 179 131 198 196 136 189 174 152 
164 179 131 126 172 135 56 162 154 27 163 154 56 162 154 27 163 154 56 162 154 56 162 154 
93 181 160 93 181 160 43 185 193 43 185 193 43 185 193 93 181 160 43 185 193 43 185 193 
93 191 199 93 191 199 93 191 199 93 191 199 128 189 167 128 189 167 93 191 199 93 191 199 
128 189 216 93 191 199 93 191 199 128 189 216 128 189 216 155 221 218 155 221 218 128 189 216 
128 189 216 128 189 216 155 221 218 155 221 218 156 186 216 128 189 216 93 191 199 93 191 199 
93 191 199 93 191 199 93 191 199 93 191 199 93 191 199 93 191 199 93 191 199 93 191 199 

11 7 4 15 7 5 15 7 5 10 9 2 15 7 5 11 7 4 25 6 4 7 7 4 
10 11 4 15 7 5 15 7 5 4 5 4 7 7 4 15 7 5 25 6 4 11 7 4 
25 6 4 7 7 4 7 7 4 15 7 5 10 11 4 5 9 2 7 7 4 5 9 2 
7 7 4 25 6 4 25 6 4 25 6 4 7 7 4 15 7 5 10 11 4 7 7 4 
4 8 4 10 9 2 10 11 4 10 11 4 7 7 4 7 7 4 15 7 5 10 10 6 
10 11 4 11 7 4 7 7 4 10 9 2 7 7 4 7 7 4 15 7 5 11 7 4 
7 7 4 15 7 5 4 8 4 11 7 4 15 7 5 11 7 4 10 10 6 10 11 4 
11 7 4 1 7 4 10 11 4 7 7 4 7 7 4 5 9 2 10 11 4 2 15 5 
4 5 4 15 7 5 10 11 4 10 10 6 10 10 6 25 6 4 10 18 5 10 11 4 
10 11 4 4 12 4 10 18 5 4 12 4 10 10 6 10 18 5 10 10 6 10 18 5 
15 7 5 4 12 4 4 9 6 10 18 5 7 10 8 7 10 8 10 18 5 24 23 9 
5 19 6 7 10 8 7 10 8 1 13 6 10 18 5 7 10 8 4 9 6 10 18 10 
10 18 10 10 18 10 7 10 8 10 18 5 10 18 10 10 18 10 24 23 9 4 9 6 
10 10 6 5 19 6 5 19 6 1 19 10 4 12 4 4 9 6 7 10 8 10 18 10 
24 23 9 10 18 10 10 18 10 8 18 14 10 18 10 5 19 10 10 18 10 5 19 10 
10 18 10 8 18 14 1 19 17 10 18 10 8 18 14 6 27 12 1 20 14 5 19 10 
1 16 14 8 18 14 1 20 14 8 18 17 7 27 20 7 18 20 7 27 20 7 18 20 
7 27 20 7 27 24 6 27 28 6 27 28 6 27 28 6 27 28 6 27 28 6 27 28 
7 27 24 6 27 28 6 27 28 23 24 27 23 24 27 24 41 31 7 34 46 24 40 47 
24 40 47 24 40 47 7 41 43 7 41 43 24 40 47 24 40 47 24 56 55 24 56 72 
54 63 80 24 56 72 24 56 81 24 67 72 24 68 95 24 67 72 24 56 81 24 68 95 
24 95 100 24 95 100 27 76 117 29 95 109 29 95 109 29 95 109 29 95 109 7 96 112 
29 95 109 23 120 116 42 120 116 42 120 116 42 120 116 27 121 132 7 126 130 27 121 132 
43 121 139 56 162 154 94 154 160 126 172 135 164 179 131 198 196 136 164 179 131 147 177 131 
94 154 160 27 163 154 27 163 154 27 163 154 27 163 154 27 163 154 56 162 154 56 162 154 
93 181 160 93 191 199 93 191 199 43 185 193 43 185 193 93 181 160 43 185 193 93 181 160 
93 181 160 93 181 160 93 181 160 128 189 167 93 191 199 128 189 167 93 191 199 128 189 167 
93 191 199 93 191 199 93 191 199 93 191 199 128 189 216 128 189 216 128 189 216 93 191 199 
128 189 216 128 189 216 155 221 218 155 221 218 128 189 216 93 191 199 93 191 199 93 191 199 
93 191 199 93 191 199 93 191 199 43 185 193 43 185 193 93 181 160 43 185 193 93 181 160 

7 7 4 11 7 4 7 7 4 15 7 5 5 9 2 7 7 4 15 7 5 7 7 4 
11 7 4 15 7 5 15 7 5 7 7 4 7 7 4 4 5 4 11 7 4 10 9 2 
15 7 5 15 7 5 15 7 5 10 9 2 10 11 4 7 7 4 4 8 4 1 7 4 
10 9 2 15 7 5 15 7 5 4 5 4 5 9 2 7 7 4 7 7 4 15 7 5 
4 5 4 15 7 5 7 7 4 11 7 4 10 11 4 7 7 4 5 9 2 10 11 4 
11 7 4 15 7 5 7 7 4 11 7 4 25 6 4 7 7 4 11 7 4 11 7 4 
4 8 4 11 7 4 7 7 4 4 8 4 5 9 2 4 12 4 25 6 4 15 7 5 
4 12 4 4 8 4 10 11 4 7 7 4 10 11 4 7 7 4 10 10 6 15 7 5 
4 9 6 4 9 6 10 10 6 7 10 8 10 18 5 7 10 8 7 10 8 10 18 5 
15 7 5 10 10 6 10 11 4 4 9 6 10 11 4 7 10 8 15 7 5 10 18 5 
4 9 6 10 11 4 10 11 4 1 13 6 15 7 5 7 10 8 7 10 8 10 18 10 
10 10 6 4 9 6 10 10 6 10 11 4 4 9 6 10 10 6 24 23 9 10 18 10 
7 10 8 10 10 6 6 8 10 10 18 10 7 10 8 7 10 8 1 13 6 10 18 10 
15 7 5 4 9 6 2 15 5 24 23 9 1 11 6 5 19 6 10 18 10 10 18 10 
5 19 10 1 16 14 7 10 8 10 18 10 24 23 9 1 19 10 5 19 10 10 18 10 
8 18 14 8 18 14 1 19 17 8 18 14 10 18 10 1 20 14 5 19 10 8 18 14 
5 19 10 6 27 12 7 27 20 1 19 17 1 19 17 7 18 20 7 27 20 7 27 20 
7 27 24 7 27 24 7 27 24 6 27 28 7 35 30 7 27 24 6 27 28 7 35 30 
6 27 28 7 35 30 7 35 30 7 35 30 7 35 30 6 27 33 6 27 33 24 41 31 
24 40 47 24 40 47 24 40 47 24 40 47 24 40 47 7 45 53 7 41 60 24 56 55 
24 56 72 24 56 72 24 67 72 7 72 82 24 68 95 7 72 82 24 67 72 24 68 95 
24 68 95 24 95 100 24 95 100 29 95 109 7 96 112 29 95 109 7 96 112 29 95 109 
29 95 109 29 95 109 23 120 116 23 120 116 42 120 116 57 121 132 27 121 132 27 163 154 
56 162 154 126 172 135 147 177 131 164 179 131 164 179 131 147 177 131 126 172 135 56 162 154 
27 163 154 27 163 154 27 163 154 27 163 154 27 163 154 7 173 128 27 163 154 56 162 154 
93 181 160 128 189 167 128 189 167 93 181 160 56 162 154 56 162 154 93 181 160 93 181 160 
93 181 160 93 181 160 43 185 193 43 185 193 93 191 199 93 191 199 93 191 199 93 191 199 
93 191 199 93 191 199 93 191 199 93 191 199 93 191 199 93 191 199 93 191 199 93 191 199 
93 191 199 128 189 216 155 221 218 128 189 216 93 191 199 93 191 199 93 191 199 93 191 199 
93 191 199 93 191 199 43 185 193 43 185 193 93 181 160 43 185 193 93 181 160 56 162 154 

4 8 4 5 9 2 11 7 4 7 7 4 7 7 4 11 7 4 7 7 4 7 7 4 
4 5 4 4 5 4 15 7 5 11 7 4 25 6 4 25 6 4 25 6 4 7 7 4 
15 7 5 25 6 4 7 7 4 7 7 4 15 7 5 5 9 2 11 7 4 4 10 4 
10 11 4 5 9 2 11 7 4 25 6 4 7 7 4 4 10 4 4 10 4 7 7 4 
11 7 4 10 9 2 7 7 4 7 7 4 4 5 4 7 7 4 4 10 4 7 7 4 
10 9 2 2 6 3 10 9 2 7 7 4 24 23 9 7 7 4 25 6 4 4 5 4 
15 7 5 1 4 4 1 7 4 10 9 2 7 7 4 11 7 4 4 9 6 10 11 4 
1 12 4 15 7 5 15 7 5 4 8 4 1 7 4 1 7 4 10 10 6 1 7 4 
4 12 4 4 12 4 10 11 4 15 7 5 15 7 5 10 10 6 5 19 6 15 7 5 
10 10 6 4 8 4 7 10 8 10 18 5 10 10 6 10 10 6 4 9 6 10 10 6 
24 23 9 1 13 6 1 11 6 10 18 5 4 9 6 10 18 5 10 10 6 7 10 8 
4 9 6 10 18 5 10 10 6 4 5 4 10 10 6 10 10 6 7 10 8 2 15 5 
5 19 6 10 18 5 7 10 8 5 19 10 6 8 10 10 18 10 5 19 10 10 18 10 
10 18 10 2 15 5 10 18 5 1 11 6 2 15 5 5 19 10 1 16 14 5 19 10 
7 10 8 10 18 10 10 18 10 10 18 10 5 19 10 5 19 10 1 13 6 5 19 10 
10 18 10 6 27 12 10 18 10 1 19 10 10 18 10 10 18 10 1 20 14 5 19 10 
5 19 10 1 16 14 8 18 17 7 18 20 7 27 20 1 19 17 1 19 17 7 27 20 
7 27 20 7 27 20 7 18 20 7 18 20 7 27 24 7 27 24 23 24 27 7 27 24 
6 27 28 7 35 30 6 27 33 7 35 30 6 27 28 7 35 30 7 35 30 7 34 46 
7 34 46 7 41 43 24 40 47 7 34 46 7 41 43 24 40 47 24 56 55 24 56 72 
24 56 72 24 56 72 24 56 72 24 68 95 24 68 95 7 72 82 24 68 95 24 68 95 
7 75 102 7 75 102 24 95 100 7 81 122 29 95 109 7 96 112 29 95 109 24 95 100 
29 95 109 29 95 109 29 95 109 42 120 116 23 120 116 27 121 132 56 162 154 94 154 160 
147 177 131 164 179 131 164 179 131 164 179 131 126 172 135 65 150 115 27 163 154 27 163 154 
27 163 154 27 163 154 27 163 154 27 163 154 27 163 154 7 173 128 27 163 154 27 163 154 
56 162 154 93 181 160 93 181 160 56 162 154 27 163 154 56 162 154 56 162 154 56 162 154 
93 181 160 93 181 160 43 185 193 93 181 160 93 181 160 93 181 160 93 181 160 43 185 193 
43 185 193 93 181 160 93 181 160 93 191 199 93 191 199 93 191 199 93 191 199 93 191 199 
93 191 199 128 189 216 128 189 216 93 191 199 93 191 199 93 191 199 93 191 199 43 185 193 
43 185 193 43 185 193 43 185 193 43 185 193 43 185 193 43 185 193 43 185 193 43 185 193 

11 7 4 7 7 4 15 7 5 15 7 5 7 7 4 25 6 4 7 7 4 11 7 4 
10 9 2 15 7 5 15 7 5 7 7 4 15 7 5 4 5 4 15 7 5 15 7 5 
25 6 4 7 7 4 7 7 4 4 5 4 7 7 4 4 8 4 10 9 2 5 9 2 
4 5 4 7 7 4 7 7 4 25 6 4 7 7 4 10 9 2 10 11 4 7 7 4 
4 8 4 25 6 4 4 5 4 10 9 2 25 6 4 4 8 4 7 7 4 4 5 4 
4 5 4 10 9 2 4 8 4 4 5 4 7 7 4 11 7 4 7 7 4 7 7 4 
7 7 4 4 8 4 7 7 4 7 7 4 10 11 4 10 11 4 7 7 4 7 7 4 
1 7 4 4 10 4 7 7 4 1 12 4 1 6 4 4 9 6 15 7 5 2 15 5 
7 10 8 10 10 6 10 10 6 25 6 4 10 11 4 4 12 4 10 18 5 10 10 6 
7 10 8 7 10 8 7 10 8 10 11 4 2 15 5 10 18 10 10 11 4 10 18 5 
10 18 5 10 18 5 10 18 5 4 10 4 4 10 4 5 19 6 1 11 6 4 9 6 
7 10 8 7 10 8 10 18 5 15 7 5 10 18 5 15 7 5 7 10 8 1 11 6 
10 18 10 7 10 8 1 11 6 10 18 10 1 13 6 5 19 10 1 13 6 10 18 10 
1 8 8 2 15 5 10 18 5 10 10 6 7 10 8 10 18 10 10 10 6 1 13 6 
1 19 10 10 18 10 10 18 10 10 18 10 10 18 10 1 16 14 2 15 5 5 19 10 
5 19 10 1 19 10 5 19 10 1 19 10 8 18 14 8 18 14 8 18 14 1 16 14 
1 19 17 8 18 14 1 19 17 8 18 17 1 19 17 8 18 14 1 16 14 6 27 12 
8 18 17 7 18 20 24 23 9 8 18 17 7 27 20 7 27 20 23 24 27 7 35 30 
7 35 30 7 35 30 7 35 30 7 35 30 6 27 28 23 24 27 6 27 33 7 35 30 
7 35 30 24 40 47 7 34 46 7 45 53 7 41 43 24 40 47 24 56 55 24 56 72 
24 56 72 24 56 72 24 67 72 24 68 95 24 68 95 24 68 95 24 68 95 24 68 95 
24 68 95 54 83 99 29 95 109 29 95 109 29 95 109 29 95 109 24 95 100 7 96 112 
29 95 109 29 95 109 23 120 116 42 120 116 27 121 132 57 121 132 126 172 135 147 177 131 
164 179 131 147 177 131 126 172 135 65 150 115 57 121 132 43 121 139 7 126 130 27 163 154 
27 121 132 7 126 130 27 163 154 7 173 128 27 163 154 27 163 154 27 163 154 27 163 154 
27 163 154 56 162 154 93 181 160 56 162 154 56 162 154 27 163 154 27 163 154 56 162 154 
56 162 154 93 181 160 56 162 154 56 162 154 93 181 160 93 181 160 56 162 154 43 185 193 
43 185 193 56 162 154 93 181 160 93 181 160 93 181 160 93 191 199 93 191 199 93 191 199 
93 191 199 128 189 167 128 189 167 128 189 167 93 191 199 43 185 193 43 185 193 43 185 193 
43 185 193 43 185 193 43 185 193 43 185 193 27 163 154 27 163 154 56 162 154 27 163 154 

7 7 4 7 7 4 11 7 4 15 7 5 4 9 6 4 8 4 4 5 4 7 7 4 
4 8 4 15 7 5 4 5 4 7 7 4 7 7 4 11 7 4 7 7 4 4 5 4 
11 7 4 10 9 2 10 9 2 1 7 4 7 7 4 7 7 4 5 9 2 4 5 4 
11 7 4 2 6 3 11 7 4 7 7 4 5 9 2 11 7 4 4 5 4 4 8 4 
7 7 4 2 6 3 7 7 4 7 7 4 4 8 4 4 5 4 4 5 4 7 7 4 
4 5 4 7 7 4 10 9 2 5 9 2 4 5 4 0 6 3 7 7 4 11 7 4 
11 7 4 2 6 3 4 8 4 7 7 4 7 7 4 4 5 4 15 7 5 11 7 4 
7 7 4 10 11 4 7 7 4 4 10 4 7 10 8 1 9 6 4 10 4 4 9 6 
10 10 6 24 23 9 25 6 4 10 10 6 10 18 5 4 9 6 10 11 4 15 7 5 
10 10 6 10 18 5 10 18 5 10 10 6 10 18 5 10 18 5 10 11 4 4 5 4 
7 10 8 10 10 6 10 10 6 4 9 6 4 5 4 4 9 6 10 10 6 10 18 5 
15 7 5 2 15 5 4 12 4 4 9 6 10 18 5 1 13 6 24 23 9 24 23 9 
10 18 10 7 10 8 1 13 6 10 10 6 7 10 8 6 8 10 24 23 9 1 8 8 
7 10 8 7 10 8 5 19 6 1 13 6 10 18 5 10 18 10 7 10 8 1 16 14 
5 19 10 1 16 14 10 18 10 1 19 10 10 10 6 5 19 10 10 18 10 10 18 10 
8 18 14 8 18 14 1 19 10 1 19 10 10 18 10 24 23 9 8 18 14 1 20 14 
1 19 17 8 18 17 24 23 9 5 19 10 8 18 14 8 18 14 1 16 14 8 18 17 
1 19 17 8 18 17 7 27 20 7 27 20 7 27 24 7 27 24 7 27 24 6 27 28 
24 41 31 23 24 27 6 27 33 6 27 28 7 27 24 6 27 28 7 35 30 6 27 33 
7 41 43 7 41 43 7 41 43 24 40 47 24 40 47 7 45 53 24 56 55 7 41 60 
24 56 72 24 56 72 24 56 72 7 56 82 24 68 95 24 68 95 7 75 102 24 68 95 
7 75 102 24 68 95 27 76 117 29 95 109 7 96 112 29 95 109 24 95 100 29 95 109 
7 96 112 23 120 116 42 120 116 27 121 132 88 132 124 126 172 135 126 172 135 126 172 135 
126 145 132 88 132 124 65 150 115 43 121 139 43 121 139 7 126 130 27 121 132 7 126 130 
27 121 132 27 163 154 7 173 128 27 163 154 27 163 154 27 163 154 27 163 154 56 162 154 
27 163 154 27 163 154 27 163 154 56 162 154 27 163 154 27 163 154 27 163 154 27 163 154 
27 163 154 56 162 154 56 162 154 27 163 154 56 162 154 56 162 154 56 162 154 93 181 160 
93 181 160 43 185 193 43 185 193 43 185 193 43 185 193 93 191 199 93 191 199 93 191 199 
128 189 167 128 189 167 128 189 167 93 181 160 43 185 193 43 185 193 43 185 193 43 185 193 
43 185 193 43 185 193 27 163 154 27 163 154 27 163 154 27 163 154 56 162 154 27 163 154 

15 7 5 10 11 4 15 7 5 7 7 4 15 7 5 15 7 5 15 7 5 15 7 5 
11 7 4 11 7 4 7 7 4 25 6 4 15 7 5 15 7 5 10 11 4 7 7 4 
11 7 4 11 7 4 10 9 2 15 7 5 15 7 5 4 8 4 2 6 3 5 9 2 
7 7 4 7 7 4 11 7 4 15 7 5 7 7 4 4 8 4 4 8 4 5 9 2 
7 7 4 7 7 4 4 8 4 15 7 5 7 7 4 7 7 4 4 8 4 15 7 5 
7 7 4 4 5 4 5 9 2 4 8 4 2 6 3 11 7 4 10 9 2 1 6 4 
7 7 4 7 7 4 7 7 4 2 6 3 10 11 4 2 6 3 11 7 4 4 5 4 
11 7 4 7 7 4 4 10 4 4 12 4 10 11 4 4 9 6 10 18 5 10 18 5 
1 11 6 4 9 6 15 7 5 4 9 6 7 10 8 4 12 4 1 11 6 4 12 4 
10 10 6 4 9 6 24 23 9 1 11 6 10 18 5 1 11 6 4 5 4 10 11 4 
10 11 4 4 12 4 7 10 8 2 15 5 7 10 8 10 10 6 24 23 9 10 11 4 
24 23 9 1 11 6 7 10 8 10 10 6 10 10 6 1 9 6 4 9 6 5 19 6 
10 18 5 10 18 5 1 9 6 4 9 6 10 18 5 4 9 6 2 15 5 7 10 8 
10 18 5 7 10 8 10 18 5 2 15 5 1 13 6 5 19 10 5 19 10 5 19 10 
7 10 8 1 13 6 10 18 10 1 16 14 5 19 10 5 19 10 5 19 10 10 18 10 
1 16 14 5 19 10 5 19 10 1 19 10 1 16 14 1 16 14 1 16 14 1 16 14 
8 18 14 1 20 14 8 18 14 1 16 14 1 16 14 1 20 14 1 20 14 1 20 14 
1 19 17 7 27 20 7 27 20 7 27 24 6 27 28 6 27 28 23 24 27 6 27 28 
7 35 30 6 27 33 7 35 30 6 27 28 7 27 24 7 27 24 7 35 30 6 27 33 
7 34 46 7 34 46 7 34 46 24 40 47 7 45 53 7 45 53 24 56 55 7 41 60 
24 56 72 24 56 72 24 67 72 7 72 82 24 68 95 24 95 100 7 96 112 7 75 102 
7 75 102 24 68 95 29 95 109 7 96 112 29 95 109 7 96 112 7 96 112 29 95 109 
23 120 116 42 120 116 63 125 116 88 132 124 143 150 131 147 177 131 126 145 132 88 132 124 
57 121 132 42 120 116 57 121 132 43 121 139 27 163 154 27 163 154 7 126 130 7 126 130 
7 126 130 27 163 154 7 173 128 27 163 154 27 163 154 27 163 154 7 173 128 7 173 128 
27 163 154 27 163 154 27 163 154 27 163 154 56 162 154 56 162 154 27 163 154 27 163 154 
27 163 154 27 163 154 27 163 154 56 162 154 56 162 154 27 163 154 27 163 154 56 162 154 
56 162 154 56 162 154 56 162 154 43 185 193 43 185 193 43 185 193 93 191 199 93 191 199 
128 189 167 128 189 167 93 181 160 43 185 193 43 185 193 43 185 193 43 185 193 27 163 154 
56 162 154 56 162 154 27 163 154 27 163 154 27 163 154 27 163 154 27 163 154 27 163 154 

11 7 4 15 7 5 10 10 6 7 7 4 11 7 4 15 7 5 25 6 4 25 6 4 
7 7 4 11 7 4 15 7 5 11 7 4 10 9 2 11 7 4 11 7 4 15 7 5 
10 9 2 15 7 5 4 5 4 4 8 4 11 7 4 4 5 4 7 7 4 10 9 2 
9 2 2 4 8 4 25 6 4 4 5 4 7 7 4 15 7 5 4 8 4 7 7 4 
10 9 2 10 9 2 7 7 4 2 6 3 5 9 2 7 7 4 11 7 4 9 2 2 
7 7 4 10 9 2 2 6 3 2 4 2 7 7 4 11 7 4 10 11 4 2 6 3 
10 9 2 4 8 4 4 5 4 5 9 2 1 4 4 10 11 4 4 8 4 4 8 4 
7 7 4 4 8 4 4 5 4 7 7 4 4 10 4 4 9 6 10 10 6 1 11 6 
4 9 6 4 5 4 10 10 6 10 10 6 10 18 5 1 11 6 24 23 9 15 7 5 
10 10 6 15 7 5 1 11 6 4 9 6 10 11 4 7 10 8 15 7 5 10 11 4 
4 12 4 10 18 5 10 10 6 10 18 5 10 11 4 10 10 6 2 15 5 4 9 6 
10 10 6 1 19 10 5 19 6 10 10 6 5 19 6 10 18 5 10 18 5 7 10 8 
7 10 8 10 10 6 1 13 6 10 10 6 5 19 6 7 10 8 7 10 8 4 9 6 
7 10 8 7 10 8 1 13 6 1 9 6 10 18 5 10 18 10 1 8 8 5 19 10 
7 10 8 1 19 10 1 20 14 1 16 14 10 18 10 1 16 14 5 19 6 1 19 10 
1 16 14 10 18 10 1 16 14 1 19 10 1 13 6 1 19 10 1 20 14 6 27 12 
1 16 14 6 27 12 10 18 10 5 19 10 6 27 12 1 19 17 1 20 14 1 19 17 
6 27 12 7 27 20 7 27 20 7 27 24 23 24 27 6 27 28 7 27 24 7 35 30 
6 27 28 6 27 28 6 27 28 7 27 24 7 27 24 7 27 24 6 27 33 7 41 43 
7 41 43 7 41 43 7 41 43 24 40 47 7 45 53 24 56 55 24 56 55 24 56 55 
24 56 72 7 48 75 24 67 72 7 56 82 24 56 95 24 95 100 7 96 112 7 75 102 
7 75 102 24 68 95 7 96 112 29 95 109 7 81 122 7 96 112 7 113 119 27 121 132 
57 121 132 88 132 124 126 145 132 126 145 132 112 130 109 112 130 109 63 125 116 43 121 139 
27 121 132 42 120 116 57 121 132 43 121 139 43 121 139 27 163 154 7 126 130 7 126 130 
7 126 130 7 126 130 7 126 130 27 121 132 7 173 128 27 163 154 7 126 130 7 173 128 
27 163 154 27 163 154 27 163 154 56 162 154 56 162 154 56 162 154 56 162 154 56 162 154 
27 163 154 27 163 154 56 162 154 56 162 154 56 162 154 27 163 154 27 163 154 27 163 154 
27 163 154 27 163 154 27 163 154 27 163 154 43 185 193 93 191 199 128 189 216 128 189 167 
128 189 167 93 181 160 56 162 154 27 163 154 27 163 154 27 163 154 27 163 154 56 162 154 
56 162 154 27 163 154 27 163 154 56 162 154 27 163 154 56 162 154 56 162 154 27 163 154 

15 7 5 10 11 4 7 10 8 11 7 4 15 7 5 15 7 5 4 8 4 15 7 5 
4 5 4 7 7 4 4 12 4 7 7 4 4 5 4 4 5 4 7 7 4 15 7 5 
7 7 4 10 9 2 15 7 5 5 9 2 7 7 4 5 9 2 4 5 4 2 6 3 
25 6 4 7 7 4 4 5 4 10 9 2 2 4 2 1 4 4 11 7 4 2 6 3 
5 9 2 7 7 4 4 5 4 2 4 2 10 9 2 5 9 2 7 7 4 2 6 3 
4 5 4 4 5 4 10 9 2 7 7 4 7 7 4 10 9 2 4 8 4 10 9 2 
11 7 4 4 5 4 7 7 4 15 7 5 10 11 4 4 8 4 4 8 4 10 11 4 
4 12 4 4 10 4 4 8 4 4 10 4 7 7 4 1 6 4 15 7 5 4 8 4 
7 7 4 4 10 4 10 11 4 24 23 9 10 10 6 7 10 8 7 10 8 15 7 5 
7 10 8 10 11 4 1 8 8 2 15 5 1 8 8 10 10 6 10 10 6 10 11 4 
4 12 4 25 6 4 24 23 9 4 9 6 10 11 4 10 11 4 7 10 8 10 10 6 
1 9 6 1 9 6 5 19 6 2 15 5 5 19 6 7 10 8 1 11 6 10 11 4 
10 18 5 1 11 6 10 18 5 7 10 8 2 15 5 10 18 10 10 18 10 4 9 6 
7 10 8 1 11 6 4 9 6 2 15 5 7 10 8 4 9 6 10 18 5 5 19 10 
7 10 8 1 16 14 1 8 8 1 13 6 5 19 10 10 18 10 1 11 6 6 8 10 
5 19 10 1 8 8 1 13 6 1 16 14 7 10 8 5 19 10 8 18 14 1 20 14 
1 16 14 1 16 14 5 19 10 1 19 10 8 18 14 8 18 17 53 43 37 1 19 17 
1 19 17 7 27 20 7 27 20 6 27 28 6 27 28 6 27 28 6 27 28 6 27 28 
7 27 24 7 27 24 6 27 28 6 27 28 7 35 30 6 27 28 6 27 33 7 34 46 
7 34 46 7 41 43 7 41 43 24 40 47 7 45 53 7 45 53 7 45 53 7 45 53 
7 41 60 7 48 75 24 56 72 24 56 72 24 56 81 24 68 95 7 59 103 24 68 95 
7 75 102 29 95 109 29 95 109 29 95 109 7 96 112 23 120 116 43 121 139 88 132 154 
126 172 135 126 145 132 126 145 132 88 132 124 63 108 116 23 120 116 27 121 132 27 121 132 
27 121 132 7 126 130 27 121 132 27 121 132 27 121 132 27 163 154 7 126 130 27 163 154 
7 126 130 27 163 154 7 126 130 7 126 130 7 126 130 7 126 130 7 126 130 7 173 128 
27 163 154 27 163 154 27 163 154 27 163 154 27 163 154 27 163 154 56 162 154 56 162 154 
27 163 154 27 163 154 27 163 154 27 163 154 56 162 154 56 162 154 27 163 154 56 162 154 
27 163 154 27 163 154 27 163 154 27 163 154 43 185 193 93 191 199 93 191 199 128 189 167 
93 181 160 56 162 154 27 163 154 27 163 154 27 163 154 27 163 154 27 163 154 27 163 154 
27 163 154 27 163 154 27 163 154 27 163 154 27 163 154 27 163 154 27 163 154 27 163 154 

15 7 5 4 10 4 15 7 5 15 7 5 11 7 4 25 6 4 7 7 4 11 7 4 
7 7 4 25 6 4 4 8 4 10 10 6 7 7 4 15 7 5 7 7 4 11 7 4 
15 7 5 7 7 4 7 7 4 2 6 3 4 5 4 9 2 2 11 7 4 4 5 4 
7 7 4 4 8 4 0 6 3 2 4 2 4 5 4 7 7 4 15 7 5 1 4 4 
7 7 4 7 7 4 4 5 4 11 7 4 11 7 4 7 7 4 7 7 4 7 7 4 
7 7 4 15 7 5 15 7 5 7 7 4 2 6 3 7 7 4 7 7 4 10 9 2 
7 7 4 7 7 4 15 7 5 5 9 2 4 9 6 4 10 4 7 7 4 1 7 4 
1 6 4 1 12 4 4 10 4 7 7 4 7 7 4 4 9 6 10 10 6 10 11 4 
10 11 4 10 11 4 11 7 4 11 7 4 10 10 6 7 10 8 4 9 6 5 19 6 
10 10 6 10 10 6 10 18 5 7 10 8 5 19 6 7 10 8 1 13 6 4 5 4 
4 9 6 15 7 5 25 6 4 7 10 8 10 10 6 7 10 8 5 19 6 4 9 6 
4 10 4 10 11 4 24 23 9 10 18 5 10 18 10 1 13 6 10 10 6 10 10 6 
10 11 4 7 10 8 15 7 5 1 13 6 5 19 6 10 10 6 7 10 8 4 9 6 
1 11 6 2 19 6 4 12 4 1 6 4 1 11 6 2 15 5 1 19 10 1 16 14 
10 18 10 5 19 10 1 19 10 7 10 8 1 13 6 10 18 10 10 18 10 10 18 10 
1 20 14 1 19 10 1 16 14 6 27 12 10 18 10 1 19 10 1 16 14 10 18 10 
8 18 14 1 19 10 1 19 10 1 16 14 8 18 14 1 19 17 1 19 17 7 27 20 
24 23 9 23 24 27 7 27 20 7 27 24 6 27 28 7 27 24 7 27 24 23 24 27 
6 27 28 6 27 28 23 24 27 6 27 28 6 27 33 6 27 28 6 27 33 7 35 30 
6 27 33 7 35 30 7 34 46 7 41 43 7 45 53 24 56 55 7 45 53 7 45 53 
7 41 60 24 56 72 24 67 72 24 67 72 24 56 81 24 56 81 24 68 95 24 68 95 
24 68 95 24 68 95 29 95 109 29 95 109 23 120 116 43 121 139 88 132 124 93 181 160 
126 172 135 88 132 124 57 121 132 29 95 109 29 95 109 7 113 119 27 121 132 27 121 132 
7 126 130 7 126 130 7 126 130 7 113 119 27 121 132 27 121 132 7 126 130 27 163 154 
27 163 154 7 126 130 7 126 130 7 126 130 7 126 130 7 126 130 27 163 154 27 163 154 
7 173 128 27 163 154 27 163 154 27 121 132 27 163 154 27 163 154 27 163 154 27 163 154 
27 163 154 27 163 154 27 163 154 27 163 154 27 163 154 27 163 154 27 163 154 27 163 154 
27 163 154 27 163 154 27 163 154 43 185 193 43 185 193 93 191 199 93 181 160 128 159 167 
93 181 160 56 162 154 27 163 154 27 163 154 27 163 154 27 163 154 27 163 154 27 163 154 
27 163 154 27 163 154 27 163 154 27 163 154 27 163 154 56 162 154 56 162 154 27 163 154 

10 11 4 11 7 4 15 7 5 15 7 5 10 10 6 7 7 4 10 11 4 10 10 6 
10 11 4 7 7 4 7 7 4 7 7 4 4 8 4 10 9 2 7 7 4 7 7 4 
10 9 2 10 9 2 1 4 4 10 9 2 11 7 4 7 7 4 5 9 2 4 5 4 
9 2 2 4 5 4 4 5 4 2 6 3 1 4 4 1 4 6 11 7 4 1 4 4 
11 7 4 4 5 4 11 7 4 7 7 4 7 7 4 7 7 4 7 7 4 4 8 4 
2 6 3 15 7 5 2 6 3 5 9 2 5 9 2 2 6 3 10 9 2 4 5 4 
4 8 4 7 7 4 7 7 4 10 11 4 4 5 4 11 7 4 15 7 5 7 7 4 
11 7 4 7 7 4 4 12 4 7 7 4 1 9 4 4 12 4 4 9 6 10 11 4 
1 9 6 7 10 8 4 9 6 24 23 9 4 9 6 4 12 4 10 11 4 24 23 9 
7 10 8 4 12 4 5 19 6 10 18 5 10 18 5 4 9 6 10 18 5 4 9 6 
15 7 5 10 11 4 1 11 6 7 10 8 10 11 4 4 12 4 10 10 6 5 19 6 
4 9 6 10 11 4 10 18 5 10 10 6 10 18 5 4 9 6 1 13 6 24 23 9 
5 19 6 1 11 6 1 9 6 10 18 5 2 15 5 10 18 5 1 13 6 10 18 10 
7 10 8 4 9 6 4 9 6 4 9 6 24 23 9 10 10 6 5 19 10 5 19 10 
7 10 8 1 19 10 10 18 10 10 18 10 7 10 8 1 16 14 8 18 14 1 16 14 
10 18 10 8 18 14 1 16 14 8 18 14 6 8 10 1 16 14 1 20 14 8 18 14 
1 20 14 1 20 14 5 19 10 8 18 14 1 20 14 8 18 17 8 18 14 1 16 14 
8 18 14 7 27 20 7 27 24 6 27 28 24 41 31 6 27 33 7 27 24 6 27 28 
7 35 30 7 35 30 6 27 28 23 24 27 6 27 28 6 27 28 6 27 28 6 27 33 
6 27 33 7 34 46 7 41 43 7 41 43 7 45 53 7 45 53 7 45 53 7 45 53 
24 56 55 7 48 75 24 67 72 24 67 72 24 68 95 24 68 95 7 72 82 24 68 95 
24 68 95 29 95 109 29 95 109 23 120 116 57 121 132 88 132 124 126 145 132 126 172 135 
56 162 154 27 163 154 7 126 130 27 121 132 7 126 130 7 113 119 7 126 130 7 126 130 
27 121 132 7 126 130 7 126 130 7 113 119 7 126 130 27 121 132 27 163 154 27 163 154 
27 163 154 27 163 154 7 126 130 7 126 130 7 126 130 7 126 130 7 126 130 27 163 154 
27 163 154 27 163 154 27 163 154 27 163 154 27 163 154 27 163 154 27 163 154 27 163 154 
27 163 154 27 163 154 27 163 154 27 163 154 27 163 154 27 163 154 27 163 154 27 163 154 
27 163 154 27 163 154 27 163 154 6 201 200 43 185 193 43 185 193 93 181 160 94 154 160 
56 162 154 27 163 154 27 163 154 27 163 154 27 163 154 27 163 154 27 163 154 27 163 154 
27 163 154 27 163 154 27 163 154 27 163 154 27 163 154 27 163 154 56 162 154 27 163 154 

10 10 6 10 11 4 7 7 4 10 10 6 10 11 4 10 10 6 15 7 5 15 7 5 
15 7 5 7 7 4 7 7 4 25 6 4 15 7 5 25 6 4 15 7 5 7 7 4 
4 8 4 7 7 4 10 9 2 15 7 5 2 6 3 4 8 4 7 7 4 9 2 2 
7 7 4 2 6 3 7 7 4 4 5 4 2 6 2 7 7 4 4 8 4 11 7 4 
7 7 4 4 8 4 10 11 4 4 5 4 9 2 2 7 7 4 2 6 3 5 9 2 
2 6 3 15 7 5 4 5 4 11 7 4 7 7 4 4 8 4 11 7 4 2 6 3 
5 9 2 4 8 4 4 10 4 4 10 4 4 5 4 2 6 3 10 11 4 7 7 4 
4 10 4 4 5 4 7 7 4 1 7 4 4 8 4 1 4 4 4 10 4 4 10 4 
4 8 4 4 9 6 1 11 6 10 11 4 10 11 4 1 11 6 4 9 6 10 10 6 
4 12 4 4 9 6 1 9 6 2 15 5 10 18 5 10 18 5 10 18 5 4 9 6 
10 10 6 10 10 6 7 10 8 1 9 6 4 9 6 4 9 6 10 18 5 4 9 6 
10 11 4 7 10 8 7 10 8 24 23 9 1 8 8 10 10 6 10 10 6 1 8 8 
7 10 8 1 13 6 5 19 6 10 10 6 4 9 6 4 9 6 7 10 8 7 10 8 
7 10 8 1 11 6 4 12 4 7 10 8 7 10 8 5 19 6 1 8 8 5 19 6 
10 18 5 5 19 6 1 19 10 7 10 8 10 18 10 10 18 10 8 18 14 10 18 10 
1 16 14 1 20 14 8 18 14 1 16 14 10 18 10 5 19 10 7 10 8 8 18 14 
8 18 17 24 23 9 1 16 14 1 16 14 8 18 17 1 19 17 8 18 14 1 20 14 
1 16 14 7 27 20 7 35 30 7 35 30 6 27 33 7 27 24 6 27 28 6 27 28 
6 27 33 7 35 30 6 27 28 6 27 28 6 27 28 6 27 28 6 27 28 6 27 33 
24 41 31 7 41 43 7 41 43 7 41 43 7 45 53 24 56 55 7 45 53 7 45 53 
7 41 60 24 56 72 24 56 72 24 67 72 24 56 81 24 68 95 24 68 95 24 68 95 
24 68 95 54 83 99 63 108 116 88 132 124 88 132 124 88 132 124 57 121 132 43 121 139 
6 120 170 7 145 184 27 163 154 7 145 184 7 113 146 7 126 130 7 126 130 7 126 130 
27 121 132 7 113 119 23 120 116 23 120 116 7 113 119 27 121 132 27 163 154 27 163 154 
27 163 154 27 163 154 7 126 130 7 126 130 7 126 130 27 121 132 7 173 128 27 163 154 
27 163 154 27 163 154 27 163 154 27 163 154 27 163 154 27 121 132 27 163 154 27 163 154 
27 163 154 27 163 154 56 162 154 93 181 160 27 163 154 7 126 130 27 163 154 27 163 154 
27 163 154 27 163 154 27 163 154 43 185 193 93 181 160 93 181 160 56 162 154 56 162 154 
27 163 154 7 173 128 27 163 154 27 163 154 27 163 154 27 163 154 27 163 154 27 163 154 
27 163 154 27 163 154 7 145 184 27 163 154 27 163 154 27 163 154 56 162 154 27 163 154 

10 11 4 4 9 6 4 9 6 4 9 6 10 11 4 4 12 4 10 11 4 7 7 4 
10 11 4 15 7 5 15 7 5 10 10 6 7 7 4 7 7 4 2 6 3 5 9 2 
25 6 4 7 7 4 2 6 3 10 9 2 11 7 4 10 9 2 7 7 4 4 8 4 
4 8 4 4 8 4 10 9 2 2 6 3 0 4 3 2 6 3 11 7 4 2 6 3 
7 7 4 4 8 4 4 5 4 5 9 2 15 7 5 10 9 2 2 6 3 7 7 4 
7 7 4 2 6 3 10 9 2 4 8 4 11 7 4 2 6 3 7 7 4 4 8 4 
4 8 4 11 7 4 11 7 4 4 10 4 15 7 5 15 7 5 7 7 4 7 7 4 
4 8 4 1 7 4 2 6 3 1 7 4 10 9 2 2 6 3 1 7 4 4 12 4 
4 10 4 4 9 6 4 9 6 4 10 4 4 8 4 1 9 6 4 12 4 10 18 5 
7 10 8 10 10 6 15 7 5 10 11 4 4 9 6 4 9 6 10 11 4 4 9 6 
5 19 6 10 10 6 10 18 5 7 10 8 10 11 4 4 9 6 10 10 6 4 12 4 
4 12 4 4 5 4 2 15 5 4 9 6 4 9 6 10 11 4 1 9 4 4 9 6 
10 10 6 10 10 6 10 18 10 10 18 10 4 9 6 10 18 5 1 11 6 10 10 6 
10 18 5 7 10 8 1 11 6 10 18 10 5 19 6 10 18 10 1 13 6 10 18 10 
10 18 10 1 16 14 24 23 9 24 23 9 10 18 10 1 16 14 6 27 12 1 19 17 
8 18 14 5 19 10 5 19 10 8 18 14 1 16 14 10 18 10 1 19 10 1 16 14 
1 20 14 1 20 14 8 18 14 1 19 17 8 18 17 7 27 20 7 27 20 1 19 17 
1 19 17 7 27 24 24 41 31 6 27 28 6 27 28 6 27 28 6 27 28 6 27 28 
7 35 30 6 27 28 6 27 28 6 27 28 6 27 28 6 27 28 6 27 28 6 27 33 
7 35 30 6 27 33 7 41 43 7 34 46 7 45 53 7 41 60 24 56 55 7 41 60 
7 45 53 7 48 75 24 56 72 7 56 82 24 56 81 24 68 95 24 68 95 24 95 100 
59 95 109 59 95 109 97 125 111 112 130 109 88 132 124 57 121 132 7 126 130 7 113 146 
6 120 170 27 163 154 43 185 193 7 145 184 7 113 146 7 113 146 27 121 132 7 113 119 
7 96 112 29 95 109 7 113 119 7 113 119 7 113 119 27 121 132 27 163 154 27 163 154 
27 163 154 7 126 130 7 126 130 7 113 146 7 126 130 7 126 130 7 126 130 27 121 132 
27 163 154 7 126 130 7 126 130 7 126 130 7 126 130 27 121 132 7 126 130 7 173 128 
27 121 132 56 162 154 93 181 160 56 162 154 7 126 130 27 121 132 27 163 154 27 163 154 
93 181 160 56 162 154 27 163 154 56 162 154 93 181 160 93 181 160 56 162 154 27 163 154 
27 163 154 7 126 130 27 163 154 27 163 154 27 163 154 27 163 154 27 163 154 7 145 184 
27 163 154 27 163 154 27 163 154 7 173 128 27 163 154 27 163 154 27 163 154 27 121 132 

4 9 6 4 9 6 4 9 6 7 10 8 7 10 8 7 10 8 15 7 5 10 18 5 
10 10 6 11 7 4 10 10 6 11 7 4 4 8 4 4 8 4 2 6 3 4 8 4 
7 7 4 10 10 6 15 7 5 10 9 2 4 5 4 10 9 2 4 8 4 7 7 4 
4 8 4 4 8 4 2 4 2 4 5 4 0 4 3 11 7 4 4 8 4 5 9 2 
4 5 4 2 6 3 7 7 4 7 7 4 4 5 4 2 6 3 7 7 4 7 7 4 
5 9 2 4 8 4 10 9 2 11 7 4 11 7 4 7 7 4 24 23 9 11 7 4 
5 9 2 4 5 4 4 8 4 4 8 4 15 7 5 7 7 4 2 6 3 2 6 3 
4 5 4 4 12 4 4 5 4 4 8 4 4 8 4 2 6 3 15 7 5 1 12 4 
10 11 4 4 8 4 4 10 4 7 7 4 4 8 4 10 11 4 4 12 4 5 19 6 
7 10 8 1 13 6 7 10 8 4 10 4 4 9 6 10 11 4 4 10 4 4 12 4 
5 19 6 1 8 8 10 10 6 4 9 6 10 10 6 1 9 4 4 9 6 10 11 4 
2 15 5 4 9 6 4 9 6 10 11 4 10 10 6 10 11 4 4 12 4 1 9 6 
4 9 6 10 18 5 10 10 6 7 10 8 1 9 6 1 9 6 1 8 8 4 9 6 
7 10 8 1 8 8 1 9 6 1 8 8 7 10 8 7 10 8 5 19 10 1 16 14 
1 19 10 5 19 10 1 8 8 7 10 8 1 16 14 10 10 6 5 19 6 5 19 10 
10 18 10 6 8 10 5 19 10 5 19 10 1 16 14 1 16 14 1 16 14 1 16 14 
8 18 17 7 27 20 1 19 17 1 19 17 1 20 14 7 18 20 6 27 28 6 27 28 
6 27 28 6 27 28 1 19 17 7 27 24 7 27 24 6 27 28 6 27 28 6 27 28 
6 27 28 7 27 24 7 27 24 7 35 30 6 27 28 7 27 24 6 27 28 23 24 27 
7 35 30 6 27 33 7 34 46 7 45 53 7 45 53 7 45 53 24 56 55 7 41 60 
24 56 55 7 48 75 7 56 82 24 56 72 7 72 82 24 68 95 29 95 109 59 95 109 
97 125 111 112 130 109 89 107 111 63 108 116 43 121 139 27 121 132 43 121 139 43 121 139 
6 120 170 7 145 184 7 145 184 7 145 184 6 120 170 7 113 146 7 113 119 7 96 112 
7 96 112 7 96 112 7 96 112 7 96 112 7 96 112 29 95 109 27 121 132 27 163 154 
7 126 130 7 126 130 7 126 130 27 121 132 27 121 132 27 121 132 7 126 130 27 121 132 
7 126 130 27 121 132 7 126 130 7 126 130 7 126 130 27 121 132 27 121 132 7 126 130 
7 126 130 27 121 132 43 121 139 7 126 130 27 121 132 7 126 130 43 121 139 126 172 135 
198 196 136 164 179 131 56 162 154 56 162 154 56 162 154 56 162 154 56 162 154 7 126 130 
27 163 154 7 126 130 7 126 130 27 163 154 27 163 154 7 126 130 27 163 154 7 145 184 
7 126 130 7 126 130 7 126 130 7 126 130 7 126 130 7 126 130 7 126 130 7 126 130 

10 18 5 4 12 4 2 15 5 10 11 4 10 10 6 15 7 5 15 7 5 15 7 5 
10 18 5 15 7 5 10 11 4 15 7 5 10 9 2 4 8 4 10 11 4 11 7 4 
7 7 4 10 11 4 15 7 5 7 7 4 4 5 4 5 9 2 7 7 4 7 7 4 
10 9 2 2 6 3 0 6 3 4 8 4 4 8 4 1 7 4 7 7 4 4 8 4 
7 7 4 2 10 2 4 5 4 4 8 4 4 8 4 2 6 3 5 9 2 4 5 4 
7 7 4 2 4 2 7 7 4 4 5 4 11 7 4 10 9 2 4 8 4 5 9 2 
7 7 4 7 7 4 2 6 3 11 7 4 4 9 6 11 7 4 4 10 4 7 7 4 
4 10 4 4 8 4 15 7 5 4 8 4 7 7 4 7 7 4 4 9 6 4 8 4 
4 8 4 4 8 4 7 7 4 10 9 2 10 11 4 4 9 6 5 9 2 4 9 6 
10 18 5 7 10 8 4 12 4 4 9 6 4 12 4 7 10 8 4 12 4 1 8 8 
5 19 6 1 11 6 4 9 6 4 10 4 4 9 6 4 9 6 1 9 6 4 12 4 
4 12 4 4 12 4 1 9 4 4 12 4 4 12 4 1 9 6 7 10 8 1 11 6 
7 10 8 15 7 5 1 11 6 10 18 5 4 10 4 11 7 4 7 10 8 4 9 6 
10 18 5 10 18 5 1 11 6 4 12 4 4 12 4 4 9 6 10 18 10 7 10 8 
2 15 5 1 13 6 1 8 8 1 11 6 1 19 10 5 19 6 10 18 10 5 19 10 
1 19 10 1 8 8 2 15 5 1 8 8 1 13 6 5 19 10 10 18 10 1 16 14 
1 16 14 1 16 14 10 18 10 8 18 14 1 16 14 8 18 17 7 27 20 8 18 17 
1 19 17 1 19 17 7 27 20 7 27 24 6 27 28 6 27 28 6 27 28 6 27 28 
7 27 24 7 27 24 6 27 28 7 35 30 6 27 28 6 27 33 7 35 30 6 27 33 
6 27 33 7 34 46 7 41 43 7 34 46 7 45 53 7 45 53 24 56 55 24 56 55 
7 41 60 24 56 72 24 67 72 24 56 81 40 64 95 29 95 109 63 108 116 83 125 111 
89 107 111 63 108 116 59 95 109 29 95 109 7 113 119 7 113 119 57 121 132 94 154 160 
56 162 154 7 145 184 7 145 184 7 145 184 7 113 146 7 99 141 7 99 141 7 113 119 
7 113 119 7 96 112 7 96 112 7 96 112 7 96 112 23 120 116 27 121 132 27 121 132 
23 120 116 7 113 119 27 121 132 7 126 130 27 121 132 27 121 132 27 121 132 27 121 132 
7 126 130 7 126 130 7 126 130 7 126 130 7 126 130 7 126 130 7 126 130 27 121 132 
27 121 132 27 121 132 27 121 132 7 126 130 7 126 130 7 126 130 43 121 139 126 172 135 
198 196 136 198 196 136 94 154 160 43 121 139 27 163 154 27 163 154 27 163 154 27 163 154 
7 126 130 7 126 130 27 121 132 7 126 130 7 126 130 7 126 130 7 126 130 7 126 130 
7 126 130 7 126 130 27 121 132 27 121 132 27 121 132 27 121 132 7 126 130 7 126 130 

4 9 6 10 11 4 10 18 5 7 10 8 10 18 5 10 11 4 10 11 4 25 6 4 
4 9 6 10 11 4 4 8 4 11 7 4 10 9 2 7 7 4 7 7 4 7 7 4 
11 7 4 15 7 5 4 8 4 7 7 4 15 7 5 7 7 4 10 9 2 11 7 4 
9 2 2 5 9 2 5 9 2 4 10 4 2 10 2 1 7 4 4 8 4 2 6 3 
2 6 3 4 5 4 11 7 4 4 5 4 7 7 4 2 6 3 10 9 2 1 4 4 
4 5 4 10 9 2 15 7 5 5 9 2 4 8 4 2 6 3 1 7 4 7 7 4 
7 7 4 2 6 3 7 7 4 1 7 4 4 8 4 4 10 4 4 8 4 11 7 4 
7 7 4 1 7 4 4 8 4 10 9 2 2 6 3 10 11 4 11 7 4 7 7 4 
1 7 4 10 10 6 10 11 4 4 9 6 7 7 4 4 8 4 4 5 4 4 8 4 
10 10 6 1 13 6 4 9 6 4 9 6 7 10 8 10 11 4 1 13 6 4 9 6 
4 9 6 5 19 6 15 7 5 4 9 6 10 11 4 1 11 6 4 12 4 4 12 4 
10 10 6 10 18 5 7 10 8 10 10 6 10 11 4 4 9 6 10 11 4 2 15 5 
2 15 5 4 9 6 4 9 6 4 9 6 4 9 6 10 11 4 1 9 6 1 9 6 
1 8 8 7 10 8 10 10 6 4 10 4 2 15 5 1 13 6 10 18 5 4 9 6 
10 18 5 1 8 8 1 11 6 10 18 10 6 8 10 1 19 10 5 19 10 5 19 10 
1 13 6 1 13 6 2 19 6 5 19 6 1 13 6 7 10 8 1 16 14 1 20 14 
1 20 14 1 20 14 1 20 14 1 16 14 1 16 14 1 19 17 8 18 17 8 18 17 
1 19 17 7 18 20 7 27 20 7 27 20 7 27 24 6 27 28 6 27 28 6 27 28 
23 24 27 23 24 27 6 27 28 6 27 33 6 27 33 7 35 30 6 27 33 6 27 33 
6 27 33 7 34 46 7 45 53 7 45 53 7 41 60 7 45 53 24 56 55 24 56 72 
24 56 72 24 56 72 24 68 95 24 68 95 59 95 109 59 95 109 89 107 111 89 107 111 
59 95 109 40 64 95 24 68 95 24 68 95 27 76 117 7 99 141 126 145 132 128 189 167 
43 185 193 7 145 184 6 120 170 7 113 146 7 99 141 7 99 141 7 113 119 7 113 119 
7 126 130 7 113 119 7 113 119 7 113 119 7 96 112 7 96 112 23 120 116 7 96 112 
23 120 116 7 113 119 23 120 116 27 121 132 43 121 139 27 121 132 7 126 130 7 126 130 
7 126 130 7 126 130 7 126 130 7 126 130 7 126 130 7 126 130 7 126 130 7 126 130 
27 121 132 7 126 130 7 126 130 27 121 132 27 121 132 27 121 132 27 121 132 88 132 124 
147 177 131 126 145 132 43 121 139 27 163 154 27 163 154 27 163 154 27 163 154 27 121 132 
7 126 130 7 126 130 27 121 132 7 126 130 7 126 130 7 126 130 7 126 130 7 126 130 
7 126 130 7 126 130 7 99 141 7 126 130 27 121 132 27 121 132 27 121 132 7 126 130 

2 15 5 24 23 9 15 7 5 7 10 8 7 10 8 10 10 6 2 15 5 4 9 6 
4 9 6 7 7 4 1 6 4 10 9 2 4 12 4 15 7 5 10 11 4 11 7 4 
15 7 5 25 6 4 4 8 4 11 7 4 10 9 2 1 7 4 4 12 4 10 11 4 
4 5 4 4 5 4 1 7 4 4 8 4 7 7 4 2 6 3 2 10 2 7 7 4 
2 6 3 10 11 4 2 6 3 7 7 4 1 7 4 7 7 4 7 7 4 4 8 4 
2 6 3 4 5 4 2 4 2 10 9 2 2 6 3 7 7 4 4 8 4 1 7 4 
4 8 4 1 12 4 1 9 4 1 7 4 4 8 4 4 12 4 4 5 4 4 5 4 
15 7 5 4 10 4 7 7 4 4 8 4 4 5 4 10 9 2 4 8 4 4 10 4 
1 6 4 10 10 6 4 9 6 1 13 6 1 11 6 4 10 4 4 8 4 7 7 4 
1 7 4 1 11 6 4 9 6 7 7 4 7 10 8 1 11 6 1 12 4 10 10 6 
15 7 5 7 10 8 1 9 6 4 12 4 4 9 6 4 9 6 5 19 6 1 11 6 
10 18 5 15 7 5 4 12 4 4 9 6 4 12 4 1 11 6 10 10 6 4 9 6 
1 9 6 7 10 8 10 10 6 15 7 5 5 19 6 7 10 8 1 9 6 15 7 5 
1 13 6 10 18 10 4 12 4 4 8 4 1 9 4 1 9 6 4 12 4 2 15 5 
10 10 6 1 13 6 2 15 5 6 8 10 5 19 10 1 16 14 1 16 14 1 11 6 
4 12 4 2 15 5 1 8 8 1 11 6 1 8 8 1 8 8 1 16 14 5 19 10 
5 19 10 1 16 14 1 16 14 8 18 14 1 16 14 1 20 14 6 27 12 8 18 14 
1 19 17 7 27 20 7 27 24 7 27 20 23 24 27 7 27 20 7 27 24 7 27 20 
7 27 20 7 27 24 6 27 33 7 35 30 7 35 30 7 35 30 6 27 33 7 41 43 
7 34 46 24 40 47 24 56 55 7 45 53 7 41 60 7 48 75 24 56 72 24 56 72 
24 67 72 55 83 74 54 83 99 86 120 88 89 107 111 59 95 109 54 83 99 54 63 80 
24 56 81 24 68 95 24 68 95 24 68 95 7 75 102 7 126 130 56 162 154 94 154 160 
27 163 154 7 145 184 7 113 146 7 99 141 7 99 141 7 99 141 7 99 141 7 113 119 
7 126 130 7 113 119 23 120 116 7 113 119 23 120 116 7 96 112 7 96 112 29 95 109 
29 95 109 7 113 119 7 113 119 27 121 132 27 121 132 27 121 132 27 121 132 7 113 146 
7 113 146 7 126 130 27 163 154 27 121 132 7 126 130 27 121 132 27 121 132 7 126 130 
27 121 132 7 126 130 27 121 132 7 126 130 27 121 132 42 120 116 27 121 132 27 121 132 
27 121 132 27 121 132 27 121 132 43 121 139 56 162 154 27 163 154 27 121 132 7 126 130 
7 126 130 7 126 130 7 126 130 7 126 130 7 126 130 7 126 130 7 126 130 7 126 130 
7 126 130 7 126 130 7 126 130 27 121 132 27 121 132 7 113 119 27 121 132 27 121 132 

10 18 5 7 10 8 10 10 6 10 18 5 10 10 6 4 9 6 10 10 6 4 12 4 
15 7 5 10 10 6 10 11 4 7 7 4 7 7 4 10 18 5 7 10 8 10 11 4 
4 5 4 7 7 4 4 12 4 4 10 4 10 11 4 5 9 2 4 5 4 4 8 4 
4 8 4 1 7 4 7 7 4 4 8 4 2 6 3 11 7 4 4 8 4 2 6 3 
4 5 4 4 10 4 15 7 5 7 7 4 11 7 4 4 8 4 4 8 4 4 5 4 
1 7 4 4 5 4 7 7 4 2 10 2 1 7 4 4 5 4 2 4 2 1 4 4 
1 6 4 1 9 4 2 6 3 4 8 4 10 11 4 10 10 6 1 7 4 2 10 2 
4 5 4 7 7 4 7 7 4 7 7 4 7 7 4 7 7 4 4 5 4 4 8 4 
4 5 4 10 10 6 1 11 6 4 9 6 4 9 6 4 8 4 4 12 4 4 12 4 
4 10 4 4 5 4 1 7 4 4 12 4 4 9 6 4 12 4 4 10 4 4 9 6 
1 7 4 4 12 4 4 9 6 7 7 4 15 7 5 4 10 4 10 11 4 1 9 6 
2 15 5 7 10 8 4 9 6 4 9 6 10 11 4 10 10 6 4 12 4 4 9 6 
10 10 6 7 10 8 10 11 4 4 12 4 4 9 6 1 7 4 1 9 6 15 7 5 
1 4 6 1 13 6 2 19 6 1 13 6 4 12 4 4 12 4 2 15 5 1 8 8 
10 10 6 2 15 5 1 13 6 1 13 6 5 19 10 1 16 14 1 16 14 1 13 6 
1 11 6 1 11 6 1 8 8 1 16 14 1 20 14 5 19 10 1 16 14 1 16 14 
1 16 14 1 20 14 1 16 14 1 16 14 1 20 14 1 19 17 8 18 14 1 16 14 
1 20 14 7 27 20 1 19 17 7 27 24 7 27 24 7 27 20 23 24 27 7 27 24 
7 27 24 7 27 24 7 27 24 7 27 24 7 35 30 6 27 33 7 35 30 6 27 33 
7 41 43 7 45 53 24 56 55 7 41 60 7 48 75 24 56 72 24 56 81 24 67 72 
40 64 95 54 92 81 93 98 84 93 98 84 54 92 81 55 83 74 24 56 81 24 56 81 
24 67 72 7 72 82 7 56 82 24 95 100 7 75 102 7 96 112 7 113 119 7 99 141 
7 126 130 7 113 146 7 113 146 7 99 141 7 99 141 7 113 119 7 126 130 7 126 130 
57 121 132 63 108 116 7 113 119 7 96 112 7 96 112 29 95 109 29 95 109 29 95 109 
29 95 109 7 96 112 7 113 119 7 113 119 7 126 130 7 126 130 27 163 154 7 113 146 
27 121 132 7 126 130 43 121 139 27 121 132 7 126 130 27 121 132 27 121 132 7 126 130 
27 121 132 7 126 130 27 121 132 27 121 132 27 121 132 27 121 132 7 113 119 7 126 130 
23 120 116 7 113 119 27 121 132 7 126 130 27 163 154 27 163 154 7 126 130 7 126 130 
27 121 132 7 126 130 7 126 130 7 126 130 7 126 130 7 126 130 7 126 130 7 126 130 
7 126 130 7 126 130 7 113 119 42 120 116 23 120 116 7 113 119 27 121 132 27 121 132 

15 7 5 10 11 4 2 15 5 2 15 5 10 10 6 15 7 5 10 10 6 10 11 4 
4 9 6 15 7 5 10 18 5 15 7 5 4 9 6 4 9 6 10 11 4 4 10 4 
11 7 4 11 7 4 10 11 4 11 7 4 15 7 5 10 9 2 10 11 4 4 10 4 
4 10 4 4 12 4 0 9 4 11 7 4 2 10 2 4 5 4 4 5 4 7 7 4 
4 8 4 4 10 4 7 7 4 4 10 4 4 5 4 1 4 4 4 12 4 1 7 4 
4 10 4 4 5 4 11 7 4 4 12 4 4 5 4 1 12 4 10 11 4 7 7 4 
1 7 4 4 8 4 0 6 3 4 5 4 4 8 4 4 8 4 7 7 4 4 8 4 
4 8 4 4 8 4 7 7 4 7 7 4 7 7 4 7 7 4 1 12 4 1 6 4 
10 11 4 7 7 4 4 12 4 4 8 4 2 6 3 1 11 6 1 9 6 4 10 4 
7 7 4 10 10 6 4 8 4 7 7 4 25 6 4 4 12 4 4 8 4 4 10 4 
7 7 4 7 7 4 10 11 4 4 12 4 5 19 6 7 10 8 10 10 6 15 7 5 
4 12 4 1 11 6 4 9 6 7 10 8 15 7 5 4 12 4 1 9 6 1 11 6 
7 10 8 10 18 5 10 10 6 4 12 4 10 11 4 4 12 4 1 6 4 1 11 6 
2 15 5 10 18 10 1 8 8 10 18 5 4 9 6 1 9 6 1 13 6 1 11 6 
1 8 8 1 9 6 4 9 6 4 12 4 10 18 10 10 18 10 1 19 10 10 18 10 
10 18 10 10 18 10 5 19 10 1 20 14 8 18 14 8 18 14 5 19 10 8 18 14 
1 16 14 1 16 14 5 19 10 1 16 14 1 16 14 24 23 9 1 20 14 5 19 10 
8 18 14 1 16 14 8 18 17 8 18 17 8 18 17 1 19 17 7 27 24 7 27 20 
23 24 27 7 27 24 7 27 24 7 27 20 7 27 24 7 35 30 24 41 31 6 27 33 
7 41 43 24 40 47 24 56 55 24 56 55 24 56 72 24 67 72 40 64 95 54 92 81 
54 83 99 93 78 89 93 78 89 54 63 80 24 67 72 24 56 81 7 56 82 24 56 72 
24 56 81 24 56 81 24 67 72 24 68 95 7 75 102 24 95 100 7 75 102 7 96 112 
7 96 112 7 81 122 7 96 112 7 99 141 7 113 119 7 99 141 7 113 146 7 173 128 
126 183 100 208 152 121 63 108 116 7 96 112 29 95 109 29 95 109 29 95 109 29 95 109 
29 95 109 7 96 112 7 96 112 7 96 112 7 126 130 27 163 154 27 163 154 7 126 130 
7 113 119 23 120 116 23 120 116 27 121 132 27 121 132 7 126 130 7 126 130 7 113 119 
27 121 132 7 113 119 7 113 119 27 121 132 7 126 130 7 113 146 7 113 119 7 113 119 
7 113 119 7 126 130 7 126 130 27 121 132 7 126 130 27 121 132 7 126 130 7 126 130 
27 121 132 27 121 132 7 126 130 7 126 130 7 126 130 7 126 130 7 126 130 7 113 119 
7 113 119 23 120 116 29 95 109 7 113 119 7 113 119 23 120 116 23 120 116 7 113 119 

11 7 4 10 18 5 10 10 6 15 7 5 10 18 5 24 23 9 1 11 6 4 9 6 
10 18 5 10 10 6 7 7 4 10 10 6 10 18 5 1 8 8 10 11 4 4 10 4 
10 11 4 4 12 4 10 10 6 15 7 5 25 6 4 4 8 4 4 9 6 7 10 8 
4 12 4 4 10 4 1 9 4 7 7 4 7 7 4 5 9 2 7 7 4 1 7 4 
2 6 3 4 8 4 1 6 4 4 8 4 4 8 4 4 8 4 10 11 4 1 4 4 
5 9 2 4 8 4 1 9 4 2 10 2 11 7 4 4 8 4 4 8 4 10 11 4 
10 11 4 4 8 4 4 8 4 4 8 4 4 10 4 7 7 4 4 5 4 4 10 4 
4 5 4 2 6 3 4 5 4 2 6 3 7 7 4 5 9 2 1 6 4 10 11 4 
15 7 5 2 6 3 1 7 4 10 11 4 1 7 4 4 9 6 4 5 4 10 18 5 
1 9 6 1 11 6 4 9 6 4 5 4 10 18 5 1 11 6 4 10 4 10 10 6 
7 10 8 4 9 6 10 11 4 10 10 6 4 12 4 1 9 6 4 12 4 4 12 4 
4 9 6 10 18 10 1 13 6 4 9 6 2 15 5 4 5 4 10 10 6 1 13 6 
4 12 4 7 10 8 4 12 4 4 9 6 1 6 4 4 12 4 4 9 6 1 11 6 
4 9 6 4 9 6 1 13 6 4 9 6 4 9 6 2 15 5 5 19 6 5 19 6 
5 19 6 1 8 8 1 13 6 1 11 6 1 8 8 5 19 10 5 19 10 5 19 10 
7 10 8 5 19 10 10 18 10 5 19 10 1 16 14 1 20 14 8 18 14 1 16 14 
8 18 17 6 27 12 1 16 14 1 19 10 5 19 10 8 18 14 1 20 14 1 20 14 
6 27 12 8 18 14 1 16 14 1 16 14 1 19 17 1 19 17 7 27 20 7 27 20 
7 27 20 7 27 24 7 27 24 7 27 24 7 18 20 6 27 33 6 27 33 24 41 31 
7 41 43 7 45 53 7 45 53 24 56 55 24 56 72 55 83 74 55 83 74 93 98 84 
93 78 89 55 83 74 54 63 80 24 56 72 24 56 72 24 56 72 24 56 72 24 67 72 
24 56 81 24 67 72 7 56 82 7 56 82 24 68 95 24 68 95 24 95 100 24 68 95 
7 75 102 7 96 112 7 113 119 7 96 112 7 96 112 7 99 141 7 113 146 6 201 200 
66 203 105 155 181 94 63 108 116 7 96 112 7 96 112 24 95 100 24 95 100 24 95 100 
29 95 109 7 96 112 7 96 112 29 95 109 7 96 112 27 121 132 27 121 132 7 126 130 
7 113 119 7 113 119 23 120 116 7 113 119 7 113 119 7 113 119 7 113 119 29 95 109 
29 95 109 7 113 119 7 113 119 27 121 132 43 121 139 7 126 130 7 113 146 29 95 109 
7 113 119 7 126 130 7 126 130 7 126 130 27 121 132 7 126 130 7 126 130 27 121 132 
27 121 132 27 121 132 7 113 146 7 126 130 27 121 132 7 126 130 7 113 146 7 113 119 
7 113 119 29 95 109 7 113 119 7 113 119 7 113 119 7 96 112 23 120 116 23 120 116 

10 11 4 15 7 5 15 7 5 10 10 6 4 9 6 10 10 6 4 12 4 10 18 5 
10 18 5 4 12 4 4 12 4 1 8 8 10 11 4 7 7 4 4 12 4 4 9 6 
10 18 5 4 10 4 4 9 6 10 10 6 10 10 6 15 7 5 4 10 4 10 11 4 
4 10 4 1 9 4 1 9 4 4 10 4 1 12 4 7 7 4 7 7 4 7 7 4 
7 7 4 4 8 4 4 10 4 7 7 4 10 11 4 4 10 4 4 10 4 1 9 4 
1 7 4 10 11 4 1 9 4 7 7 4 1 4 4 10 11 4 10 11 4 1 4 6 
4 8 4 11 7 4 1 9 4 10 11 4 10 11 4 4 9 6 4 5 4 4 10 4 
4 9 6 7 7 4 1 9 4 4 5 4 25 6 4 4 8 4 1 9 6 7 7 4 
1 9 4 4 8 4 4 8 4 1 7 4 7 7 4 5 9 2 10 18 5 10 10 6 
10 11 4 10 11 4 10 11 4 4 10 4 1 12 4 4 9 6 7 7 4 10 11 4 
1 11 6 4 12 4 1 9 4 1 9 4 4 12 4 4 12 4 10 18 5 7 10 8 
10 11 4 5 19 10 10 18 10 4 9 6 7 10 8 2 15 5 10 10 6 1 13 6 
4 12 4 10 18 5 10 10 6 7 10 8 4 9 6 1 11 6 1 11 6 4 12 4 
2 15 5 1 13 6 1 13 6 1 9 6 4 9 6 4 12 4 7 10 8 7 10 8 
7 10 8 2 19 6 1 11 6 2 19 6 1 11 6 5 19 10 1 16 14 1 16 14 
5 19 10 5 19 10 1 13 6 1 19 10 1 20 14 1 16 14 1 16 14 10 18 10 
7 27 20 7 18 20 10 18 10 10 18 10 1 16 14 10 18 10 1 20 14 8 18 14 
1 20 14 10 18 10 1 20 14 1 20 14 1 19 17 1 19 17 1 19 17 8 18 17 
1 19 17 7 27 24 6 27 28 23 24 27 6 27 28 23 24 27 24 41 31 7 41 43 
24 40 47 24 40 47 24 56 55 24 56 72 54 63 80 54 63 80 55 83 74 54 63 80 
55 83 74 24 56 72 7 41 60 7 45 53 24 56 55 24 56 72 24 56 72 24 67 72 
7 56 82 7 48 75 24 56 72 7 56 82 24 67 72 7 56 82 7 72 82 7 72 82 
7 75 102 7 75 102 7 96 112 7 96 112 7 96 112 7 99 141 6 120 170 7 145 184 
7 173 128 7 173 128 7 96 112 7 96 112 24 95 100 24 68 95 24 68 95 54 83 99 
29 95 109 29 95 109 29 95 109 7 96 112 7 96 112 7 113 119 29 95 109 29 95 109 
7 113 119 29 95 109 29 95 109 7 96 112 29 95 109 7 96 112 7 96 112 29 95 109 
23 120 116 7 113 119 7 113 119 7 126 130 94 154 160 93 181 160 7 113 146 7 113 119 
7 113 146 27 121 132 27 121 132 27 121 132 23 120 116 7 126 130 7 126 130 7 126 130 
7 126 130 27 121 132 27 121 132 27 121 132 7 126 130 27 121 132 7 113 119 7 113 119 
7 96 112 29 95 109 23 120 116 29 95 109 29 95 109 23 120 116 29 95 109 29 95 109 

4 5 4 1 9 4 4 8 4 10 10 6 10 18 5 4 12 4 7 10 8 10 11 4 
4 9 6 15 7 5 1 7 4 10 18 5 10 11 4 7 7 4 4 10 4 10 18 5 
4 12 4 1 7 4 10 18 5 4 12 4 4 12 4 4 10 4 4 10 4 10 10 6 
10 11 4 4 12 4 4 9 6 10 11 4 10 11 4 4 5 4 10 9 2 7 7 4 
4 10 4 4 5 4 4 12 4 10 11 4 4 8 4 2 6 3 10 11 4 1 6 4 
1 9 4 0 4 3 2 6 3 4 8 4 4 5 4 4 8 4 4 5 4 5 19 6 
4 8 4 4 8 4 4 8 4 1 7 4 1 9 4 1 9 4 11 7 4 4 10 4 
4 10 4 4 8 4 4 8 4 7 7 4 1 6 4 15 7 5 1 6 4 4 9 6 
10 11 4 7 7 4 4 12 4 10 11 4 4 5 4 4 5 4 1 6 4 10 10 6 
4 10 4 4 12 4 1 4 4 0 9 4 1 7 4 10 11 4 1 7 4 7 10 8 
24 23 9 1 9 4 4 9 6 4 5 4 4 8 4 4 9 6 7 7 4 10 11 4 
1 8 8 10 18 5 5 19 10 7 10 8 4 12 4 4 12 4 4 9 6 2 15 5 
1 11 6 4 9 6 4 9 6 1 11 6 4 9 6 10 11 4 10 18 5 1 9 6 
1 8 8 5 19 6 7 10 8 24 23 9 1 11 6 1 13 6 5 19 6 1 19 10 
7 10 8 2 15 5 1 11 6 1 11 6 5 19 6 10 18 10 1 16 14 5 19 10 
1 16 14 1 16 14 1 16 14 8 18 14 7 27 20 8 18 17 1 16 14 8 18 14 
24 23 9 7 18 20 6 27 12 8 18 14 1 16 14 1 20 14 1 16 14 1 16 14 
1 16 14 8 18 14 8 18 17 8 18 17 1 20 14 8 18 14 8 18 17 1 19 17 
7 27 24 6 27 28 7 35 30 7 35 30 6 27 28 7 35 30 24 40 47 24 40 47 
24 56 55 24 56 55 54 63 80 54 63 80 55 83 74 54 63 80 54 63 80 24 56 55 
24 56 55 7 45 53 7 45 53 7 45 53 7 41 60 7 41 60 24 56 72 24 56 72 
24 56 72 24 56 72 24 56 72 24 56 72 7 56 82 24 56 72 24 56 72 7 56 82 
7 72 82 7 75 102 7 75 102 7 96 112 7 96 112 7 81 122 7 113 146 7 113 146 
7 99 141 29 95 109 7 96 112 24 95 100 7 75 102 24 68 95 40 64 95 24 95 100 
24 95 100 24 95 100 29 95 109 29 95 109 29 95 109 29 95 109 29 95 109 29 95 109 
7 96 112 29 95 109 7 96 112 7 96 112 29 95 109 7 96 112 29 95 109 7 96 112 
29 95 109 7 96 112 7 113 119 57 121 132 94 154 160 7 113 146 7 96 112 7 113 119 
7 126 130 43 121 139 43 121 139 23 120 116 23 120 116 7 113 119 7 113 119 7 113 119 
7 113 119 7 126 130 7 113 146 7 126 130 7 113 119 29 95 109 7 96 112 7 96 112 
29 95 109 29 95 109 29 95 109 29 95 109 29 95 109 29 95 109 29 95 109 24 95 100 

1 6 4 2 15 5 1 7 4 10 9 2 1 9 4 10 10 6 10 18 5 10 11 4 
1 13 6 4 9 6 4 9 6 10 11 4 4 12 4 10 18 5 10 10 6 4 12 4 
1 9 4 10 11 4 10 10 6 10 18 5 1 11 6 10 18 5 10 11 4 10 18 5 
4 12 4 10 11 4 4 10 4 4 8 4 1 6 4 15 7 5 1 7 4 1 7 4 
4 5 4 4 8 4 1 7 4 7 7 4 4 12 4 5 9 2 10 9 2 4 10 4 
1 7 4 4 12 4 7 7 4 1 7 4 4 10 4 7 7 4 4 5 4 4 8 4 
1 9 4 4 8 4 1 9 4 4 8 4 4 8 4 7 7 4 4 10 4 4 8 4 
4 8 4 4 5 4 4 8 4 10 11 4 4 5 4 5 9 2 11 7 4 4 8 4 
7 10 8 1 7 4 1 13 6 4 8 4 4 9 6 4 10 4 4 12 4 7 7 4 
1 7 4 1 13 6 10 11 4 1 7 4 4 10 4 1 7 4 4 5 4 2 15 5 
4 9 6 4 12 4 7 7 4 10 11 4 1 6 4 4 10 4 4 12 4 10 11 4 
10 10 6 2 15 5 2 15 5 7 10 8 1 11 6 1 11 6 4 10 4 1 9 4 
4 10 4 7 10 8 10 10 6 10 18 10 4 12 4 4 9 6 10 18 5 1 11 6 
10 18 5 1 8 8 2 15 5 1 13 6 10 10 6 1 8 8 2 15 5 1 13 6 
1 11 6 4 9 6 1 8 8 1 13 6 10 18 10 10 18 10 1 13 6 1 13 6 
1 16 14 8 18 14 8 18 17 1 19 17 1 19 17 8 18 17 1 20 14 1 16 14 
8 18 17 1 16 14 1 20 14 8 18 17 6 27 12 10 18 10 24 23 9 1 16 14 
1 19 10 8 18 14 7 27 20 8 18 17 1 19 17 1 19 17 7 27 20 7 18 20 
7 27 20 6 27 28 7 35 30 6 27 28 24 41 31 7 35 30 24 40 47 24 40 47 
24 56 55 54 63 80 55 83 74 54 63 80 24 56 72 24 56 55 24 56 55 7 45 53 
7 45 53 7 45 53 24 56 55 7 45 53 7 45 53 7 45 53 7 45 53 7 45 53 
7 41 60 24 56 55 24 56 72 24 56 72 24 56 72 24 56 72 7 56 82 7 56 82 
7 72 82 7 75 102 24 68 95 54 83 99 54 83 99 29 95 109 7 96 112 7 81 122 
7 96 112 24 95 100 7 75 102 24 68 95 24 68 95 40 64 95 40 64 95 24 95 100 
24 95 100 24 95 100 27 76 117 29 95 109 29 95 109 7 96 112 27 76 117 29 95 109 
24 95 100 7 96 112 29 95 109 7 113 119 27 163 154 7 126 130 7 96 112 7 96 112 
29 95 109 7 96 112 23 120 116 57 121 132 27 121 132 7 81 122 24 95 100 29 95 109 
27 121 132 43 121 139 27 121 132 7 113 119 7 113 119 7 113 119 7 113 119 29 95 109 
7 113 119 7 113 119 7 113 119 7 113 119 7 96 112 29 95 109 7 96 112 7 96 112 
29 95 109 7 96 112 29 95 109 29 95 109 29 95 109 29 95 109 24 95 100 24 95 100 

1 7 4 1 7 4 1 7 4 4 8 4 2 6 3 7 7 4 1 7 4 4 8 4 
4 8 4 4 5 4 10 11 4 4 9 6 4 12 4 2 15 5 2 15 5 10 18 5 
4 12 4 1 4 6 10 18 5 15 7 5 4 12 4 7 7 4 4 9 6 4 12 4 
4 9 6 2 15 5 4 12 4 1 9 6 2 15 5 4 12 4 1 9 4 10 11 4 
10 11 4 1 12 4 4 12 4 4 8 4 10 10 6 7 7 4 2 6 3 4 12 4 
4 8 4 10 11 4 4 10 4 10 10 6 4 8 4 15 7 5 4 8 4 4 10 4 
2 15 5 10 11 4 7 7 4 11 7 4 7 7 4 5 9 2 1 6 4 4 10 4 
4 8 4 10 11 4 4 8 4 7 7 4 10 11 4 4 12 4 1 11 6 10 10 6 
7 7 4 4 5 4 1 7 4 4 9 6 25 6 4 4 9 6 4 8 4 4 10 4 
4 12 4 1 7 4 1 9 4 1 9 4 11 7 4 1 4 6 5 19 6 4 12 4 
10 10 6 1 12 4 4 8 4 10 11 4 4 12 4 10 11 4 1 4 6 24 23 9 
7 10 8 10 11 4 4 9 6 4 9 6 1 11 6 2 15 5 4 9 6 2 15 5 
4 9 6 1 11 6 10 18 5 10 11 4 7 10 8 2 15 5 10 18 5 24 23 9 
10 10 6 10 18 5 1 9 6 10 10 6 7 10 8 1 13 6 1 13 6 10 18 10 
4 9 6 10 18 5 10 18 10 1 13 6 5 19 10 7 10 8 10 18 10 10 18 10 
5 19 10 10 18 10 24 23 9 7 27 20 8 18 17 8 18 14 1 16 14 8 18 14 
1 19 17 1 20 14 6 27 12 1 20 14 1 19 17 10 18 10 8 18 14 1 16 14 
1 16 14 1 16 14 1 19 17 7 27 20 1 19 17 8 18 17 6 27 12 7 18 20 
7 27 20 7 27 24 6 27 28 6 27 33 24 41 31 53 43 37 24 40 47 24 56 55 
54 63 80 54 63 80 54 63 80 24 56 55 7 41 60 7 45 53 24 40 47 7 41 43 
7 45 53 7 45 53 24 40 47 7 34 46 7 34 46 7 41 43 7 45 53 7 45 53 
7 45 53 6 34 60 7 41 60 7 41 60 7 48 75 24 56 81 7 72 82 7 75 102 
7 59 103 7 75 102 23 120 116 155 181 94 124 104 87 40 64 95 24 68 95 7 75 102 
7 75 102 7 72 82 7 72 82 7 72 82 24 68 95 24 68 95 24 68 95 24 95 100 
24 95 100 24 95 100 29 95 109 29 95 109 29 95 109 29 95 109 24 95 100 24 95 100 
24 95 100 7 75 102 7 75 102 27 121 132 27 163 154 43 121 139 29 95 109 29 95 109 
7 96 112 29 95 109 27 76 117 23 120 116 7 96 112 29 95 109 7 96 112 29 95 109 
29 95 109 23 120 116 7 113 119 7 113 119 7 113 119 7 96 112 7 96 112 7 96 112 
29 95 109 7 96 112 7 96 112 7 96 112 29 95 109 29 95 109 7 96 112 7 96 112 
29 95 109 27 76 117 7 75 102 7 96 112 7 75 102 24 95 100 24 95 100 29 95 109 

1 8 8 1 8 8 1 9 4 4 10 4 0 4 3 4 8 4 7 7 4 1 7 4 
4 12 4 7 7 4 15 7 5 4 12 4 1 9 4 1 13 6 2 15 5 10 18 5 
2 19 6 10 18 5 10 18 5 4 12 4 10 11 4 10 10 6 1 11 6 1 13 6 
4 12 4 10 11 4 4 9 6 10 18 5 10 10 6 7 7 4 4 9 6 4 10 4 
1 11 6 10 11 4 4 10 4 4 12 4 4 9 6 4 8 4 4 8 4 1 7 4 
4 9 6 1 9 4 4 10 4 4 12 4 10 18 5 4 8 4 4 8 4 4 5 4 
10 11 4 4 9 6 10 18 5 7 7 4 4 8 4 7 7 4 4 10 4 4 10 4 
1 7 4 1 6 4 10 10 6 1 6 4 1 4 4 1 9 6 1 11 6 4 8 4 
7 7 4 10 11 4 4 8 4 1 9 6 4 12 4 11 7 4 4 8 4 4 8 4 
4 8 4 4 8 4 4 10 4 4 10 4 7 7 4 1 7 4 2 15 5 5 9 2 
5 9 2 1 12 4 1 4 4 4 10 4 10 11 4 10 10 6 1 8 8 10 18 5 
4 9 6 4 12 4 4 12 4 7 10 8 7 10 8 4 12 4 4 9 6 1 7 4 
5 19 6 7 10 8 10 18 10 10 18 10 7 10 8 7 10 8 2 19 6 7 10 8 
1 11 6 7 10 8 7 10 8 1 9 6 4 9 6 2 15 5 2 15 5 1 19 10 
10 18 10 2 15 5 7 10 8 1 13 6 1 19 10 1 16 14 1 19 10 1 13 6 
1 16 14 1 16 14 1 16 14 8 18 14 1 20 14 8 18 14 1 20 14 7 27 20 
7 27 20 1 16 14 1 16 14 1 16 14 7 27 20 1 16 14 1 16 14 1 20 14 
1 16 14 8 18 17 7 27 20 1 19 17 8 18 17 1 19 17 8 18 17 1 19 17 
7 27 24 7 35 30 6 27 33 24 41 31 24 40 47 24 40 47 53 43 37 53 43 37 
24 56 55 24 40 47 24 40 47 24 40 47 7 45 53 7 41 43 7 34 46 7 34 46 
7 34 46 24 40 47 24 40 47 7 34 46 24 40 47 7 41 43 7 41 43 7 34 46 
7 45 53 7 41 60 7 48 75 7 56 82 7 56 82 7 56 82 7 75 102 7 75 102 
7 81 122 7 113 146 7 173 128 66 203 105 86 120 88 24 56 81 24 56 81 24 67 72 
7 72 82 7 72 82 7 72 82 24 67 72 24 56 95 7 72 82 7 72 82 24 68 95 
24 68 95 24 68 95 24 95 100 7 96 112 29 95 109 24 95 100 24 68 95 24 95 100 
24 68 95 24 68 95 24 95 100 42 120 116 23 120 116 29 95 109 29 95 109 7 96 112 
7 96 112 29 95 109 7 96 112 24 95 100 29 95 109 24 95 100 24 95 100 24 95 100 
7 96 112 29 95 109 29 95 109 7 96 112 7 96 112 29 95 109 7 96 112 7 96 112 
7 96 112 29 95 109 24 95 100 29 95 109 7 96 112 7 96 112 29 95 109 7 96 112 
29 95 109 24 95 100 24 95 100 24 95 100 24 95 100 24 95 100 24 95 100 24 95 100 

6 33 96 7 27 52 4 8 47 6 8 10 1 8 8 1 7 4 1 7 4 1 9 4 
10 11 4 0 9 4 10 18 5 10 10 6 4 10 4 1 9 4 1 7 4 10 10 6 
7 10 8 5 19 6 1 6 4 4 12 4 1 11 6 10 11 4 4 9 6 7 10 8 
4 10 4 4 9 6 10 11 4 10 10 6 4 12 4 4 12 4 10 11 4 4 10 4 
4 12 4 7 7 4 11 7 4 1 13 6 4 12 4 7 10 8 4 12 4 4 12 4 
10 18 5 10 11 4 4 8 4 1 7 4 7 7 4 1 7 4 4 12 4 7 7 4 
4 9 6 4 10 4 4 12 4 1 9 4 1 9 4 4 12 4 7 7 4 4 10 4 
4 10 4 1 9 4 4 12 4 1 6 4 7 10 8 10 11 4 4 10 4 4 8 4 
7 7 4 4 9 6 10 10 6 4 5 4 1 7 4 11 7 4 7 7 4 4 10 4 
4 12 4 10 10 6 4 12 4 4 10 4 1 4 4 0 4 3 2 10 2 4 8 4 
4 8 4 10 11 4 7 7 4 4 9 6 10 18 5 1 9 4 7 7 4 1 11 6 
11 7 4 4 9 6 10 11 4 1 9 6 10 18 5 4 12 4 2 15 5 4 9 6 
7 10 8 24 23 9 1 8 8 1 13 6 1 19 10 10 18 10 7 10 8 10 18 5 
4 9 6 7 10 8 1 11 6 1 11 6 1 8 8 1 13 6 1 13 6 10 18 10 
1 13 6 1 8 8 1 16 14 1 19 10 5 19 10 1 19 10 2 15 5 7 10 8 
1 19 10 1 19 10 1 13 6 1 13 6 1 19 10 1 20 14 1 20 14 1 16 14 
1 19 17 5 19 10 1 16 14 1 16 14 8 18 17 8 18 17 1 16 14 8 18 14 
1 16 14 8 18 17 23 24 27 1 19 17 1 19 17 1 19 17 1 19 17 7 27 20 
7 27 24 7 35 30 7 35 30 24 41 31 24 40 47 53 43 37 53 43 37 24 40 47 
24 40 47 7 34 46 7 34 46 7 41 43 7 34 46 7 34 46 24 40 47 7 34 46 
7 41 43 7 34 46 7 34 46 7 34 46 7 41 43 7 34 46 24 40 47 7 34 46 
7 41 60 7 48 75 7 56 82 7 56 82 7 56 82 7 75 102 7 75 102 7 75 102 
7 81 122 6 120 170 7 145 184 7 113 119 7 56 82 24 56 72 24 67 72 24 56 81 
7 72 82 7 56 82 7 56 82 24 56 81 24 56 81 7 56 82 24 68 95 24 68 95 
24 68 95 24 68 95 40 64 95 24 95 100 24 95 100 7 75 102 24 68 95 7 75 102 
24 95 100 7 75 102 7 75 102 7 75 102 7 75 102 24 95 100 24 95 100 24 95 100 
7 96 112 29 95 109 7 96 112 24 68 95 7 75 102 24 95 100 24 95 100 29 95 109 
24 95 100 7 96 112 29 95 109 29 95 109 7 96 112 29 95 109 7 96 112 29 95 109 
7 96 112 24 95 100 24 95 100 7 75 102 24 95 100 7 96 112 24 95 100 7 75 102 
27 76 117 24 68 95 7 75 102 7 75 102 24 68 95 24 68 95 24 68 95 24 68 95 

6 95 166 6 89 150 7 73 121 6 33 96 7 27 52 7 18 20 1 8 8 1 4 6 
1 6 4 2 6 3 2 6 3 4 10 4 1 7 4 0 4 3 2 6 3 4 10 4 
4 12 4 10 11 4 1 9 4 4 12 4 24 23 9 4 12 4 4 10 4 4 10 4 
1 9 4 4 8 4 4 12 4 1 6 4 4 9 6 4 12 4 1 9 6 10 11 4 
4 10 4 4 10 4 1 9 6 1 13 6 4 12 4 10 11 4 5 19 6 7 10 8 
4 12 4 1 9 4 4 9 6 4 9 6 4 10 4 4 8 4 7 10 8 4 8 4 
10 18 5 1 9 6 1 4 4 5 19 6 1 9 4 4 9 6 1 9 6 10 11 4 
4 8 4 1 7 4 4 12 4 15 7 5 4 9 6 1 8 8 4 8 4 1 9 4 
4 12 4 7 10 8 10 11 4 1 9 6 1 7 4 1 6 4 4 10 4 4 5 4 
1 7 4 4 12 4 1 9 6 11 7 4 24 23 9 1 7 4 5 9 2 4 5 4 
4 12 4 10 11 4 4 12 4 7 7 4 1 7 4 4 8 4 4 10 4 4 12 4 
10 11 4 4 9 6 4 9 6 4 12 4 4 9 6 15 7 5 1 12 4 1 9 6 
10 18 5 10 18 10 10 10 6 1 11 6 10 18 10 10 18 10 7 10 8 7 10 8 
1 11 6 2 15 5 1 8 8 4 12 4 4 9 6 1 11 6 1 19 10 1 8 8 
6 8 10 1 13 6 1 16 14 10 18 10 10 18 10 7 10 8 1 13 6 5 19 6 
5 19 10 1 19 10 1 11 6 5 19 10 1 19 10 5 19 10 1 20 14 1 16 14 
8 18 14 1 16 14 1 16 14 8 18 14 1 20 14 1 20 14 1 16 14 10 18 10 
7 27 20 8 18 17 1 19 17 1 19 17 1 19 17 7 27 20 7 18 20 7 27 24 
6 27 28 24 41 31 53 43 37 53 43 37 24 40 47 53 43 37 24 40 47 7 35 30 
6 27 28 6 27 33 7 35 30 7 41 43 7 41 43 24 40 47 7 41 43 7 34 46 
7 34 46 7 41 43 7 41 43 7 34 46 7 34 46 7 34 46 7 41 43 7 34 46 
7 48 75 7 48 75 7 48 75 7 56 82 7 59 103 7 75 102 7 75 102 7 59 103 
7 81 122 6 80 137 7 81 122 7 56 82 24 56 72 7 48 75 24 67 72 24 67 72 
24 67 72 24 56 72 24 56 72 24 67 72 7 72 82 7 56 82 24 56 81 24 68 95 
24 68 95 24 68 95 24 68 95 40 64 95 24 68 95 24 95 100 7 75 102 24 68 95 
24 68 95 7 75 102 7 75 102 7 75 102 24 95 100 7 96 112 24 95 100 7 75 102 
24 95 100 29 95 109 24 95 100 24 95 100 7 96 112 29 95 109 24 95 100 24 95 100 
24 95 100 24 95 100 24 95 100 24 95 100 7 75 102 29 95 109 7 75 102 7 75 102 
7 75 102 7 75 102 7 81 122 27 76 117 7 75 102 7 75 102 7 75 102 24 68 95 
24 68 95 24 95 100 7 75 102 7 75 102 24 68 95 24 68 95 7 75 102 24 68 95 

6 201 200 7 145 184 7 145 184 6 120 170 6 89 150 7 73 121 6 33 96 7 27 52 
4 8 47 6 8 10 1 8 8 1 7 4 5 9 2 4 8 4 1 7 4 2 10 2 
1 4 4 10 11 4 4 12 4 1 13 6 2 15 5 4 8 4 4 12 4 4 8 4 
2 15 5 4 8 4 4 9 6 2 15 5 1 11 6 1 11 6 10 18 5 4 9 6 
10 18 5 4 12 4 10 10 6 4 9 6 4 12 4 4 9 6 4 9 6 4 10 4 
1 9 4 4 12 4 1 9 6 2 15 5 4 9 6 10 11 4 10 11 4 4 12 4 
7 10 8 2 15 5 4 12 4 1 9 4 10 10 6 11 7 4 4 9 6 4 12 4 
1 12 4 0 9 4 4 10 4 11 7 4 1 9 6 5 19 6 1 12 4 10 11 4 
4 9 6 4 12 4 7 7 4 4 9 6 4 10 4 4 12 4 10 11 4 4 8 4 
10 11 4 7 7 4 10 11 4 1 9 6 10 11 4 4 9 6 10 10 6 4 10 4 
4 8 4 4 8 4 2 6 3 5 9 2 10 11 4 7 10 8 4 12 4 4 9 6 
4 8 4 4 10 4 4 9 6 10 11 4 4 12 4 4 9 6 10 18 5 7 7 4 
7 10 8 1 13 6 5 19 6 7 10 8 1 9 6 2 15 5 10 10 6 10 18 10 
1 13 6 1 13 6 7 10 8 5 19 6 6 8 10 5 19 10 1 13 6 5 19 6 
1 8 8 1 19 10 5 19 10 1 19 10 10 18 10 1 13 6 1 13 6 5 19 10 
10 18 10 1 8 8 1 11 6 2 15 5 1 16 14 10 18 10 5 19 10 10 18 10 
5 19 10 1 20 14 1 16 14 1 16 14 1 16 14 1 19 17 1 20 14 1 20 14 
1 19 17 7 18 20 7 18 20 7 18 20 7 27 20 7 27 20 7 27 24 6 27 28 
24 41 31 24 40 47 24 40 47 24 40 47 24 41 31 23 24 27 6 27 33 7 35 30 
6 27 28 6 27 33 7 35 30 7 34 46 7 41 43 7 34 46 7 41 43 7 34 46 
7 41 43 24 40 47 6 27 33 6 27 33 7 34 46 7 41 43 7 41 43 7 45 53 
7 48 75 7 56 82 7 48 75 7 56 82 7 75 102 7 75 102 7 75 102 7 75 102 
7 75 102 7 59 103 7 75 102 7 56 82 7 41 60 24 56 55 7 48 75 24 56 72 
24 56 72 24 56 72 24 56 72 24 67 72 7 56 82 7 72 82 7 72 82 7 72 82 
7 72 82 7 72 82 24 68 95 24 68 95 24 68 95 7 75 102 24 68 95 24 68 95 
7 75 102 7 75 102 24 68 95 24 95 100 24 95 100 24 95 100 24 95 100 24 68 95 
7 75 102 7 75 102 24 95 100 24 68 95 7 75 102 7 75 102 7 75 102 24 95 100 
24 95 100 7 75 102 7 75 102 24 68 95 24 95 100 24 95 100 27 76 117 7 75 102 
7 81 122 29 95 109 29 95 109 7 113 119 7 96 112 7 96 112 7 75 102 40 64 95 
24 68 95 7 75 102 24 68 95 24 68 95 24 68 95 24 95 100 24 95 100 24 95 100 

93 161 196 93 161 196 43 185 193 6 201 200 7 145 184 7 145 184 6 120 170 6 89 150 
7 52 116 6 33 96 6 34 60 4 8 47 1 16 14 1 8 8 1 9 6 1 6 4 
4 10 4 1 7 4 2 6 3 0 6 3 1 4 4 7 10 8 15 7 5 1 9 4 
4 12 4 4 9 6 1 13 6 5 19 6 1 11 6 4 9 6 4 8 4 0 9 4 
4 8 4 4 8 4 10 18 5 4 9 6 4 9 6 4 12 4 10 18 5 4 12 4 
4 10 4 2 15 5 1 13 6 10 11 4 4 9 6 10 11 4 2 15 5 4 9 6 
7 7 4 4 9 6 2 15 5 1 9 6 2 15 5 1 11 6 2 15 5 15 7 5 
1 9 6 4 9 6 4 8 4 1 7 4 15 7 5 1 7 4 7 7 4 4 10 4 
4 8 4 7 10 8 10 18 5 1 4 6 1 9 4 4 9 6 4 10 4 7 7 4 
1 7 4 4 12 4 4 9 6 2 15 5 4 10 4 7 10 8 4 12 4 10 11 4 
2 15 5 4 5 4 4 8 4 7 7 4 4 12 4 1 8 8 4 9 6 4 12 4 
4 10 4 2 15 5 4 12 4 1 9 4 1 11 6 2 15 5 4 9 6 4 12 4 
4 9 6 4 12 4 10 10 6 7 10 8 10 11 4 7 10 8 1 13 6 15 7 5 
1 11 6 1 8 8 1 13 6 1 8 8 1 16 14 1 8 8 1 11 6 10 18 10 
5 19 10 1 13 6 1 8 8 1 19 10 1 13 6 1 13 6 2 15 5 5 19 6 
1 16 14 1 19 10 10 18 10 1 16 14 1 19 10 5 19 10 1 19 10 1 19 10 
1 16 14 6 27 12 1 16 14 1 16 14 8 18 17 8 18 17 8 18 17 1 19 17 
7 27 20 7 27 20 7 18 20 7 27 20 7 27 24 6 27 28 7 35 30 24 41 31 
24 40 47 24 41 31 24 41 31 24 41 31 6 27 33 6 27 33 7 35 30 7 35 30 
7 35 30 6 27 33 24 41 31 7 35 30 6 27 33 7 35 30 6 27 33 7 41 43 
7 34 46 7 41 43 6 27 33 6 27 33 6 27 33 7 34 46 7 34 46 7 45 53 
7 48 75 7 48 75 7 48 75 7 56 82 7 59 103 7 59 103 7 59 103 7 75 102 
7 75 102 7 75 102 7 75 102 7 56 82 7 41 60 24 56 55 7 41 60 24 56 72 
24 56 72 24 56 72 24 56 72 7 56 82 24 56 72 7 56 82 24 56 81 24 56 81 
7 56 82 24 67 72 7 72 82 24 68 95 7 56 82 7 72 82 24 68 95 24 68 95 
7 75 102 24 68 95 7 75 102 7 75 102 7 75 102 24 68 95 7 75 102 24 68 95 
7 75 102 7 75 102 7 75 102 24 68 95 24 68 95 24 68 95 7 75 102 7 75 102 
24 68 95 24 68 95 24 68 95 24 68 95 24 68 95 7 75 102 7 96 112 29 95 109 
7 96 112 42 120 116 7 113 119 7 113 119 7 96 112 7 96 112 7 75 102 24 68 95 
24 68 95 54 92 81 7 75 102 24 95 100 24 68 95 24 95 100 24 95 100 24 95 100 

93 161 196 93 161 196 93 161 196 93 161 196 93 191 199 42 156 192 6 201 200 7 145 184 
7 145 184 6 120 170 6 89 150 7 73 121 6 33 96 7 27 52 7 18 45 6 8 10 
1 8 8 1 4 6 0 11 2 0 4 3 1 7 4 1 9 4 10 18 5 1 7 4 
4 8 4 4 8 4 1 12 4 2 6 3 1 4 4 1 7 4 1 7 4 1 7 4 
4 10 4 4 12 4 1 13 6 10 11 4 1 11 6 1 11 6 1 9 6 5 9 2 
1 12 4 1 7 4 10 11 4 1 11 6 2 15 5 1 9 4 1 12 4 1 11 6 
4 10 4 1 9 6 10 18 5 7 10 8 5 19 6 4 12 4 10 11 4 4 10 4 
7 10 8 10 10 6 10 18 5 4 10 4 4 12 4 10 18 5 10 10 6 10 11 4 
4 8 4 4 9 6 1 11 6 5 19 6 5 19 6 1 9 6 2 15 5 1 7 4 
4 8 4 5 9 2 1 7 4 1 7 4 10 11 4 10 11 4 5 19 6 4 12 4 
1 7 4 4 10 4 10 18 5 4 5 4 4 10 4 2 15 5 1 11 6 1 12 4 
5 9 2 1 9 4 1 4 6 4 12 4 4 10 4 1 13 6 10 11 4 1 9 6 
10 10 6 7 10 8 4 9 6 1 11 6 1 11 6 1 8 8 7 10 8 10 11 4 
4 9 6 2 15 5 2 19 6 2 15 5 1 13 6 1 13 6 5 19 10 5 19 10 
1 13 6 1 8 8 1 13 6 1 13 6 1 11 6 1 13 6 7 10 8 1 13 6 
1 16 14 1 19 10 2 15 5 1 19 10 10 18 10 5 19 10 6 27 12 1 16 14 
5 19 10 8 18 17 1 16 14 1 16 14 7 18 20 1 16 14 1 19 17 23 24 27 
7 27 20 7 18 20 7 27 24 7 27 24 7 35 30 7 35 30 24 41 31 24 41 31 
24 41 31 24 41 31 6 27 33 6 27 33 7 35 30 7 35 30 7 35 30 7 35 30 
7 35 30 6 27 33 6 27 33 6 27 33 6 27 33 7 35 30 7 35 30 7 35 30 
7 34 46 7 41 43 7 34 46 6 27 33 6 27 33 7 34 46 7 41 43 7 41 60 
7 72 82 7 56 82 7 56 82 7 56 82 7 59 103 7 59 103 7 59 103 7 59 103 
7 59 103 7 72 82 7 56 82 7 48 75 7 41 60 24 56 55 24 56 55 24 56 72 
7 41 60 7 48 75 24 56 72 7 48 75 24 56 72 24 56 72 24 67 72 24 67 72 
24 67 72 24 56 81 7 56 82 24 56 81 7 56 82 24 67 72 24 67 72 7 72 82 
24 68 95 24 68 95 24 68 95 7 75 102 7 75 102 7 75 102 24 68 95 7 75 102 
7 75 102 7 75 102 24 68 95 7 75 102 24 68 95 24 68 95 7 75 102 24 68 95 
24 68 95 24 68 95 24 68 95 7 75 102 7 75 102 24 95 100 7 96 112 7 113 119 
29 95 109 7 99 141 7 99 141 7 96 112 7 96 112 7 96 112 7 75 102 24 68 95 
24 68 95 7 72 82 7 72 82 24 68 95 54 83 99 29 95 109 29 95 109 59 95 109 

156 159 166 156 195 167 189 174 177 197 198 212 156 186 216 128 189 216 93 161 196 93 161 196 
43 185 193 6 201 200 7 145 184 7 145 184 6 120 170 6 89 150 7 73 121 7 48 95 
7 29 75 4 8 47 1 16 14 1 4 6 2 6 3 2 10 2 0 4 3 2 6 3 
0 11 2 4 8 4 1 6 4 1 7 4 0 9 4 1 7 4 4 10 4 1 7 4 
1 6 4 1 9 4 4 10 4 4 8 4 0 9 4 1 9 6 10 10 6 4 12 4 
1 9 4 4 12 4 1 9 4 10 11 4 10 11 4 1 9 6 4 8 4 1 13 6 
1 11 6 1 9 6 4 9 6 4 10 4 4 10 4 4 10 4 1 7 4 25 6 4 
7 10 8 4 12 4 15 7 5 10 18 5 4 10 4 1 6 4 4 12 4 4 10 4 
1 9 4 1 11 6 1 9 6 10 10 6 1 9 4 7 10 8 4 10 4 1 9 4 
4 8 4 4 8 4 7 7 4 4 10 4 1 7 4 1 9 6 10 18 5 4 12 4 
7 7 4 1 7 4 1 7 4 4 8 4 1 4 4 4 9 6 10 11 4 10 11 4 
7 7 4 1 9 4 1 9 6 1 9 6 1 9 4 1 9 4 1 9 6 4 9 6 
4 9 6 10 18 5 2 15 5 1 13 6 1 9 6 1 13 6 7 10 8 4 12 4 
7 10 8 1 11 6 2 19 6 1 13 6 2 15 5 1 11 6 1 19 10 1 19 10 
1 19 10 1 13 6 1 19 10 1 13 6 2 15 5 4 12 4 5 19 6 1 19 10 
1 16 14 1 16 14 1 19 10 1 19 10 1 19 10 1 16 14 8 18 14 1 16 14 
1 16 14 8 18 17 8 18 14 1 19 17 7 18 20 7 27 20 7 18 20 7 27 20 
7 27 20 7 27 24 7 27 24 7 35 30 53 43 37 53 43 37 24 41 31 24 41 31 
23 24 27 6 27 28 6 27 28 6 27 33 24 41 31 24 41 31 7 35 30 7 35 30 
7 35 30 7 35 30 6 27 33 6 27 33 24 41 31 6 27 33 7 35 30 6 27 33 
6 27 33 6 27 33 7 35 30 6 27 33 6 27 33 7 34 46 7 45 53 7 56 82 
7 75 102 7 59 103 7 56 82 7 48 75 7 56 82 7 48 95 7 48 95 7 59 103 
7 56 82 7 48 75 7 41 60 7 41 60 24 56 55 7 45 53 24 56 55 7 45 53 
7 41 60 7 41 60 7 41 60 24 56 55 24 56 72 24 56 72 24 56 72 24 56 72 
24 56 72 7 72 82 7 72 82 24 56 81 24 68 95 24 68 95 24 56 81 24 56 81 
7 56 82 24 68 95 7 72 82 7 72 82 24 68 95 40 64 95 7 75 102 24 68 95 
7 72 82 7 72 82 7 72 82 7 75 102 24 68 95 24 68 95 24 68 95 24 68 95 
7 75 102 24 68 95 24 68 95 24 68 95 7 72 82 24 95 100 7 96 112 7 96 112 
23 120 116 7 96 112 7 113 119 7 96 112 7 96 112 7 75 102 7 75 102 7 72 82 
24 56 81 24 67 72 7 72 82 24 68 95 24 95 100 54 83 99 54 83 99 59 95 109 

42 156 192 42 156 192 128 159 167 189 174 177 197 198 212 197 198 212 128 159 167 93 161 196 
93 161 196 128 189 216 93 191 199 43 185 193 6 201 200 6 201 200 7 145 184 6 120 170 
6 95 166 6 52 136 6 33 96 4 8 47 4 8 47 1 16 14 1 8 8 1 12 4 
0 4 3 2 6 2 0 6 3 1 7 4 0 4 3 0 9 4 15 7 5 4 12 4 
5 9 2 1 11 6 4 12 4 1 11 6 4 12 4 1 13 6 2 15 5 1 11 6 
2 15 5 1 9 4 1 12 4 1 12 4 1 12 4 1 13 6 1 7 4 1 12 4 
1 7 4 1 13 6 1 9 6 1 7 4 1 9 4 1 7 4 1 9 6 1 11 6 
1 6 4 10 11 4 1 4 6 7 7 4 15 7 5 1 7 4 4 9 6 10 11 4 
4 10 4 4 8 4 1 11 6 4 12 4 1 7 4 7 7 4 4 12 4 4 9 6 
4 12 4 4 12 4 4 9 6 4 12 4 1 4 4 4 12 4 10 11 4 4 8 4 
1 6 4 25 6 4 4 12 4 1 7 4 4 8 4 4 12 4 1 9 6 4 5 4 
10 11 4 1 12 4 4 12 4 24 23 9 1 7 4 1 13 6 4 9 6 4 9 6 
1 11 6 1 8 8 10 18 5 4 12 4 5 19 6 5 19 6 10 18 5 1 13 6 
10 11 4 1 13 6 1 8 8 1 13 6 7 10 8 5 19 6 1 11 6 1 13 6 
1 13 6 1 13 6 1 19 10 5 19 6 1 8 8 1 11 6 1 8 8 1 16 14 
1 16 14 1 16 14 1 16 14 1 19 10 1 16 14 1 16 14 1 16 14 5 19 10 
8 18 14 1 20 14 1 20 14 1 19 17 7 18 20 7 27 20 1 19 17 1 19 17 
7 27 24 7 35 30 24 41 31 24 41 31 24 41 31 24 41 31 24 41 31 6 27 28 
6 27 28 7 27 24 6 27 28 7 35 30 7 35 30 7 35 30 6 27 28 6 27 28 
6 27 28 6 27 28 6 27 28 7 35 30 6 27 33 6 27 33 7 35 30 6 27 28 
6 27 28 23 24 27 6 27 33 6 27 33 7 41 43 7 45 53 7 48 75 7 72 82 
7 75 102 7 75 102 7 59 103 7 56 82 7 48 75 7 56 82 7 48 75 7 56 82 
7 48 75 7 41 60 7 45 53 7 45 53 7 45 53 24 40 47 6 34 60 7 41 60 
24 56 55 7 41 60 7 45 53 7 45 53 7 41 60 7 41 60 24 56 72 24 56 72 
24 67 72 24 67 72 24 67 72 24 67 72 24 95 100 24 95 100 7 72 82 7 56 82 
24 67 72 7 72 82 24 67 72 7 72 82 24 68 95 24 68 95 24 68 95 24 68 95 
7 56 82 24 67 72 24 56 81 24 68 95 7 72 82 24 68 95 7 72 82 24 68 95 
24 68 95 24 68 95 24 68 95 24 56 81 24 68 95 24 95 100 7 96 112 29 95 109 
7 96 112 7 96 112 7 96 112 7 113 119 29 95 109 7 75 102 7 75 102 24 68 95 
24 56 81 7 72 82 7 72 82 24 68 95 24 68 95 54 83 99 29 95 109 59 95 109 

42 156 192 7 145 184 7 145 184 93 161 196 156 159 166 156 159 166 156 159 166 93 161 196 
42 156 192 128 189 167 156 195 167 156 186 216 128 189 216 93 191 199 43 185 193 43 185 193 
6 201 200 7 145 184 7 145 184 6 95 166 7 73 121 6 33 96 4 8 47 4 8 47 
6 8 10 1 8 8 1 7 4 0 4 3 0 6 1 0 6 1 2 10 2 1 7 4 
0 9 4 1 7 4 1 9 4 1 7 4 0 6 3 1 12 4 1 7 4 0 9 4 
1 7 4 4 8 4 4 12 4 1 9 4 4 12 4 1 7 4 1 11 6 4 9 6 
1 11 6 1 11 6 4 12 4 4 10 4 1 7 4 1 9 6 4 10 4 5 19 6 
4 9 6 7 7 4 1 11 6 1 9 4 1 11 6 4 12 4 4 9 6 0 9 4 
1 7 4 10 11 4 1 9 6 1 11 6 5 19 6 4 5 4 2 15 5 4 12 4 
4 12 4 4 12 4 4 9 6 4 10 4 0 9 4 1 9 6 4 9 6 2 15 5 
2 6 3 1 7 4 4 12 4 1 4 4 1 9 4 4 10 4 1 7 4 4 12 4 
1 7 4 4 10 4 1 9 6 5 19 6 7 10 8 7 10 8 1 9 6 1 9 6 
4 9 6 10 18 5 15 7 5 1 11 6 1 11 6 1 11 6 1 9 6 10 10 6 
10 18 5 7 10 8 1 13 6 1 13 6 7 10 8 7 10 8 2 15 5 10 18 10 
1 13 6 1 13 6 2 15 5 7 10 8 2 15 5 1 13 6 2 15 5 1 16 14 
1 16 14 1 16 14 1 16 14 1 20 14 1 16 14 1 16 14 8 18 14 8 18 14 
1 16 14 1 20 14 1 16 14 1 16 14 1 19 17 1 19 17 6 27 28 7 27 24 
7 27 24 24 41 31 24 41 31 23 24 27 7 35 30 6 27 28 6 27 28 7 27 24 
1 19 17 7 27 20 1 19 17 6 27 28 7 27 24 7 27 24 6 27 28 6 27 28 
6 27 28 7 35 30 24 41 31 6 27 33 6 27 33 6 27 33 6 27 33 6 27 33 
6 27 28 7 35 30 7 41 43 7 41 43 7 45 53 7 45 53 24 67 72 7 72 82 
7 75 102 7 75 102 7 56 82 7 48 75 7 48 75 7 48 75 7 48 75 7 48 75 
6 34 60 7 34 46 7 41 43 7 41 43 24 40 47 7 45 53 7 45 53 7 41 60 
24 56 55 7 45 53 7 45 53 7 41 60 7 45 53 7 41 60 24 56 55 24 56 72 
24 56 72 24 56 72 24 67 72 7 72 82 7 72 82 7 72 82 7 48 75 7 48 75 
7 48 75 7 56 82 24 56 81 24 67 72 24 67 72 24 56 81 7 56 82 24 68 95 
24 68 95 24 67 72 24 67 72 24 56 81 24 56 81 24 67 72 24 56 81 24 67 72 
24 56 81 24 56 81 24 68 95 24 68 95 7 72 82 7 75 102 7 96 112 7 96 112 
29 95 109 29 95 109 7 81 122 7 96 112 24 95 100 7 75 102 7 72 82 7 56 82 
24 56 81 24 56 81 7 56 82 24 67 72 24 68 95 24 68 95 24 95 100 54 83 99 

94 154 160 128 159 167 94 154 160 94 154 160 42 156 192 7 145 184 93 161 196 128 159 167 
128 159 167 93 161 196 93 161 196 128 159 167 128 189 167 156 186 216 128 189 216 93 161 196 
93 191 199 43 185 193 43 185 193 6 201 200 7 145 184 6 120 170 6 95 166 7 73 121 
6 33 96 4 8 47 7 18 20 1 8 8 1 4 6 0 6 3 0 4 3 2 6 2 
2 4 2 0 6 1 0 9 4 1 12 4 4 8 4 1 9 4 0 9 4 1 12 4 
1 12 4 1 7 4 4 12 4 1 6 4 1 7 4 1 7 4 1 8 8 1 8 8 
1 4 6 25 6 4 4 5 4 2 15 5 7 7 4 10 11 4 4 12 4 1 11 6 
1 11 6 4 9 6 7 10 8 2 15 5 1 9 6 1 8 8 4 9 6 4 5 4 
10 11 4 25 6 4 2 15 5 1 7 4 1 9 6 1 9 6 1 13 6 4 9 6 
4 5 4 0 9 4 1 11 6 4 12 4 7 10 8 7 10 8 10 18 5 7 10 8 
4 10 4 4 8 4 1 7 4 1 12 4 4 8 4 1 7 4 1 7 4 2 15 5 
1 9 6 10 11 4 1 8 8 4 9 6 10 11 4 4 9 6 4 9 6 4 9 6 
4 12 4 7 7 4 1 13 6 1 13 6 1 13 6 4 9 6 1 11 6 4 12 4 
2 15 5 4 9 6 4 12 4 4 9 6 2 15 5 7 10 8 5 19 10 5 19 10 
7 10 8 1 11 6 5 19 6 1 8 8 1 11 6 1 13 6 1 19 10 1 19 10 
5 19 10 1 19 10 5 19 10 1 16 14 1 16 14 1 16 14 1 16 14 1 16 14 
1 19 17 8 18 17 7 18 20 7 18 20 7 27 24 7 27 24 6 27 33 24 41 31 
7 35 30 6 27 28 6 27 28 7 27 24 6 27 28 6 27 28 7 27 20 7 27 20 
7 27 20 7 27 24 1 19 17 7 27 20 7 27 24 7 27 24 7 27 24 6 27 28 
6 27 28 6 27 33 6 27 33 6 27 33 6 27 33 6 27 33 7 35 30 6 27 33 
6 27 28 7 35 30 7 41 43 7 41 43 7 45 53 24 56 55 24 56 55 7 56 82 
7 56 82 7 56 82 7 48 75 7 48 75 7 48 75 7 48 75 7 48 75 7 45 53 
7 34 46 7 41 43 7 41 43 24 40 47 7 45 53 7 45 53 7 45 53 24 40 47 
7 45 53 7 45 53 7 45 53 7 45 53 7 45 53 24 56 55 7 41 60 7 41 60 
24 56 72 24 67 72 24 67 72 7 72 82 7 72 82 24 67 72 7 48 75 24 56 72 
24 56 72 7 48 75 24 56 72 24 56 72 7 48 75 24 67 72 24 56 81 24 56 81 
24 67 72 24 67 72 24 67 72 24 67 72 7 56 82 24 67 72 24 67 72 24 56 81 
24 56 81 7 56 82 7 56 82 7 56 82 24 68 95 24 68 95 7 75 102 7 96 112 
7 81 122 29 95 109 29 95 109 24 68 95 24 68 95 7 72 82 7 56 82 7 56 82 
24 56 72 24 56 72 7 56 82 24 67 72 54 63 80 24 68 95 24 95 100 24 95 100 

56 162 154 56 162 154 94 154 160 128 159 167 128 159 167 128 159 167 94 154 160 93 161 196 
93 161 196 42 156 192 93 161 196 156 195 167 189 174 177 128 159 167 93 161 196 93 161 196 
43 185 193 93 161 196 93 191 199 93 191 199 93 191 199 6 201 200 6 201 200 7 145 184 
6 120 170 6 95 166 7 52 116 7 29 75 4 8 47 7 18 20 1 8 8 0 4 3 
0 5 1 0 6 3 0 4 3 1 7 4 1 7 4 1 12 4 0 9 4 0 4 3 
2 10 2 4 8 4 1 7 4 2 10 2 4 8 4 1 11 6 1 11 6 1 8 8 
1 7 4 1 12 4 1 9 6 4 9 6 10 18 5 1 13 6 10 11 4 2 15 5 
4 12 4 2 15 5 7 10 8 4 12 4 7 10 8 1 11 6 1 11 6 1 7 4 
4 9 6 1 11 6 1 11 6 4 9 6 4 12 4 1 9 4 1 12 4 1 9 6 
1 12 4 1 7 4 4 12 4 1 9 6 1 11 6 1 11 6 1 9 6 1 11 6 
1 7 4 1 12 4 4 5 4 1 4 4 10 11 4 4 12 4 1 11 6 1 12 4 
1 7 4 10 11 4 4 9 6 1 7 4 1 11 6 1 11 6 2 15 5 4 9 6 
1 9 4 1 7 4 2 15 5 2 15 5 7 10 8 10 18 5 2 15 5 4 12 4 
2 15 5 1 13 6 10 10 6 1 13 6 10 10 6 1 8 8 1 8 8 1 19 10 
1 8 8 1 8 8 1 13 6 1 16 14 1 19 10 10 18 10 1 11 6 1 8 8 
10 18 10 10 18 10 1 16 14 1 16 14 1 16 14 1 19 17 8 18 17 1 19 17 
7 27 20 7 27 20 23 24 27 6 27 28 6 27 28 24 41 31 24 41 31 24 41 31 
7 35 30 6 27 28 6 27 28 7 27 24 7 27 24 7 27 24 1 19 17 1 19 17 
1 19 17 7 27 24 7 27 20 7 27 20 7 27 20 7 27 20 7 27 24 6 27 28 
6 27 28 7 35 30 23 24 27 6 27 33 6 27 28 6 27 28 6 27 28 6 27 28 
6 27 28 7 35 30 7 41 43 7 41 43 7 34 46 7 41 43 7 45 53 7 45 53 
7 45 53 7 45 53 7 45 53 7 41 60 7 45 53 7 41 60 7 45 53 7 34 46 
7 34 46 7 34 46 7 41 43 7 34 46 7 45 53 7 45 53 24 56 55 7 34 46 
7 45 53 24 40 47 7 45 53 7 45 53 7 45 53 7 45 53 7 41 60 24 56 55 
7 48 75 7 72 82 24 67 72 24 67 72 7 72 82 24 56 72 24 56 72 7 48 75 
7 48 75 7 48 75 24 56 72 24 56 72 24 56 72 24 56 72 24 56 72 24 56 72 
24 56 72 24 67 72 24 56 72 24 56 72 24 56 72 24 56 72 24 67 72 7 56 82 
24 56 72 7 56 82 24 67 72 7 56 82 24 56 81 7 72 82 7 72 82 7 75 102 
7 75 102 24 95 100 24 95 100 7 75 102 24 68 95 24 56 81 24 56 72 24 56 72 
7 48 75 7 41 60 7 41 60 24 56 72 24 67 72 24 67 72 40 64 95 24 68 95 

128 189 167 94 154 160 56 162 154 56 162 154 94 154 160 56 162 154 56 162 154 94 154 160 
156 195 167 128 159 167 128 159 167 42 156 192 42 156 192 93 161 196 128 159 167 93 161 196 
93 161 196 93 161 196 128 159 167 156 186 216 156 186 216 128 189 216 93 191 199 43 185 193 
6 201 200 6 201 200 7 145 184 6 120 170 3 89 142 7 59 103 7 29 75 4 8 47 
6 8 10 1 4 6 0 4 3 0 6 3 2 10 2 0 9 4 0 6 1 0 6 1 
2 6 2 1 7 4 2 10 2 1 7 4 4 8 4 1 12 4 1 9 4 1 9 4 
4 8 4 1 9 4 4 9 6 1 11 6 4 12 4 4 9 6 1 7 4 1 7 4 
7 7 4 4 5 4 4 10 4 10 11 4 4 12 4 1 9 6 4 12 4 1 7 4 
2 15 5 4 8 4 5 19 6 4 8 4 10 10 6 1 9 4 1 4 4 1 9 6 
1 11 6 1 9 4 10 9 2 24 23 9 1 9 4 4 9 6 10 11 4 10 11 4 
1 7 4 1 6 4 4 12 4 4 9 6 1 8 8 1 9 6 1 7 4 0 4 3 
4 8 4 1 11 6 4 9 6 1 7 4 4 9 6 10 18 5 4 9 6 4 9 6 
4 12 4 4 10 4 7 7 4 1 8 8 2 15 5 1 13 6 1 9 6 4 12 4 
4 9 6 4 9 6 5 19 6 2 15 5 7 10 8 7 10 8 1 19 10 1 16 14 
1 13 6 1 11 6 1 19 10 5 19 10 8 18 14 5 19 10 5 19 10 1 11 6 
5 19 10 8 18 14 1 16 14 1 20 14 1 16 14 1 20 14 7 27 20 7 27 24 
7 18 20 23 24 27 23 24 27 24 41 31 23 24 27 6 27 33 7 35 30 7 35 30 
6 27 28 7 27 24 7 27 24 7 27 24 7 27 24 7 27 20 7 27 20 7 18 20 
7 27 20 1 19 17 7 27 20 7 27 20 7 18 20 7 27 20 6 27 28 6 27 28 
6 27 28 6 27 28 6 27 28 6 27 28 6 27 28 6 27 28 6 27 28 6 27 28 
6 27 28 6 27 33 7 41 43 7 41 43 7 41 43 7 41 43 7 34 46 7 41 43 
7 34 46 7 34 46 24 40 47 7 34 46 7 34 46 7 34 46 7 34 46 7 34 46 
7 41 43 7 34 46 7 34 46 7 41 43 7 41 43 7 34 46 7 45 53 7 45 53 
7 34 46 7 34 46 7 34 46 7 45 53 7 45 53 7 45 53 7 45 53 7 45 53 
24 56 72 7 72 82 7 72 82 24 67 72 24 56 72 24 56 72 7 48 75 7 48 75 
7 48 75 7 48 75 24 56 55 24 56 72 24 56 72 24 56 72 24 56 72 24 56 72 
7 48 75 24 56 72 7 41 60 24 56 72 24 56 72 24 56 72 24 56 72 24 56 72 
7 48 75 7 48 75 7 48 75 7 48 75 7 56 82 7 56 82 7 48 75 7 56 82 
7 72 82 7 72 82 24 68 95 24 68 95 24 56 81 7 56 82 7 48 75 7 48 75 
24 56 55 7 41 60 24 56 55 24 56 72 7 48 75 7 41 60 24 56 72 24 67 72 

93 161 196 93 161 196 93 181 160 56 162 154 93 181 160 56 162 154 56 162 154 42 156 192 
42 156 192 7 145 184 42 156 192 128 159 167 94 154 160 7 145 184 7 145 184 7 145 184 
7 145 184 42 156 192 42 156 192 93 161 196 93 161 196 128 189 216 128 189 216 128 189 216 
93 191 199 93 191 199 43 185 193 6 201 200 7 145 184 7 145 184 6 120 170 6 80 137 
6 33 96 6 34 60 4 8 47 1 8 8 1 9 6 0 6 3 0 4 3 0 6 1 
0 5 1 0 6 1 0 6 3 2 10 2 1 12 4 1 6 4 4 5 4 1 12 4 
1 7 4 4 10 4 1 9 6 1 11 6 4 12 4 1 7 4 4 12 4 1 7 4 
1 9 4 4 8 4 1 7 4 1 9 4 0 9 4 4 8 4 2 6 3 1 6 4 
0 9 4 1 6 4 1 7 4 4 10 4 2 15 5 1 6 4 1 9 4 1 9 6 
2 15 5 4 12 4 1 7 4 4 12 4 1 13 6 1 4 4 4 10 4 1 7 4 
1 6 4 1 9 4 1 7 4 1 12 4 1 8 8 1 13 6 1 7 4 4 8 4 
1 9 6 1 11 6 1 9 6 1 7 4 4 12 4 1 11 6 4 9 6 1 9 4 
4 8 4 1 6 4 1 11 6 7 10 8 2 15 5 2 15 5 1 11 6 2 15 5 
2 15 5 4 9 6 4 9 6 7 10 8 10 18 5 1 11 6 10 18 10 1 13 6 
1 8 8 1 11 6 1 8 8 1 11 6 1 16 14 1 20 14 8 18 14 1 19 10 
8 18 14 1 16 14 1 20 14 8 18 17 7 18 20 1 19 17 7 27 24 7 27 24 
7 27 24 23 24 27 23 24 27 7 35 30 23 24 27 6 27 28 6 27 28 7 27 24 
1 19 17 7 27 20 7 27 24 7 27 24 7 27 20 7 18 20 7 18 20 1 19 17 
1 19 17 1 19 17 1 19 17 7 27 20 1 19 17 7 27 24 6 27 28 6 27 28 
7 18 20 7 27 24 7 27 24 7 18 20 6 27 28 6 27 28 6 27 28 6 27 28 
6 27 33 7 34 46 7 27 52 7 34 46 7 34 46 7 41 43 7 41 43 7 41 43 
6 27 33 7 41 43 7 34 46 7 34 46 6 27 33 6 27 33 6 27 33 24 41 31 
6 27 33 7 34 46 7 41 43 7 34 46 7 34 46 7 34 46 7 34 46 7 41 43 
7 41 43 7 34 46 7 41 43 7 45 53 7 41 43 7 41 43 7 41 43 7 45 53 
24 67 72 24 67 72 7 72 82 7 48 75 24 56 55 7 41 60 24 56 55 24 56 72 
7 41 60 7 41 60 7 41 60 24 56 72 24 56 72 24 56 72 7 48 75 24 67 72 
24 56 72 7 41 60 7 48 75 24 56 55 7 48 75 7 48 75 7 48 75 7 48 75 
7 48 75 24 56 72 7 48 75 7 56 82 7 48 75 7 48 75 7 48 75 7 56 82 
7 56 82 7 72 82 7 56 82 24 56 72 7 48 75 24 56 72 7 48 75 7 48 75 
7 41 60 24 56 55 7 45 53 7 41 60 7 41 60 7 41 60 7 41 60 24 56 55 

56 162 154 56 162 154 56 162 154 93 181 160 56 162 154 93 161 196 93 181 160 93 181 160 
43 185 193 42 156 192 42 156 192 42 156 192 42 156 192 56 162 154 56 162 154 42 156 192 
7 145 184 42 156 192 93 161 196 7 145 184 7 145 184 7 145 184 42 156 192 43 185 193 
93 161 196 93 161 196 93 191 199 93 191 199 93 191 199 43 185 193 6 201 200 7 145 184 
7 145 184 6 95 166 7 73 121 6 33 96 4 8 47 4 8 47 1 8 8 1 4 6 
1 7 4 0 6 1 1 3 2 0 4 3 0 6 3 1 7 4 1 9 4 0 4 3 
1 7 4 1 9 4 1 7 4 0 9 4 4 12 4 4 8 4 4 8 4 0 6 3 
4 8 4 10 11 4 1 9 4 1 9 4 1 7 4 1 7 4 4 8 4 4 10 4 
1 9 4 1 9 4 1 9 4 1 6 4 1 7 4 1 4 4 4 8 4 4 8 4 
1 9 4 1 9 4 1 4 4 1 12 4 1 9 4 1 7 4 1 12 4 1 7 4 
1 4 4 1 7 4 1 6 4 1 9 4 1 9 6 1 11 6 5 19 6 5 19 6 
4 12 4 4 12 4 2 15 5 1 9 6 4 10 4 1 7 4 4 10 4 4 12 4 
4 8 4 4 12 4 1 9 6 4 9 6 4 12 4 4 9 6 4 12 4 4 9 6 
4 12 4 7 10 8 1 9 6 4 12 4 1 11 6 5 19 6 1 8 8 4 12 4 
4 9 6 1 13 6 1 13 6 1 13 6 8 18 14 1 16 14 1 19 10 5 19 10 
1 16 14 5 19 10 1 16 14 1 20 14 1 19 17 7 27 20 7 27 24 7 27 24 
7 27 24 24 41 31 23 24 27 24 41 31 6 27 28 6 27 28 7 27 24 7 27 24 
7 27 20 1 19 17 1 19 17 7 27 24 1 19 17 7 27 20 1 19 17 1 16 14 
1 19 17 7 27 20 1 19 17 1 19 17 7 27 20 6 27 28 7 27 24 6 27 28 
7 18 20 7 27 24 7 27 24 7 18 20 7 27 24 7 27 24 7 27 24 6 27 28 
6 27 33 6 34 60 7 59 103 7 75 102 7 41 60 7 41 43 7 34 46 7 41 43 
7 41 43 7 34 46 6 27 33 6 27 33 6 27 33 7 35 30 6 27 33 6 27 33 
6 27 33 6 27 33 7 34 46 7 41 43 7 41 43 7 41 43 7 34 46 7 34 46 
7 34 46 7 41 43 7 34 46 7 45 53 7 41 43 7 41 43 7 34 46 7 45 53 
24 56 55 24 67 72 24 56 55 7 45 53 7 45 53 24 56 55 24 56 55 24 56 55 
7 41 60 24 56 55 24 56 72 24 56 72 24 56 72 24 56 72 24 56 55 24 56 55 
7 41 60 24 56 72 24 56 72 24 56 55 24 56 55 24 56 55 24 56 55 24 56 72 
24 56 72 7 48 75 7 48 75 7 48 75 24 56 72 7 56 82 7 56 82 24 56 72 
7 48 75 7 48 75 7 48 75 7 48 75 24 56 72 7 48 75 24 56 72 24 56 72 
7 41 60 24 40 47 7 45 53 7 41 60 7 45 53 7 45 53 7 45 53 7 45 53 

6 73 141 7 80 149 6 99 150 6 120 170 27 163 154 42 156 192 56 162 154 43 185 193 
93 181 160 93 191 199 43 185 193 43 185 193 43 185 193 42 156 192 42 156 192 42 156 192 
42 156 192 42 156 192 93 161 196 93 161 196 7 145 184 7 145 184 7 145 184 7 145 184 
42 156 192 93 161 196 93 161 196 93 191 199 93 161 196 128 189 216 93 191 199 43 185 193 
6 201 200 6 201 200 7 145 184 7 145 184 6 89 150 7 52 116 7 29 75 4 8 47 
7 18 20 1 8 8 0 4 3 0 11 2 0 6 3 1 7 4 1 7 4 0 5 1 
2 6 2 1 7 4 1 7 4 0 6 3 1 7 4 4 8 4 1 9 4 1 6 4 
4 8 4 4 10 4 1 7 4 0 9 4 4 5 4 1 7 4 24 23 9 1 9 6 
1 4 4 4 12 4 4 9 6 15 7 5 1 7 4 1 9 4 1 12 4 2 6 3 
1 9 4 4 9 6 1 7 4 1 7 4 0 9 4 1 4 4 4 10 4 1 7 4 
1 13 6 1 13 6 4 8 4 0 9 4 10 11 4 4 12 4 1 9 6 1 13 6 
1 7 4 1 9 4 4 10 4 1 7 4 1 7 4 0 4 3 4 10 4 4 9 6 
4 9 6 1 9 6 1 11 6 10 18 5 1 4 6 1 13 6 1 9 6 1 9 6 
2 15 5 1 8 8 1 13 6 1 8 8 1 13 6 1 11 6 2 15 5 1 11 6 
4 9 6 1 8 8 10 18 10 1 16 14 1 16 14 1 20 14 1 16 14 1 16 14 
10 18 10 1 19 17 8 18 17 24 23 9 8 18 17 23 24 27 7 27 24 7 27 20 
23 24 27 7 27 24 23 24 27 7 18 20 7 27 20 7 27 20 7 27 24 7 27 20 
7 18 20 7 18 20 1 19 17 7 27 20 7 18 20 1 19 17 1 19 17 1 16 14 
1 20 14 1 19 17 7 27 20 1 19 17 7 27 20 7 27 24 6 27 28 7 27 24 
7 27 20 1 19 17 7 27 24 6 27 28 6 27 28 7 27 24 7 27 24 6 27 28 
7 27 52 7 96 112 6 120 170 7 81 122 7 41 60 7 34 46 6 27 33 7 41 43 
7 41 43 6 27 33 23 24 27 6 27 33 7 35 30 7 35 30 6 27 33 6 27 33 
6 27 33 7 34 46 7 41 43 7 41 43 7 41 43 7 41 43 7 41 43 7 41 43 
7 41 43 7 41 43 7 41 43 7 34 46 7 34 46 24 40 47 7 45 53 7 45 53 
7 45 53 7 45 53 7 45 53 7 45 53 7 45 53 7 45 53 7 41 60 7 45 53 
24 56 55 7 41 60 24 56 72 7 48 75 24 56 72 7 41 60 24 56 55 24 56 55 
24 56 55 24 56 55 24 56 55 7 41 60 24 56 55 7 41 60 7 41 60 7 41 60 
24 56 55 7 45 53 7 45 53 7 48 75 7 48 75 24 56 81 24 56 81 24 67 72 
24 56 72 7 48 75 24 56 72 7 41 60 24 56 55 7 41 60 7 41 60 7 41 60 
7 45 53 24 40 47 7 45 53 7 45 53 7 45 53 7 34 46 7 34 46 7 34 46 

6 52 136 7 52 116 7 73 121 6 73 141 7 80 149 6 99 150 6 120 170 6 120 170 
7 145 184 56 162 154 42 156 192 42 156 192 43 185 193 43 185 193 43 185 193 43 185 193 
43 185 193 42 156 192 43 185 193 42 156 192 42 156 192 93 161 196 42 156 192 7 145 184 
7 145 184 7 145 184 7 145 184 42 156 192 42 156 192 93 161 196 93 191 199 93 191 199 
93 191 199 43 185 193 43 185 193 6 201 200 6 201 200 7 145 184 6 120 170 3 89 142 
7 48 95 7 29 75 4 8 47 1 8 8 1 8 8 1 7 4 0 6 3 0 4 3 
0 5 1 0 6 1 0 4 3 2 4 2 0 6 3 0 4 3 1 7 4 0 4 3 
0 9 4 1 6 4 1 13 6 1 9 4 0 11 2 1 9 4 10 11 4 1 11 6 
4 12 4 5 19 6 1 9 4 0 9 4 1 9 4 1 4 4 1 9 4 1 7 4 
2 6 3 2 10 2 1 6 4 1 9 4 1 9 4 1 12 4 0 9 4 1 11 6 
1 9 6 1 7 4 1 7 4 1 9 4 1 9 4 1 9 6 2 6 3 1 4 4 
0 9 4 1 9 4 1 9 4 1 6 4 1 7 4 4 10 4 1 7 4 1 7 4 
1 11 6 1 13 6 1 9 6 2 15 5 4 9 6 1 13 6 1 8 8 1 9 6 
2 15 5 1 19 10 1 13 6 1 13 6 1 16 14 5 19 6 5 19 10 1 19 10 
1 8 8 1 8 8 1 16 14 10 18 10 1 20 14 1 16 14 1 19 17 1 19 17 
8 18 17 7 27 20 8 18 17 1 19 17 7 27 24 24 41 31 7 27 24 7 27 20 
7 27 20 7 18 20 8 18 17 7 27 20 1 19 17 7 27 20 7 27 20 7 18 20 
8 18 17 1 19 17 1 19 17 8 18 17 8 18 17 23 24 27 1 20 14 1 16 14 
1 20 14 1 20 14 1 19 17 1 19 17 1 19 17 1 19 17 7 27 20 7 27 20 
1 19 17 1 19 17 1 19 17 7 27 24 6 27 28 6 27 28 6 27 28 7 34 46 
7 112 45 7 173 128 7 81 122 7 29 75 7 34 46 7 41 43 6 27 33 7 34 46 
6 27 33 6 27 33 6 27 33 6 27 33 6 27 33 6 27 33 7 35 30 7 35 30 
6 27 33 6 27 33 6 27 33 6 27 33 7 35 30 7 41 43 6 27 33 6 27 33 
7 34 46 6 27 33 7 34 46 7 41 43 7 34 46 24 40 47 24 40 47 7 41 43 
24 40 47 24 40 47 7 45 53 7 45 53 7 45 53 24 40 47 7 45 53 24 56 55 
7 45 53 24 56 55 24 67 72 24 56 55 7 41 60 7 41 60 7 41 60 7 41 60 
7 45 53 7 45 53 24 56 55 7 45 53 24 56 55 7 41 60 7 45 53 7 45 53 
7 45 53 7 45 53 7 45 53 7 41 60 7 48 75 24 56 72 24 56 72 7 48 75 
7 41 60 7 48 75 7 48 75 24 56 72 7 48 75 7 45 53 7 45 53 7 41 60 
24 40 47 7 45 53 7 45 53 7 45 53 7 45 53 24 56 55 7 45 53 7 41 43 

6 73 141 7 73 121 7 73 121 6 52 136 6 52 136 6 73 141 6 73 141 3 89 142 
6 89 150 6 95 166 6 120 170 7 145 184 7 145 184 7 145 184 42 156 192 43 185 193 
43 185 193 93 161 196 43 185 193 93 161 196 43 185 193 93 181 160 128 189 167 93 161 196 
93 161 196 42 156 192 7 145 184 7 145 184 7 145 184 7 145 184 6 201 200 43 185 193 
42 156 192 43 185 193 93 191 199 93 191 199 93 191 199 43 185 193 6 201 200 7 145 184 
7 145 184 6 120 170 7 73 121 6 33 96 7 27 52 7 18 20 1 8 8 1 6 4 
0 4 3 2 6 2 0 6 1 2 6 2 0 5 1 0 4 3 0 6 3 10 11 4 
0 6 1 2 6 3 1 7 4 1 7 4 0 6 3 0 4 3 0 4 3 0 6 3 
1 9 4 1 9 6 1 7 4 1 9 4 1 7 4 4 8 4 1 9 4 1 9 4 
2 10 2 2 6 3 1 7 4 0 9 4 1 12 4 1 11 6 4 12 4 4 10 4 
1 7 4 1 7 4 1 12 4 1 12 4 1 12 4 4 8 4 1 4 4 4 12 4 
1 4 4 11 7 4 1 13 6 1 9 6 1 13 6 1 11 6 1 7 4 4 8 4 
1 11 6 1 11 6 4 9 6 0 9 4 1 11 6 1 8 8 1 13 6 5 19 6 
4 9 6 10 18 10 1 13 6 1 16 14 1 16 14 7 10 8 5 19 10 5 19 10 
1 11 6 1 8 8 1 20 14 1 20 14 1 19 17 8 18 17 7 18 20 7 27 20 
7 27 20 1 19 17 7 18 20 7 18 20 7 27 24 53 43 37 7 35 30 7 27 20 
1 19 17 1 20 14 1 19 17 1 19 17 1 19 17 1 19 17 8 18 17 1 20 14 
1 19 17 1 16 14 1 20 14 1 19 17 1 16 14 7 27 20 1 20 14 1 16 14 
24 23 9 1 16 14 1 19 10 6 27 12 1 19 17 1 16 14 1 19 17 1 19 17 
1 19 17 7 18 20 1 19 17 1 19 17 1 19 17 6 27 28 6 27 28 24 56 55 
7 112 45 7 112 45 7 27 52 6 27 33 6 27 33 6 27 33 6 27 33 6 27 33 
6 27 33 6 27 33 6 27 33 6 27 28 6 27 33 6 27 28 6 27 33 6 27 33 
7 35 30 6 27 33 7 35 30 6 27 33 7 35 30 7 35 30 6 27 33 7 34 46 
6 27 33 6 27 33 7 41 43 7 34 46 24 40 47 7 41 43 7 41 43 7 41 43 
7 34 46 24 40 47 7 34 46 24 40 47 7 45 53 7 41 43 24 40 47 7 34 46 
24 40 47 24 56 55 24 56 55 24 56 55 24 56 55 24 56 55 7 41 60 7 45 53 
7 45 53 7 45 53 7 45 53 7 45 53 7 45 53 24 56 55 7 41 60 6 34 60 
7 45 53 7 41 60 7 45 53 7 41 60 7 45 53 24 56 55 7 41 60 7 41 60 
7 41 60 7 48 75 7 41 60 7 41 60 7 41 60 24 56 55 7 45 53 7 45 53 
6 34 60 7 45 53 7 45 53 7 45 53 7 45 53 24 40 47 7 45 53 24 40 47 

6 73 141 6 73 141 6 73 141 7 73 121 7 73 121 6 52 136 7 73 121 7 73 121 
6 52 136 6 52 136 6 52 136 6 80 137 7 113 146 27 163 154 27 163 154 42 156 192 
7 145 184 42 156 192 43 185 193 93 181 160 93 191 199 93 181 160 93 191 199 93 191 199 
128 189 167 128 189 167 93 181 160 93 161 196 42 156 192 7 145 184 7 145 184 93 161 196 
93 161 196 42 156 192 42 156 192 43 185 193 93 191 199 128 189 216 93 191 199 93 191 199 
43 185 193 6 201 200 7 145 184 7 145 184 6 89 150 7 52 116 7 29 75 4 8 47 
7 18 20 1 8 8 0 4 3 0 2 2 0 6 1 0 6 3 5 9 2 0 6 3 
2 6 3 1 7 4 0 6 3 0 4 3 0 4 3 1 7 4 2 6 3 2 6 3 
1 12 4 4 8 4 0 9 4 2 6 3 0 4 3 0 4 3 2 10 2 0 9 4 
0 4 3 1 7 4 1 7 4 1 7 4 1 7 4 1 9 4 1 9 4 1 7 4 
0 9 4 1 9 4 1 9 4 1 7 4 0 6 3 1 7 4 1 12 4 1 7 4 
0 9 4 1 11 6 7 10 8 1 9 6 1 11 6 1 9 6 1 9 6 1 12 4 
1 4 4 1 7 4 4 9 6 1 8 8 1 11 6 1 13 6 1 13 6 1 8 8 
1 8 8 15 7 5 7 10 8 5 19 10 1 16 14 1 20 14 1 20 14 1 16 14 
8 18 14 1 16 14 1 19 17 1 19 17 1 19 17 1 19 17 7 27 20 7 27 24 
7 27 24 23 24 27 23 24 27 23 24 27 7 27 24 23 24 27 7 27 24 7 18 20 
1 19 17 8 18 14 1 16 14 1 20 14 1 16 14 1 20 14 5 19 10 1 16 14 
1 20 14 6 8 10 1 16 14 1 19 17 1 20 14 1 19 17 1 16 14 1 16 14 
1 20 14 1 19 10 7 10 8 1 20 14 1 20 14 1 16 14 1 20 14 1 19 17 
1 19 17 1 19 17 1 19 17 1 19 17 7 27 24 6 27 28 6 27 28 7 35 30 
7 41 43 6 27 33 6 27 33 6 27 33 6 27 28 6 27 28 6 27 33 6 27 33 
6 27 28 6 27 28 7 35 30 6 27 28 6 27 28 6 27 28 6 27 33 6 27 33 
6 27 33 6 27 28 6 27 33 6 27 33 7 35 30 6 27 33 7 35 30 6 27 33 
24 41 31 7 35 30 7 35 30 7 41 43 6 27 33 7 41 43 7 41 43 7 41 43 
7 34 46 7 34 46 7 34 46 7 41 43 7 34 46 7 41 43 7 41 43 7 34 46 
7 34 46 7 41 43 7 45 53 7 45 53 6 34 60 7 45 53 7 45 53 7 45 53 
7 41 60 7 45 53 6 34 60 7 45 53 7 45 53 7 45 53 24 40 47 7 45 53 
7 45 53 7 45 53 7 45 53 7 41 60 7 45 53 6 34 60 7 41 60 7 41 60 
7 41 60 7 41 60 7 45 53 7 45 53 7 45 53 7 45 53 7 45 53 7 45 53 
7 45 53 7 45 53 7 45 53 7 45 53 7 45 53 7 41 43 7 41 43 7 34 46 

7 80 149 3 89 142 7 80 149 6 73 141 6 73 141 6 52 136 6 73 141 6 73 141 
6 73 141 7 73 121 7 73 121 7 52 116 7 52 116 6 52 136 6 73 141 7 113 146 
27 163 154 7 145 184 7 145 184 7 145 184 43 185 193 43 185 193 93 191 199 93 191 199 
93 191 199 93 191 199 93 191 199 128 189 167 128 189 167 128 189 167 42 156 192 7 145 184 
93 161 196 128 189 167 128 159 167 93 161 196 42 156 192 93 161 196 128 189 216 128 189 216 
128 189 216 93 191 199 43 185 193 6 201 200 6 201 200 7 145 184 6 120 170 6 80 137 
6 33 96 7 27 52 7 18 20 1 8 8 1 4 6 1 4 6 1 4 4 10 9 2 
0 6 3 5 9 2 0 9 4 2 4 2 4 8 4 2 6 3 2 10 2 2 6 3 
1 7 4 1 7 4 1 7 4 1 9 4 1 7 4 0 4 3 0 6 3 0 9 4 
4 12 4 2 15 5 1 7 4 1 9 4 1 9 4 0 9 4 0 9 4 1 6 4 
1 9 4 0 9 4 4 12 4 1 7 4 0 6 3 4 10 4 1 4 4 1 7 4 
4 8 4 1 6 4 1 13 6 1 9 6 7 7 4 1 9 6 2 15 5 1 9 4 
4 8 4 1 12 4 1 8 8 1 13 6 1 11 6 1 13 6 1 11 6 1 11 6 
1 8 8 1 11 6 1 16 14 10 18 10 1 8 8 5 19 10 1 16 14 8 18 17 
1 19 17 1 19 17 1 20 14 1 20 14 7 18 20 7 27 24 1 19 17 7 27 20 
7 27 24 7 27 24 7 27 20 7 27 20 7 18 20 1 19 17 1 16 14 1 19 17 
7 27 20 8 18 17 1 16 14 6 27 12 1 16 14 1 16 14 1 13 6 1 16 14 
1 16 14 1 16 14 1 16 14 1 16 14 1 20 14 24 23 9 1 16 14 1 16 14 
1 16 14 1 16 14 1 13 6 1 16 14 1 16 14 1 16 14 1 19 17 1 19 17 
1 19 17 6 27 28 6 27 33 7 18 20 7 27 24 6 27 28 6 27 28 6 27 28 
6 27 28 6 27 28 6 27 28 7 35 30 6 27 28 6 27 28 6 27 28 6 27 28 
6 27 28 6 27 28 7 27 24 6 27 28 6 27 28 6 27 28 6 27 28 7 35 30 
6 27 28 6 27 28 7 35 30 6 27 33 7 35 30 7 35 30 7 35 30 7 35 30 
7 35 30 6 27 33 7 35 30 7 34 46 7 41 43 6 27 33 7 41 43 7 35 30 
7 35 30 7 41 43 7 41 43 7 34 46 7 34 46 7 41 43 7 34 46 7 34 46 
7 34 46 7 34 46 24 40 47 7 41 43 24 40 47 7 41 43 7 41 43 7 45 53 
7 45 53 24 56 55 7 45 53 7 45 53 24 56 55 7 45 53 7 34 46 7 45 53 
7 45 53 7 45 53 7 41 60 7 41 60 7 45 53 24 56 55 7 41 60 7 41 60 
24 40 47 7 41 60 7 45 53 7 45 53 7 45 53 7 45 53 7 45 53 7 27 52 
7 45 53 7 45 53 7 45 53 7 45 53 7 41 43 7 34 46 7 34 46 7 41 43 

6 89 150 6 89 150 6 89 150 6 89 150 3 89 142 6 73 141 6 73 141 6 73 141 
6 73 141 6 52 136 6 80 137 6 73 141 7 73 121 7 52 116 7 52 116 6 52 136 
6 73 141 6 73 141 6 99 150 6 95 166 6 120 170 7 145 184 7 145 184 42 156 192 
43 185 193 93 181 160 93 191 199 93 191 199 93 191 199 128 189 167 93 191 199 93 181 160 
43 185 193 93 161 196 128 159 167 128 189 167 93 161 196 42 156 192 93 161 196 93 161 196 
93 161 196 93 161 196 128 189 216 128 189 216 93 191 199 43 185 193 6 201 200 6 201 200 
7 145 184 6 99 150 7 52 116 7 29 75 4 8 47 1 16 14 1 4 6 1 4 4 
0 4 3 1 7 4 0 6 1 0 5 1 2 4 2 0 6 3 1 7 4 1 4 4 
1 11 6 1 12 4 2 6 3 1 9 4 1 9 4 1 12 4 0 11 2 1 7 4 
4 10 4 10 11 4 1 9 4 1 9 4 1 6 4 1 4 4 1 9 4 1 9 4 
1 9 6 1 12 4 1 9 6 1 13 6 1 7 4 1 7 4 1 12 4 1 6 4 
4 10 4 4 8 4 1 9 4 2 15 5 1 6 4 1 9 6 1 9 6 1 9 6 
4 9 6 1 4 6 2 15 5 1 11 6 4 9 6 1 9 6 24 23 9 1 9 6 
1 8 8 1 11 6 6 8 10 1 19 10 1 8 8 1 16 14 1 19 17 1 19 17 
7 18 20 1 19 17 1 19 17 1 19 17 1 19 17 7 27 24 7 27 24 7 27 24 
7 27 24 7 27 20 1 19 17 24 23 9 8 18 17 5 19 10 1 20 14 8 18 14 
1 20 14 1 16 14 1 16 14 1 16 14 1 20 14 1 16 14 1 19 10 1 16 14 
10 18 10 1 20 14 1 16 14 1 19 10 10 18 10 24 23 9 1 20 14 1 19 10 
10 18 10 1 19 10 1 20 14 1 16 14 1 16 14 1 19 17 7 18 20 6 27 33 
7 34 46 7 45 53 7 45 53 6 27 33 6 27 28 7 27 24 6 27 28 6 27 28 
6 27 28 6 27 28 6 27 28 6 27 28 7 27 24 7 27 24 6 27 28 6 27 28 
6 27 28 6 27 28 6 27 28 6 27 28 7 27 24 7 27 24 6 27 28 6 27 28 
6 27 28 6 27 28 6 27 33 6 27 33 6 27 33 7 35 30 6 27 33 6 27 33 
6 27 33 7 35 30 6 27 33 7 41 43 7 34 46 7 41 43 6 27 33 24 41 31 
7 35 30 6 27 33 7 34 46 24 40 47 7 34 46 7 41 43 24 40 47 7 41 43 
7 34 46 24 40 47 24 40 47 7 34 46 7 34 46 24 40 47 7 34 46 7 41 43 
7 45 53 24 56 55 7 41 43 7 45 53 7 45 53 7 45 53 7 45 53 7 45 53 
7 41 60 7 45 53 7 45 53 7 45 53 7 45 53 7 45 53 7 45 53 7 45 53 
7 45 53 7 45 53 7 45 53 7 45 53 7 45 53 7 34 46 7 41 43 7 34 46 
7 45 53 7 41 43 7 34 46 7 41 43 7 41 43 7 45 53 7 45 53 7 34 46 

7 80 149 6 89 150 6 89 150 6 89 150 6 89 150 6 89 150 7 80 149 6 73 141 
6 73 141 6 73 141 6 73 141 6 73 141 6 80 137 6 80 137 6 73 141 6 73 141 
6 73 141 6 73 141 6 73 141 6 73 141 6 80 137 6 95 166 6 120 170 7 145 184 
7 145 184 7 145 184 42 156 192 43 185 193 93 191 199 128 189 167 128 189 167 128 189 167 
128 189 167 128 189 167 128 189 167 128 189 167 128 189 167 128 189 167 93 161 196 93 161 196 
42 156 192 42 156 192 93 161 196 128 189 216 128 189 216 128 189 216 128 189 216 93 191 199 
43 185 193 6 201 200 7 145 184 6 120 170 3 89 142 6 33 96 4 8 47 7 18 20 
1 8 8 0 4 3 0 6 1 0 3 1 1 3 2 0 4 3 0 4 3 1 4 4 
1 4 4 0 4 3 2 6 3 0 9 4 1 12 4 1 7 4 1 7 4 2 15 5 
2 15 5 1 6 4 1 7 4 0 4 3 1 7 4 0 4 3 10 18 5 1 12 4 
4 12 4 0 9 4 1 9 6 1 11 6 1 7 4 4 8 4 4 9 6 1 7 4 
1 9 4 1 4 4 2 15 5 0 9 4 1 9 6 1 13 6 1 11 6 1 11 6 
1 13 6 1 9 4 1 13 6 4 9 6 10 11 4 1 11 6 15 7 5 1 9 6 
1 11 6 1 19 10 1 19 10 1 16 14 24 23 9 8 18 17 7 27 20 6 27 28 
7 27 20 23 24 27 7 27 20 7 27 20 7 27 24 7 35 30 6 27 28 6 27 28 
23 24 27 1 19 17 1 16 14 8 18 14 1 16 14 5 19 10 1 20 14 5 19 10 
1 19 10 1 16 14 1 16 14 1 16 14 8 18 14 1 16 14 1 16 14 1 16 14 
1 16 14 1 16 14 1 16 14 24 23 9 8 18 14 8 18 14 1 16 14 1 13 6 
1 13 6 1 16 14 1 16 14 1 16 14 1 19 17 6 27 33 7 41 43 24 56 55 
24 56 55 24 67 72 24 67 72 7 34 46 6 27 28 1 19 17 6 27 28 6 27 33 
6 27 28 6 27 28 6 27 28 7 27 24 7 27 20 1 19 17 7 27 24 6 27 28 
6 27 28 7 27 24 6 27 28 7 35 30 7 27 24 7 27 24 7 27 24 6 27 28 
7 35 30 6 27 28 6 27 28 7 35 30 6 27 33 6 27 33 7 35 30 7 35 30 
6 27 33 7 35 30 6 27 33 7 35 30 7 35 30 7 35 30 6 27 33 7 35 30 
7 35 30 7 41 43 7 41 43 7 34 46 24 40 47 7 41 43 7 27 52 7 41 43 
7 34 46 7 41 43 7 34 46 7 34 46 7 41 43 7 41 43 7 41 43 7 34 46 
7 34 46 7 34 46 7 34 46 7 41 43 7 41 43 7 34 46 7 34 46 7 41 43 
7 45 53 7 45 53 7 45 53 24 40 47 7 45 53 7 45 53 7 45 53 7 45 53 
7 45 53 7 45 53 7 45 53 7 45 53 7 34 46 7 41 43 7 41 43 7 34 46 
7 45 53 7 34 46 7 41 43 7 41 43 7 34 46 7 45 53 7 45 53 7 41 43 

7 80 149 3 89 142 7 80 149 6 89 150 6 89 150 6 89 150 6 89 150 6 89 150 
3 89 142 3 89 142 6 80 137 6 80 137 6 73 141 6 73 141 6 73 141 6 73 141 
3 89 142 6 73 141 7 73 121 7 73 121 6 52 136 6 73 141 6 73 141 7 80 149 
6 95 166 6 120 170 7 145 184 7 145 184 7 145 184 42 156 192 93 181 160 93 181 160 
93 181 160 128 189 167 128 189 167 156 195 167 156 195 167 156 195 167 156 195 167 156 195 167 
156 195 167 156 195 167 128 189 167 93 161 196 43 185 193 42 156 192 93 191 199 128 189 216 
128 189 216 93 191 199 43 185 193 43 185 193 6 201 200 7 145 184 6 99 150 7 52 116 
7 29 75 4 8 47 1 8 8 1 4 4 0 5 1 0 4 3 0 5 1 2 6 2 
0 2 2 0 6 1 2 6 3 0 11 2 1 7 4 0 6 3 1 6 4 1 7 4 
1 7 4 4 8 4 1 9 4 1 7 4 0 9 4 0 6 3 1 7 4 2 6 3 
0 9 4 1 12 4 1 12 4 1 6 4 4 5 4 0 6 3 1 9 4 0 6 3 
1 7 4 1 11 6 1 11 6 1 13 6 1 6 4 1 7 4 10 11 4 4 9 6 
1 11 6 4 12 4 1 9 6 1 9 6 1 9 6 1 11 6 1 8 8 1 13 6 
1 16 14 1 13 6 7 10 8 1 16 14 1 16 14 7 27 20 1 19 17 7 18 20 
7 27 24 6 27 28 7 27 20 7 27 20 7 27 24 7 27 24 7 27 24 23 24 27 
1 19 17 6 27 12 6 27 12 1 20 14 1 19 10 1 19 10 1 13 6 1 13 6 
1 19 10 5 19 10 1 13 6 5 19 10 1 16 14 8 18 14 1 19 10 1 20 14 
1 19 10 1 8 8 5 19 10 1 16 14 1 16 14 1 13 6 5 19 10 10 18 10 
1 8 8 2 15 5 1 11 6 1 16 14 7 35 30 7 45 53 24 67 72 7 56 82 
7 72 82 7 48 75 24 67 72 7 45 53 6 27 33 1 19 17 1 19 17 7 27 24 
6 27 28 6 27 28 1 19 17 7 27 20 1 19 17 1 19 17 7 27 24 7 27 24 
7 27 20 1 19 17 6 27 28 6 27 28 6 27 28 6 27 28 6 27 28 6 27 28 
6 27 28 6 27 28 6 27 28 7 35 30 7 35 30 7 35 30 6 27 28 6 27 28 
7 35 30 6 27 33 6 27 33 7 35 30 6 27 33 6 27 33 24 41 31 6 27 33 
6 27 33 7 41 43 7 34 46 24 40 47 7 34 46 7 41 43 7 41 43 7 41 43 
7 34 46 7 34 46 7 41 43 7 41 43 7 41 43 7 34 46 7 34 46 7 41 43 
7 41 43 7 41 43 7 34 46 7 41 43 24 40 47 7 41 43 7 34 46 7 41 43 
7 41 43 7 45 53 7 45 53 7 34 46 24 40 47 7 45 53 7 34 46 7 45 53 
7 45 53 7 34 46 7 41 43 7 41 43 7 34 46 7 41 43 7 41 43 7 41 43 
7 41 43 7 41 43 7 41 43 7 34 46 7 34 46 7 45 53 7 45 53 7 34 46 

6 73 141 6 73 141 3 89 142 6 89 150 6 89 150 6 89 150 7 80 149 6 89 150 
7 80 149 7 80 149 6 89 150 6 89 150 6 99 150 6 89 150 6 73 141 6 80 137 
6 73 141 6 73 141 6 80 137 6 73 141 6 73 141 6 52 136 7 73 121 6 52 136 
6 73 141 7 80 149 6 89 150 6 120 170 7 145 184 7 145 184 7 145 184 7 145 184 
43 185 193 93 181 160 93 181 160 93 191 199 128 189 167 128 189 167 156 195 167 198 212 189 
198 212 189 198 212 189 198 212 189 198 212 189 156 186 216 93 161 196 42 156 192 6 201 200 
93 161 196 128 189 216 156 186 216 128 189 216 93 191 199 43 185 193 6 201 200 7 145 184 
6 120 170 6 80 137 6 33 96 4 8 47 6 8 10 1 4 6 0 4 3 0 5 1 
0 3 1 0 6 1 2 6 2 0 4 3 0 6 1 0 9 4 0 4 3 0 6 3 
2 6 2 1 7 4 1 9 4 1 12 4 1 7 4 1 12 4 4 12 4 0 9 4 
1 9 4 0 9 4 1 6 4 1 9 4 1 6 4 1 4 4 1 13 6 1 7 4 
0 4 3 4 10 4 1 11 6 1 4 4 0 9 4 1 11 6 1 9 6 0 9 4 
1 9 4 1 9 6 1 7 4 1 9 6 4 9 6 1 8 8 1 13 6 1 8 8 
1 13 6 1 16 14 1 16 14 8 18 14 1 19 17 7 27 20 7 27 24 7 27 20 
7 27 24 7 27 24 7 27 24 7 27 24 7 27 24 7 27 24 1 19 17 1 16 14 
1 16 14 1 16 14 1 16 14 1 16 14 1 8 8 1 16 14 1 8 8 1 19 10 
5 19 10 1 13 6 1 13 6 5 19 6 1 13 6 1 19 10 1 19 10 1 19 10 
1 19 10 1 13 6 1 11 6 1 9 6 1 13 6 1 19 10 1 19 10 1 19 10 
1 8 8 1 11 6 5 19 10 1 19 17 7 45 53 7 72 82 7 72 82 7 56 82 
7 56 82 7 56 82 7 72 82 7 72 82 7 34 46 1 19 17 1 19 17 1 19 17 
1 19 17 7 27 20 1 19 17 1 19 17 1 20 14 1 16 14 7 18 20 7 27 20 
7 18 20 1 19 17 7 27 24 6 27 28 6 27 28 6 27 28 6 27 28 6 27 28 
6 27 28 6 27 28 6 27 28 7 35 30 7 35 30 7 35 30 6 27 28 6 27 28 
7 35 30 6 27 33 7 35 30 6 27 33 24 41 31 7 35 30 6 27 33 6 27 33 
6 27 33 7 35 30 6 27 33 7 35 30 6 27 33 7 35 30 24 41 31 7 34 46 
7 41 43 7 34 46 7 41 43 7 41 43 7 41 43 24 40 47 24 40 47 7 34 46 
7 34 46 7 41 43 6 27 33 7 34 46 7 41 43 7 34 46 7 34 46 7 34 46 
24 40 47 7 34 46 7 45 53 24 56 55 7 34 46 7 41 43 7 45 53 7 45 53 
7 45 53 7 34 46 7 41 43 7 41 43 7 34 46 7 34 46 7 41 43 7 34 46 
24 40 47 7 41 43 7 34 46 7 34 46 7 41 43 7 34 46 7 41 43 7 34 46 

6 80 137 6 80 137 6 80 137 6 80 137 6 73 141 6 80 137 6 80 137 6 89 150 
6 120 170 7 145 184 6 201 200 6 120 170 6 89 150 6 89 150 3 89 142 7 80 149 
6 73 141 6 73 141 6 80 137 6 80 137 6 80 137 6 80 137 6 73 141 6 73 141 
7 73 121 7 73 121 6 73 141 7 80 149 6 120 170 6 120 170 7 145 184 7 145 184 
7 145 184 7 145 184 43 185 193 43 185 193 93 181 160 93 181 160 128 189 167 128 189 167 
156 195 167 198 212 189 198 212 189 225 208 211 225 208 211 198 212 189 189 174 177 93 161 196 
7 145 184 42 156 192 93 191 199 156 186 216 156 186 216 156 186 216 128 189 216 93 191 199 
43 185 193 6 201 200 7 145 184 7 99 141 7 48 95 4 8 47 7 18 20 1 8 8 
0 4 3 0 4 3 1 7 4 0 4 3 1 3 2 0 6 3 0 5 1 0 6 1 
1 3 2 0 5 1 0 6 3 0 4 3 10 11 4 1 4 4 10 11 4 0 4 3 
1 9 4 1 9 4 4 8 4 1 4 4 1 4 4 1 7 4 2 15 5 0 9 4 
0 6 3 1 13 6 1 11 6 1 11 6 1 9 6 2 15 5 1 11 6 1 7 4 
1 9 6 1 4 6 1 11 6 1 11 6 1 7 4 1 11 6 1 13 6 7 10 8 
1 16 14 1 19 10 1 16 14 1 20 14 1 19 17 7 18 20 7 27 20 7 27 24 
7 27 24 23 24 27 7 27 24 7 27 20 1 19 17 23 24 27 1 19 17 6 27 12 
1 16 14 24 23 9 10 18 10 1 19 10 5 19 10 1 13 6 1 19 10 1 16 14 
1 13 6 1 19 10 1 19 10 1 16 14 1 19 10 1 19 10 1 8 8 1 19 10 
4 12 4 1 9 6 1 11 6 10 18 5 1 11 6 1 19 10 1 19 10 1 13 6 
1 13 6 1 16 14 6 27 28 7 34 46 7 72 82 7 113 119 7 113 119 7 96 112 
7 56 82 7 72 82 7 56 82 7 72 82 7 45 53 6 27 28 1 19 17 1 16 14 
1 20 14 1 19 17 1 19 17 7 27 20 7 18 20 8 18 17 1 19 17 1 19 17 
1 19 17 7 27 20 6 27 28 6 27 28 6 27 28 1 19 17 1 19 17 1 19 17 
7 18 20 6 27 28 6 27 28 6 27 28 6 27 33 7 35 30 6 27 28 7 35 30 
6 27 28 6 27 28 6 27 28 7 35 30 7 35 30 6 27 33 6 27 33 7 35 30 
7 35 30 7 35 30 7 35 30 6 27 33 7 35 30 24 41 31 7 34 46 6 27 33 
7 35 30 7 41 43 24 40 47 7 34 46 7 34 46 7 34 46 7 34 46 7 34 46 
7 35 30 7 35 30 6 27 33 6 27 33 6 27 33 7 34 46 24 40 47 7 34 46 
7 34 46 7 41 43 7 34 46 7 34 46 7 34 46 7 34 46 7 45 53 7 41 60 
7 41 43 7 41 43 7 41 43 7 41 43 7 34 46 7 41 43 7 34 46 7 34 46 
7 41 43 7 34 46 7 41 43 7 41 43 7 34 46 7 34 46 7 41 43 7 41 43 

6 73 141 6 80 137 6 80 137 6 73 141 6 80 137 3 89 142 6 80 137 7 145 184 
6 201 200 6 201 200 6 201 200 6 201 200 6 95 166 6 89 150 7 80 149 6 89 150 
6 120 170 6 120 170 7 145 184 6 120 170 6 80 137 6 73 141 6 73 141 6 80 137 
6 80 137 6 73 141 6 73 141 6 73 141 6 73 141 6 73 141 6 73 141 6 89 150 
6 120 170 7 145 184 7 145 184 7 145 184 42 156 192 43 185 193 93 181 160 93 181 160 
128 189 167 128 189 167 156 195 167 198 212 189 198 212 189 198 212 189 198 212 189 198 212 189 
128 189 167 93 161 196 42 156 192 7 145 184 93 161 196 128 189 216 156 186 216 156 186 216 
128 189 216 93 191 199 43 185 193 6 201 200 7 145 184 6 120 170 7 52 116 7 29 75 
4 8 47 6 8 10 1 8 8 1 6 4 0 3 1 0 6 1 0 3 1 0 3 1 
0 5 1 0 6 1 0 6 1 0 6 1 0 6 3 1 7 4 10 11 4 1 6 4 
4 12 4 0 6 3 4 8 4 0 9 4 1 12 4 1 7 4 1 9 4 4 8 4 
0 4 3 0 9 4 1 4 4 1 9 6 1 11 6 1 8 8 1 9 6 1 9 6 
1 9 6 2 19 6 1 8 8 1 9 6 10 18 5 2 15 5 5 19 6 7 10 8 
1 16 14 1 16 14 1 16 14 8 18 14 1 20 14 7 27 20 7 27 20 7 27 24 
7 27 24 7 27 24 7 27 20 1 19 17 7 27 20 1 19 17 1 16 14 1 16 14 
1 20 14 1 16 14 1 16 14 2 19 6 1 19 10 1 8 8 1 11 6 1 13 6 
1 8 8 10 18 10 1 8 8 1 19 10 1 19 10 1 16 14 1 19 10 2 19 6 
1 13 6 5 19 6 1 13 6 4 12 4 1 11 6 1 13 6 1 11 6 2 19 6 
1 8 8 6 27 33 7 41 60 7 96 112 7 173 128 7 126 130 7 126 130 7 96 112 
7 72 82 7 56 82 7 56 82 7 72 82 7 45 53 1 19 17 8 18 14 1 16 14 
1 16 14 1 19 17 7 27 20 7 27 20 7 27 20 7 18 20 1 19 17 1 19 17 
1 19 17 7 27 20 6 27 28 6 27 28 7 27 24 1 19 17 1 19 17 1 19 17 
1 19 17 7 27 24 6 27 28 6 27 28 6 27 28 6 27 28 6 27 28 6 27 28 
6 27 28 7 35 30 6 27 28 6 27 28 6 27 28 6 27 33 7 35 30 6 27 33 
7 35 30 6 27 33 6 27 33 6 27 33 7 35 30 7 34 46 7 35 30 7 35 30 
7 35 30 7 35 30 7 41 43 7 34 46 7 41 43 6 27 33 7 34 46 7 34 46 
6 27 33 6 27 33 6 27 33 7 35 30 24 40 47 7 34 46 7 34 46 7 34 46 
7 34 46 7 34 46 7 34 46 6 27 33 7 34 46 7 41 43 7 45 53 7 41 43 
7 34 46 7 34 46 7 34 46 7 34 46 6 27 33 7 35 30 6 27 33 7 35 30 
7 34 46 7 41 43 7 34 46 7 34 46 7 41 43 7 41 43 7 41 43 7 35 30 

6 73 141 7 73 121 6 73 141 6 80 137 6 80 137 6 80 137 6 73 141 7 145 184 
6 201 200 6 201 200 6 201 200 6 201 200 7 145 184 3 89 142 3 89 142 6 120 170 
6 201 200 6 201 200 6 201 200 6 201 200 6 120 170 6 73 141 6 80 137 6 73 141 
6 73 141 3 89 142 6 80 137 6 73 141 6 73 141 6 73 141 6 73 141 6 80 137 
6 73 141 3 89 142 7 113 146 7 145 184 7 145 184 7 145 184 43 185 193 43 185 193 
93 181 160 93 181 160 93 161 196 128 189 167 156 195 167 156 195 167 189 174 177 198 212 189 
198 212 189 189 174 177 128 189 167 93 161 196 93 161 196 42 156 192 93 161 196 128 189 216 
156 186 216 156 186 216 156 186 216 128 189 216 93 191 199 43 185 193 7 145 184 7 145 184 
6 80 137 6 33 96 4 8 47 7 18 20 1 4 6 0 4 3 0 3 1 0 6 1 
2 6 2 0 5 1 0 6 1 0 9 4 1 9 4 0 9 4 1 7 4 1 7 4 
0 9 4 1 12 4 0 6 3 0 6 3 0 6 3 0 4 3 2 15 5 1 7 4 
0 4 3 0 6 3 1 11 6 4 9 6 1 9 6 1 11 6 2 15 5 1 11 6 
7 10 8 5 19 6 1 13 6 2 15 5 1 11 6 1 11 6 1 8 8 1 19 10 
1 20 14 8 18 14 8 18 14 1 16 14 7 27 20 7 27 20 7 27 20 7 27 20 
7 27 24 7 18 20 1 19 17 7 27 20 1 16 14 1 19 17 1 20 14 1 16 14 
1 16 14 1 16 14 1 16 14 1 19 10 1 13 6 1 19 10 2 15 5 1 19 10 
6 8 10 10 18 10 1 13 6 1 13 6 1 13 6 1 16 14 1 13 6 1 13 6 
2 15 5 10 18 5 1 13 6 1 11 6 1 13 6 0 9 4 1 11 6 1 16 14 
7 27 52 7 72 82 7 96 112 7 126 130 6 201 200 7 145 184 7 113 146 7 113 119 
7 96 112 7 56 82 7 48 75 7 45 53 6 27 28 1 19 17 24 23 9 1 19 17 
1 20 14 1 19 17 1 19 17 1 16 14 1 19 17 1 19 17 1 19 17 1 19 17 
1 19 17 7 27 20 7 27 24 7 27 24 7 27 24 1 19 17 1 19 17 7 27 20 
7 27 20 7 27 24 23 24 27 6 27 28 7 27 24 7 27 20 7 27 20 7 27 20 
6 27 28 6 27 28 7 18 20 7 27 24 6 27 28 6 27 28 6 27 28 6 27 28 
23 24 27 7 35 30 7 35 30 6 27 33 6 27 33 7 35 30 6 27 33 7 35 30 
6 27 33 6 27 28 6 27 28 7 35 30 6 27 33 6 27 33 6 27 33 7 35 30 
7 41 43 7 34 46 7 34 46 7 34 46 7 45 53 24 40 47 7 34 46 7 41 43 
7 34 46 7 41 43 7 35 30 6 27 33 7 35 30 7 34 46 7 41 43 7 34 46 
7 34 46 7 34 46 7 34 46 7 34 46 7 41 43 24 41 31 7 35 30 6 27 33 
7 34 46 7 41 43 7 41 43 7 35 30 6 27 33 6 27 33 7 41 43 6 27 33 

6 80 137 6 80 137 6 73 141 6 80 137 6 73 141 6 80 137 6 73 141 6 201 200 
6 201 200 6 201 200 6 201 200 6 201 200 27 163 154 6 73 141 6 73 141 6 120 170 
6 201 200 6 201 200 6 201 200 6 201 200 6 201 200 6 99 150 6 89 150 6 89 150 
6 89 150 6 89 150 6 73 141 3 89 142 6 80 137 6 80 137 6 52 136 6 52 136 
6 73 141 6 80 137 6 80 137 3 89 142 6 99 150 6 120 170 7 145 184 7 145 184 
6 201 200 93 181 160 128 189 167 93 181 160 93 181 160 128 159 167 128 189 167 156 195 167 
189 174 177 198 212 189 156 195 167 156 195 167 128 159 167 93 161 196 93 161 196 93 161 196 
93 161 196 93 191 199 156 186 216 156 186 216 156 186 216 128 189 216 93 191 199 6 201 200 
6 201 200 7 145 184 6 99 150 7 48 95 4 8 47 4 8 47 1 8 8 0 4 3 
0 4 3 0 3 1 0 6 1 0 4 3 0 6 3 0 6 3 0 11 2 1 12 4 
1 9 4 1 9 4 0 4 3 1 9 4 1 7 4 0 6 3 1 9 4 0 4 3 
0 9 4 0 9 4 1 11 6 4 8 4 1 7 4 1 9 6 4 9 6 1 11 6 
4 9 6 4 9 6 1 9 6 1 11 6 1 13 6 10 18 10 10 18 10 1 16 14 
1 19 17 1 19 17 1 19 17 8 18 17 7 27 20 7 27 20 7 27 20 7 27 20 
7 27 20 7 18 20 1 19 17 1 19 17 8 18 17 8 18 14 1 20 14 1 16 14 
1 16 14 5 19 10 1 20 14 1 16 14 1 13 6 5 19 10 1 11 6 1 8 8 
2 15 5 2 15 5 7 10 8 1 19 10 1 19 10 1 13 6 5 19 10 1 13 6 
1 11 6 1 13 6 2 15 5 2 15 5 1 11 6 0 9 4 1 16 14 7 34 46 
7 75 102 7 126 130 7 113 146 27 163 154 6 201 200 6 201 200 6 120 170 7 126 130 
7 113 119 7 72 82 7 45 53 6 27 28 1 16 14 1 20 14 1 19 17 1 19 17 
1 16 14 1 19 17 8 18 14 1 20 14 8 18 14 8 18 17 1 19 17 1 19 17 
7 27 20 1 19 17 7 27 20 7 18 20 7 18 20 7 18 20 1 19 17 7 18 20 
7 27 20 7 27 24 7 27 24 7 18 20 7 27 20 7 27 24 7 27 24 7 27 20 
1 19 17 7 27 24 6 27 28 1 19 17 7 27 24 7 27 24 6 27 28 6 27 28 
6 27 28 7 35 30 7 35 30 6 27 33 6 27 33 6 27 33 6 27 33 6 27 33 
24 41 31 6 27 33 6 27 28 6 27 28 6 27 33 24 41 31 6 27 33 7 34 46 
24 40 47 24 40 47 53 43 37 54 63 80 55 83 74 7 48 75 7 34 46 7 34 46 
7 41 43 7 35 30 6 27 33 6 27 33 6 27 33 6 27 33 6 27 33 6 27 33 
6 27 33 7 41 43 7 41 43 7 35 30 6 27 33 6 27 33 6 27 33 7 35 30 
6 27 33 7 35 30 6 27 33 7 35 30 6 27 33 6 27 33 7 35 30 7 35 30 

6 80 137 6 80 137 6 80 137 7 81 122 7 73 121 7 73 121 3 89 142 7 145 184 
6 201 200 6 201 200 6 201 200 7 173 128 3 89 142 6 80 137 6 80 137 6 120 170 
6 201 200 6 201 200 6 201 200 6 201 200 6 201 200 6 120 170 6 89 150 6 95 166 
6 95 166 6 95 166 6 95 166 7 80 149 7 80 149 3 89 142 6 80 137 6 80 137 
6 73 141 6 73 141 6 73 141 6 80 137 6 80 137 6 73 141 6 89 150 6 120 170 
7 145 184 7 145 184 43 185 193 93 181 160 93 191 199 93 181 160 128 189 167 128 189 167 
156 195 167 189 174 177 156 195 167 128 189 167 156 195 167 128 189 167 128 189 167 93 161 196 
93 161 196 7 145 184 42 156 192 43 185 193 93 161 196 156 186 216 156 186 216 156 186 216 
128 189 216 93 191 199 6 201 200 7 145 184 6 120 170 7 73 121 7 29 75 4 8 47 
1 8 8 1 4 4 0 6 3 0 9 4 0 11 2 0 6 3 0 6 3 0 9 4 
1 9 4 0 6 3 0 6 3 1 7 4 0 6 3 0 4 3 2 10 2 1 7 4 
1 12 4 1 13 6 1 11 6 1 13 6 4 9 6 1 13 6 1 9 6 24 23 9 
1 11 6 2 19 6 1 4 6 2 15 5 1 13 6 5 19 10 1 13 6 1 19 10 
8 18 14 1 20 14 1 16 14 1 20 14 1 19 17 1 19 17 1 19 17 1 19 17 
7 18 20 7 27 20 1 19 17 1 19 17 1 16 14 1 16 14 1 20 14 1 16 14 
1 20 14 1 16 14 1 16 14 5 19 10 1 19 10 1 11 6 2 15 5 5 19 6 
2 19 6 1 8 8 1 13 6 1 13 6 2 19 6 1 8 8 5 19 10 1 11 6 
5 19 6 2 15 5 1 13 6 2 15 5 10 18 5 1 8 8 7 18 45 7 59 103 
7 113 146 6 201 200 7 145 184 7 145 184 7 145 184 7 145 184 7 145 184 7 126 130 
7 113 119 7 48 75 6 27 33 1 16 14 1 16 14 1 16 14 1 19 10 1 16 14 
1 19 17 1 19 17 1 19 17 8 18 17 6 27 12 1 16 14 1 20 14 8 18 14 
8 18 14 1 20 14 1 19 17 7 27 20 7 27 20 1 19 17 7 27 20 7 27 20 
7 18 20 1 19 17 7 27 20 7 18 20 7 27 20 7 18 20 7 27 20 7 27 20 
7 27 20 7 27 24 7 27 24 1 19 17 7 27 24 7 27 24 1 19 17 7 27 24 
24 41 31 7 27 24 6 27 28 6 27 28 6 27 33 7 35 30 6 27 28 6 27 28 
24 41 31 24 41 31 24 41 31 6 27 28 6 27 33 6 27 28 6 27 33 53 43 37 
24 56 55 24 56 55 53 43 37 24 56 55 24 67 72 24 56 72 24 40 47 7 34 46 
6 27 33 6 27 28 6 27 28 6 27 28 6 27 28 6 27 33 6 27 33 7 35 30 
7 35 30 6 27 33 6 27 33 7 35 30 6 27 33 7 35 30 6 27 33 7 35 30 
7 35 30 7 35 30 6 27 33 7 35 30 6 27 33 24 41 31 6 27 33 6 27 33 

6 80 137 6 80 137 7 73 121 7 73 121 6 80 137 6 52 136 6 80 137 6 73 141 
6 89 150 6 120 170 7 173 128 6 80 137 6 73 141 7 73 121 6 73 141 7 113 146 
6 201 200 6 201 200 6 201 200 6 201 200 7 145 184 6 99 150 6 99 150 6 95 166 
6 95 166 6 95 166 6 95 166 6 95 166 6 95 166 7 80 149 7 80 149 6 89 150 
6 89 150 6 89 150 7 80 149 6 73 141 6 73 141 6 73 141 6 73 141 6 73 141 
7 80 149 6 89 150 6 120 170 7 145 184 27 163 154 43 185 193 93 191 199 128 189 167 
128 189 167 128 189 167 128 189 167 128 189 167 128 189 167 128 189 167 128 189 167 128 189 167 
128 189 167 93 191 199 93 161 196 43 185 193 7 145 184 93 161 196 128 189 167 128 189 216 
128 189 216 156 186 216 128 189 216 93 191 199 43 185 193 6 201 200 6 120 170 6 80 137 
7 29 75 4 8 47 1 16 14 1 6 4 0 6 3 0 6 3 0 4 3 0 9 4 
1 9 4 0 3 1 1 1 2 0 4 3 2 6 2 0 4 3 0 5 1 5 9 2 
1 9 4 1 12 4 2 15 5 1 9 6 4 10 4 1 12 4 1 11 6 5 19 10 
7 10 8 1 13 6 1 13 6 1 13 6 1 8 8 1 19 10 1 19 10 1 16 14 
1 20 14 8 18 14 1 16 14 1 16 14 1 16 14 1 16 14 1 20 14 1 16 14 
1 19 17 1 19 17 1 16 14 1 20 14 1 16 14 1 16 14 1 16 14 1 16 14 
5 19 10 1 16 14 1 19 10 1 8 8 2 19 6 2 15 5 2 15 5 4 9 6 
1 11 6 1 13 6 1 19 10 1 19 10 1 11 6 2 15 5 1 19 10 1 19 10 
1 13 6 1 13 6 1 9 6 1 13 6 7 18 20 7 34 46 7 72 82 7 126 130 
6 201 200 6 201 200 6 201 200 6 201 200 7 145 184 6 120 170 6 120 170 7 96 112 
7 41 60 6 27 33 1 19 17 1 20 14 5 19 10 5 19 10 1 16 14 1 16 14 
1 20 14 7 27 20 7 27 20 1 19 17 1 20 14 1 20 14 1 16 14 1 16 14 
8 18 14 6 27 12 1 19 17 1 19 17 1 19 17 7 27 20 1 19 17 1 19 17 
7 27 20 1 19 17 1 19 17 7 27 20 7 27 24 7 27 24 7 27 20 7 18 20 
7 27 20 7 27 20 7 27 20 7 27 24 7 27 20 7 18 20 7 27 20 7 27 24 
6 27 28 7 27 24 7 27 24 6 27 28 6 27 33 7 35 30 23 24 27 7 27 24 
6 27 28 7 35 30 6 27 28 7 35 30 6 27 28 6 27 28 6 27 33 24 40 47 
24 56 55 24 56 55 24 56 55 24 56 55 24 40 47 24 40 47 24 56 55 7 34 46 
6 27 33 6 27 28 6 27 28 6 27 28 7 35 30 6 27 33 6 27 33 6 27 33 
6 27 33 6 27 33 6 27 33 6 27 33 6 27 33 6 27 33 6 27 33 6 27 33 
6 27 33 7 35 30 6 27 33 6 27 33 7 35 30 24 41 31 6 27 33 6 27 28 

7 73 121 6 80 137 7 73 121 6 80 137 3 89 142 6 80 137 6 73 141 6 73 141 
6 73 141 6 73 141 6 80 137 6 73 141 6 73 141 6 80 137 6 80 137 6 80 137 
7 80 149 6 120 170 7 173 128 27 163 154 6 99 150 6 99 150 6 89 150 6 95 166 
6 95 166 6 95 166 6 95 166 6 95 166 6 95 166 6 95 166 6 89 150 6 99 150 
6 89 150 6 89 150 6 95 166 6 89 150 6 89 150 3 89 142 6 80 137 6 73 141 
6 73 141 6 80 137 7 80 149 6 89 150 6 95 166 7 145 184 7 145 184 7 145 184 
42 156 192 93 181 160 128 189 167 128 189 167 128 189 167 93 191 199 93 191 199 93 191 199 
128 189 167 128 189 216 156 195 167 128 189 167 93 161 196 7 145 184 42 156 192 43 185 193 
43 185 193 128 189 216 156 186 216 156 186 216 128 189 216 93 191 199 43 185 193 6 201 200 
7 145 184 3 89 142 6 33 96 4 8 47 6 8 10 1 8 8 1 9 4 1 7 4 
0 3 1 0 5 1 0 6 1 0 4 3 0 6 1 0 6 1 0 6 3 0 4 3 
1 7 4 1 7 4 1 4 4 1 11 6 24 23 9 1 7 4 1 11 6 1 13 6 
1 13 6 1 13 6 1 19 10 5 19 10 1 13 6 1 16 14 1 16 14 10 18 10 
1 20 14 10 18 10 5 19 10 5 19 10 1 16 14 1 20 14 1 16 14 1 8 8 
8 18 14 1 16 14 1 19 17 1 19 17 1 16 14 5 19 10 8 18 14 1 16 14 
1 16 14 1 16 14 1 16 14 1 11 6 2 15 5 4 9 6 1 8 8 1 13 6 
1 19 10 5 19 10 1 8 8 1 16 14 5 19 10 1 19 10 1 13 6 10 18 10 
2 15 5 2 15 5 1 7 4 1 13 6 7 41 43 7 56 82 7 113 119 7 145 184 
6 201 200 6 201 200 6 201 200 6 201 200 7 145 184 7 126 130 7 113 119 7 41 60 
1 19 17 1 16 14 1 19 10 6 8 10 5 19 10 1 16 14 5 19 10 1 16 14 
1 20 14 1 19 17 1 19 17 1 19 17 1 16 14 1 16 14 1 16 14 10 18 10 
1 19 17 1 19 17 1 19 17 1 19 17 1 19 17 1 16 14 1 16 14 7 27 20 
1 19 17 7 27 20 7 18 20 1 19 17 7 18 20 7 18 20 7 27 24 7 27 20 
1 19 17 7 27 20 1 19 17 7 27 20 7 27 24 7 18 20 7 27 24 6 27 28 
6 27 28 7 27 24 7 27 24 7 27 24 7 35 30 7 35 30 6 27 28 6 27 28 
6 27 28 6 27 28 6 27 28 7 35 30 6 27 28 23 24 27 7 35 30 24 56 55 
24 56 55 24 56 55 24 56 55 24 56 55 24 56 55 24 40 47 53 43 37 24 56 55 
7 34 46 6 27 33 6 27 28 6 27 28 6 27 33 7 35 30 7 35 30 6 27 33 
6 27 33 6 27 33 6 27 33 6 27 33 6 27 33 7 35 30 6 27 28 6 27 28 
7 35 30 6 27 33 7 35 30 6 27 33 7 35 30 6 27 33 6 27 28 6 27 28 

7 73 121 7 73 121 7 73 121 6 73 141 7 80 149 6 89 150 6 89 150 3 89 142 
6 80 137 6 73 141 6 80 137 6 80 137 6 80 137 6 73 141 6 80 137 6 73 141 
6 80 137 6 80 137 6 80 137 6 73 141 7 113 146 7 113 146 6 89 150 6 89 150 
6 99 150 6 89 150 6 89 150 6 99 150 6 95 166 6 95 166 6 95 166 6 95 166 
6 95 166 6 95 166 6 95 166 6 95 166 6 95 166 6 89 150 6 99 150 3 89 142 
3 89 142 6 73 141 6 80 137 3 89 142 3 89 142 6 73 141 7 80 149 6 120 170 
7 145 184 7 145 184 42 156 192 93 161 196 128 189 167 128 189 167 128 189 167 93 191 199 
93 161 196 93 191 199 128 189 167 156 195 167 156 195 167 128 189 167 93 161 196 42 156 192 
7 145 184 43 185 193 43 185 193 93 191 199 156 186 216 156 186 216 128 189 216 93 191 199 
43 185 193 6 201 200 7 145 184 6 99 150 7 48 95 4 8 47 7 18 20 1 8 8 
0 6 3 0 6 1 0 4 3 0 5 1 0 5 1 0 4 3 0 6 1 0 6 3 
1 7 4 1 9 4 1 9 4 0 9 4 1 11 6 1 9 6 1 9 6 1 9 6 
1 13 6 1 11 6 1 19 10 10 18 10 1 16 14 5 19 10 10 18 10 10 18 10 
5 19 10 7 10 8 1 8 8 1 16 14 5 19 10 1 16 14 5 19 10 7 10 8 
6 27 12 1 16 14 1 16 14 8 18 17 1 16 14 1 20 14 1 20 14 8 18 14 
8 18 14 5 19 10 1 19 10 2 15 5 2 15 5 4 12 4 1 11 6 1 13 6 
1 19 10 1 19 10 1 13 6 1 19 10 1 13 6 1 13 6 1 7 4 1 11 6 
1 13 6 1 8 8 1 8 8 7 18 20 7 45 53 7 59 103 6 120 170 6 201 200 
6 201 200 6 201 200 6 201 200 6 201 200 7 145 184 7 113 119 7 41 60 1 16 14 
1 13 6 1 11 6 1 13 6 1 13 6 1 13 6 10 18 10 5 19 10 1 16 14 
1 20 14 8 18 14 1 19 17 1 20 14 1 20 14 1 16 14 1 16 14 10 18 10 
7 27 20 1 19 17 1 19 17 1 19 17 1 19 17 1 20 14 1 19 17 1 19 17 
1 19 17 1 19 17 1 19 17 7 27 20 1 19 17 7 27 20 7 18 20 7 18 20 
1 19 17 7 27 20 7 27 20 7 27 20 7 27 24 6 27 28 7 35 30 6 27 28 
7 27 24 7 27 24 7 27 24 1 19 17 7 27 24 6 27 28 6 27 33 6 27 28 
7 27 24 1 19 17 6 27 28 6 27 33 6 27 28 6 27 28 7 35 30 24 56 55 
24 56 55 24 40 47 24 56 55 24 56 55 24 40 47 53 43 37 24 40 47 24 40 47 
6 27 33 6 27 28 7 27 24 6 27 28 7 35 30 7 35 30 6 27 33 7 35 30 
6 27 33 7 35 30 6 27 33 6 27 33 6 27 33 6 27 28 6 27 28 6 27 28 
6 27 28 6 27 28 6 27 28 6 27 28 6 27 28 6 27 28 7 35 30 6 27 33 

7 73 121 7 73 121 7 73 121 6 73 141 3 89 142 6 89 150 3 89 142 6 80 137 
7 73 121 7 73 121 7 73 121 6 73 141 6 80 137 6 73 141 6 80 137 6 80 137 
6 80 137 6 80 137 6 80 137 7 73 121 6 73 141 7 113 146 7 80 149 6 80 137 
3 89 142 7 80 149 6 89 150 6 89 150 6 99 150 6 95 166 6 95 166 6 95 166 
6 95 166 6 99 150 6 95 166 6 95 166 6 95 166 6 89 150 6 89 150 6 89 150 
6 89 150 3 89 142 6 80 137 6 73 141 6 73 141 6 73 141 3 89 142 6 89 150 
7 80 149 6 95 166 7 145 184 7 145 184 7 145 184 42 156 192 93 181 160 93 181 160 
93 191 199 93 191 199 93 191 199 128 189 167 128 189 167 128 189 167 156 195 167 128 189 167 
93 161 196 43 185 193 7 145 184 42 156 192 128 189 167 156 195 167 128 189 216 156 186 216 
128 189 216 93 191 199 43 185 193 43 185 193 7 145 184 7 113 146 7 52 116 7 29 75 
4 8 47 1 8 8 1 4 4 0 4 3 0 6 1 0 4 3 0 5 1 0 9 4 
1 12 4 0 6 3 0 9 4 0 9 4 1 9 6 1 9 4 1 11 6 1 9 6 
2 15 5 1 11 6 1 8 8 5 19 10 1 19 10 5 19 10 1 16 14 1 16 14 
1 13 6 1 13 6 1 19 10 1 19 10 1 13 6 1 13 6 1 13 6 7 10 8 
1 16 14 1 16 14 1 19 10 1 16 14 1 16 14 1 16 14 1 20 14 1 16 14 
1 16 14 5 19 10 5 19 10 1 8 8 1 11 6 10 10 6 1 16 14 1 16 14 
1 16 14 1 8 8 1 19 10 1 13 6 1 13 6 1 8 8 2 19 6 1 9 6 
1 13 6 1 16 14 1 19 17 7 18 45 7 72 82 6 80 137 6 201 200 6 201 200 
6 201 200 7 145 184 7 145 184 7 145 184 7 96 112 7 45 53 1 16 14 1 11 6 
1 11 6 1 13 6 1 11 6 1 8 8 1 16 14 1 16 14 1 16 14 1 16 14 
1 20 14 1 16 14 5 19 10 8 18 14 1 16 14 1 16 14 8 18 14 1 16 14 
1 20 14 8 18 17 7 18 20 1 20 14 1 19 17 1 19 17 8 18 17 1 19 17 
1 19 17 1 20 14 1 19 17 7 27 20 1 19 17 7 27 24 7 27 24 1 19 17 
1 19 17 1 19 17 7 27 20 7 27 20 6 27 28 7 35 30 24 41 31 6 27 28 
7 27 24 7 27 24 7 27 24 7 18 20 6 27 28 7 27 24 7 27 24 7 27 24 
7 27 24 7 27 24 6 27 28 6 27 28 24 41 31 6 27 28 24 41 31 24 56 55 
24 56 55 24 56 55 24 56 55 24 56 55 24 56 55 24 40 47 7 34 46 7 34 46 
6 27 28 6 27 28 6 27 28 6 27 28 6 27 28 6 27 33 6 27 33 6 27 33 
6 27 33 6 27 28 6 27 28 6 27 28 6 27 28 6 27 28 6 27 28 6 27 28 
6 27 28 6 27 28 7 27 24 7 18 20 7 27 24 6 27 28 6 27 33 6 27 33 

7 73 121 7 73 121 7 73 121 7 73 121 6 80 137 3 89 142 3 89 142 6 73 141 
7 73 121 7 73 121 6 73 141 6 80 137 3 89 142 6 73 141 6 73 141 6 73 141 
6 80 137 3 89 142 3 89 142 6 73 141 3 89 142 3 89 142 3 89 142 3 89 142 
6 80 137 6 80 137 3 89 142 3 89 142 7 80 149 6 99 150 6 99 150 6 95 166 
6 89 150 6 99 150 6 95 166 6 95 166 6 95 166 6 95 166 6 95 166 6 89 150 
6 89 150 6 89 150 7 80 149 6 73 141 6 73 141 3 89 142 6 73 141 6 73 141 
3 89 142 3 89 142 6 89 150 6 89 150 6 120 170 7 145 184 7 145 184 7 145 184 
43 185 193 43 185 193 93 191 199 93 161 196 93 191 199 128 189 167 156 195 167 156 195 167 
156 195 167 128 189 167 93 191 199 42 156 192 7 145 184 93 161 196 156 195 167 156 186 216 
128 189 216 156 186 216 128 189 216 128 189 216 93 191 199 43 185 193 6 201 200 6 120 170 
7 73 121 7 29 75 4 8 47 1 8 8 1 4 6 0 4 3 0 6 1 2 6 3 
0 6 3 0 4 3 1 4 4 1 12 4 1 7 4 1 9 4 2 15 5 1 11 6 
2 15 5 1 11 6 1 11 6 1 13 6 1 11 6 1 11 6 7 10 8 1 13 6 
7 10 8 1 13 6 5 19 6 1 13 6 1 13 6 1 13 6 1 13 6 1 11 6 
1 16 14 5 19 10 1 16 14 1 19 10 1 20 14 1 16 14 1 16 14 1 16 14 
1 16 14 1 8 8 10 18 10 24 23 9 1 16 14 1 16 14 1 20 14 1 16 14 
5 19 10 1 13 6 1 19 10 1 19 10 1 8 8 2 19 6 1 13 6 1 11 6 
1 16 14 7 18 20 6 27 28 7 27 52 7 75 102 7 126 130 6 201 200 6 201 200 
7 145 184 7 113 146 7 126 130 7 96 112 7 27 52 1 16 14 1 11 6 1 11 6 
1 19 10 1 11 6 1 19 10 1 20 14 5 19 10 1 16 14 1 16 14 1 16 14 
1 19 10 1 16 14 1 16 14 1 19 10 1 16 14 24 23 9 6 27 12 1 16 14 
1 20 14 8 18 17 1 19 17 1 20 14 1 19 17 8 18 17 1 19 17 1 19 17 
6 27 12 1 19 17 1 19 17 7 27 20 6 27 28 6 27 28 7 27 24 7 27 24 
1 19 17 1 19 17 1 19 17 1 19 17 6 27 28 24 41 31 24 41 31 6 27 28 
1 19 17 7 27 20 7 27 24 7 27 20 7 27 24 1 19 17 7 27 24 7 27 24 
7 27 24 7 27 24 6 27 28 6 27 28 23 24 27 6 27 33 24 40 47 24 56 55 
24 40 47 24 56 55 24 56 55 24 56 55 24 56 55 24 40 47 6 27 33 23 24 27 
6 27 28 6 27 28 6 27 28 53 43 37 7 27 24 6 27 28 6 27 28 6 27 33 
6 27 33 6 27 28 6 27 28 6 27 28 6 27 28 6 27 28 6 27 28 6 27 28 
7 27 24 6 27 28 6 27 28 6 27 28 6 27 28 7 35 30 7 35 30 6 27 33 

7 73 121 7 73 121 7 73 121 7 73 121 7 81 122 7 73 121 6 73 141 7 73 121 
7 73 121 7 73 121 6 80 137 3 89 142 6 80 137 6 80 137 6 80 137 6 73 141 
6 73 141 6 80 137 7 113 146 7 113 146 3 89 142 6 80 137 3 89 142 7 80 149 
3 89 142 7 80 149 3 89 142 6 73 141 3 89 142 3 89 142 7 80 149 6 89 150 
6 89 150 7 80 149 6 89 150 6 95 166 6 95 166 6 95 166 6 95 166 6 95 166 
6 89 150 6 99 150 6 99 150 7 80 149 6 89 150 6 89 150 7 80 149 6 73 141 
6 73 141 6 73 141 6 80 137 6 73 141 3 89 142 6 89 150 6 120 170 6 120 170 
7 145 184 7 145 184 42 156 192 93 181 160 93 191 199 93 191 199 156 195 167 156 195 167 
156 195 167 156 186 216 156 195 167 156 195 167 128 189 167 42 156 192 42 156 192 93 161 196 
128 189 167 128 189 216 128 189 216 156 186 216 156 186 216 128 189 216 93 191 199 43 185 193 
43 185 193 7 145 184 6 80 137 6 33 96 4 8 47 6 8 10 1 7 4 1 7 4 
0 4 3 0 6 3 0 9 4 1 9 4 1 7 4 4 10 4 1 11 6 2 15 5 
1 13 6 10 18 10 24 23 9 1 13 6 1 11 6 1 11 6 1 13 6 1 11 6 
2 15 5 1 9 6 1 11 6 4 9 6 1 9 6 7 10 8 1 11 6 1 8 8 
5 19 10 1 20 14 1 16 14 1 16 14 1 16 14 1 16 14 1 16 14 1 16 14 
1 16 14 1 16 14 1 16 14 1 16 14 1 16 14 1 20 14 1 16 14 1 19 10 
5 19 10 1 19 10 1 13 6 1 11 6 1 9 6 1 13 6 1 11 6 1 8 8 
1 19 17 1 19 17 6 27 28 6 34 60 7 81 122 7 173 128 7 173 128 3 89 142 
7 73 121 7 75 102 6 34 60 7 18 45 1 8 8 1 13 6 2 15 5 1 13 6 
2 15 5 1 8 8 1 16 14 1 16 14 1 16 14 1 13 6 1 16 14 1 16 14 
1 16 14 1 16 14 1 16 14 1 16 14 1 20 14 1 20 14 1 19 17 1 19 17 
1 20 14 1 16 14 1 20 14 1 20 14 1 20 14 1 20 14 1 20 14 1 19 17 
1 16 14 1 20 14 7 27 20 7 27 24 7 27 20 1 19 17 7 27 20 7 27 24 
1 19 17 1 19 17 1 19 17 1 19 17 7 35 30 7 35 30 7 35 30 6 27 28 
1 19 17 1 19 17 7 27 20 1 19 17 7 27 20 1 19 17 7 27 20 7 27 24 
23 24 27 7 27 24 7 27 24 6 27 28 7 35 30 24 41 31 24 41 31 6 27 33 
7 35 30 23 24 27 24 41 31 24 40 47 24 40 47 6 27 33 6 27 28 6 27 28 
1 19 17 1 19 17 1 19 17 7 18 20 7 27 20 1 19 17 7 27 24 7 35 30 
6 27 33 6 27 33 6 27 28 6 27 33 6 27 33 6 27 28 6 27 28 6 27 28 
7 27 24 7 27 24 6 27 28 7 27 24 6 27 28 6 27 28 6 27 28 6 27 28 

7 73 121 7 73 121 7 73 121 7 73 121 7 73 121 7 73 121 7 81 122 7 73 121 
7 73 121 7 73 121 7 73 121 6 73 141 6 80 137 6 80 137 6 80 137 6 80 137 
6 80 137 6 73 141 6 73 141 3 89 142 7 80 149 3 89 142 3 89 142 3 89 142 
3 89 142 3 89 142 3 89 142 7 80 149 6 89 150 3 89 142 6 89 150 6 99 150 
6 89 150 6 89 150 6 89 150 6 99 150 7 113 146 6 95 166 6 95 166 6 95 166 
6 95 166 6 95 166 6 95 166 6 95 166 6 95 166 6 99 150 7 80 149 6 73 141 
7 80 149 3 89 142 6 73 141 7 80 149 6 73 141 3 89 142 3 89 142 6 89 150 
6 120 170 6 120 170 7 145 184 6 120 170 42 156 192 43 185 193 93 191 199 93 191 199 
128 189 167 156 195 167 156 195 167 156 186 216 156 195 167 156 195 167 93 191 199 93 191 199 
93 161 196 93 161 196 93 191 199 93 191 199 128 189 216 156 186 216 156 186 216 128 189 216 
128 189 216 93 191 199 43 185 193 7 145 184 3 89 142 6 33 96 4 8 47 1 16 14 
1 8 8 1 4 4 0 9 4 1 12 4 1 9 4 1 13 6 1 11 6 1 11 6 
1 11 6 1 8 8 1 11 6 1 11 6 1 8 8 7 10 8 1 11 6 1 13 6 
1 13 6 1 7 4 4 9 6 1 9 4 1 9 6 10 18 5 1 11 6 2 19 6 
1 13 6 1 13 6 1 11 6 1 19 10 1 8 8 5 19 10 1 8 8 1 16 14 
6 27 12 1 16 14 1 20 14 7 27 20 7 27 20 7 27 20 1 16 14 1 8 8 
1 16 14 1 19 10 1 13 6 1 11 6 1 13 6 2 15 5 1 4 6 1 16 14 
7 27 24 6 27 28 6 27 33 7 48 75 7 96 112 7 81 122 7 75 102 7 75 102 
7 72 82 7 41 60 7 18 20 1 16 14 4 9 6 1 13 6 1 11 6 1 19 10 
1 13 6 1 8 8 5 19 10 1 16 14 1 19 10 1 19 10 8 18 14 8 18 14 
1 16 14 1 16 14 1 19 10 8 18 14 1 16 14 1 20 14 1 20 14 7 18 20 
8 18 17 1 19 17 8 18 17 1 20 14 1 16 14 1 11 6 1 16 14 1 19 17 
8 18 14 6 8 10 1 19 17 7 27 20 1 19 17 1 19 17 1 19 17 8 18 17 
7 27 20 1 19 17 8 18 17 1 19 17 6 27 28 6 27 28 7 18 20 1 19 17 
7 27 20 1 19 17 7 27 20 7 27 20 7 27 20 7 27 20 7 27 20 6 27 28 
6 27 28 7 27 24 7 27 24 7 18 20 7 35 30 24 41 31 24 41 31 7 27 24 
7 18 20 6 27 28 6 27 28 6 27 28 7 35 30 6 27 28 7 27 24 7 18 20 
7 27 24 7 27 24 1 19 17 7 27 20 1 19 17 1 19 17 1 19 17 6 27 28 
6 27 28 6 27 28 7 35 30 6 27 33 7 35 30 6 27 28 23 24 27 7 27 24 
7 27 24 6 27 28 7 27 20 7 27 24 7 27 24 7 27 24 7 27 24 6 27 28 

7 59 103 7 73 121 7 73 121 6 80 137 7 73 121 7 52 116 7 73 121 7 73 121 
7 73 121 7 73 121 6 80 137 7 73 121 7 73 121 7 73 121 6 80 137 6 73 141 
6 80 137 6 80 137 6 73 141 6 73 141 6 80 137 6 80 137 6 80 137 3 89 142 
3 89 142 3 89 142 6 89 150 6 89 150 3 89 142 3 89 142 7 80 149 6 99 150 
6 89 150 6 89 150 6 89 150 6 95 166 7 113 146 6 99 150 6 89 150 6 89 150 
6 89 150 6 95 166 6 95 166 6 95 166 6 95 166 6 95 166 6 89 150 6 89 150 
7 80 149 7 80 149 3 89 142 7 80 149 3 89 142 3 89 142 6 89 150 7 80 149 
7 80 149 6 95 166 7 145 184 7 145 184 7 145 184 7 145 184 7 145 184 43 185 193 
43 185 193 93 191 199 128 189 167 156 195 167 156 195 167 156 195 167 156 195 167 128 189 167 
128 189 167 128 189 167 128 189 167 93 161 196 43 185 193 42 156 192 93 161 196 128 189 216 
128 189 216 128 189 216 128 189 216 93 191 199 43 185 193 7 145 184 6 99 150 7 48 95 
4 8 47 7 18 20 1 8 8 1 9 6 1 4 4 1 4 6 1 13 6 1 8 8 
1 9 6 0 9 4 1 9 6 1 7 4 1 9 6 1 7 4 1 11 6 1 13 6 
0 9 4 1 6 4 1 9 4 1 11 6 1 9 6 4 9 6 1 11 6 1 11 6 
5 19 6 2 15 5 1 11 6 1 8 8 2 15 5 1 8 8 5 19 10 1 16 14 
1 20 14 1 19 17 1 19 17 1 19 17 7 18 20 1 19 17 1 20 14 1 16 14 
1 13 6 1 13 6 1 13 6 1 13 6 1 19 10 1 13 6 1 6 4 1 16 14 
6 27 28 6 27 28 6 27 33 6 34 60 7 56 82 7 18 45 7 27 52 24 40 47 
7 41 43 1 19 17 1 16 14 1 11 6 24 23 9 1 13 6 1 11 6 1 11 6 
1 13 6 1 11 6 1 19 10 24 23 9 1 13 6 1 16 14 1 16 14 1 20 14 
1 16 14 1 8 8 10 18 10 1 20 14 1 20 14 8 18 14 1 20 14 1 19 17 
7 27 20 8 18 17 1 19 17 6 27 12 8 18 14 1 19 10 1 20 14 1 16 14 
1 16 14 1 19 10 6 27 12 1 16 14 1 16 14 1 20 14 1 19 17 6 27 12 
1 19 17 1 20 14 8 18 17 7 18 20 6 27 28 7 27 20 1 19 17 1 19 17 
1 19 17 1 19 17 1 19 17 7 27 20 7 27 20 7 18 20 7 18 20 7 27 24 
7 27 24 7 18 20 7 35 30 6 27 28 6 27 28 6 27 28 24 41 31 1 19 17 
7 27 20 7 27 20 7 27 24 7 27 24 6 27 28 1 19 17 7 27 24 7 27 24 
7 27 24 7 27 24 7 27 20 7 27 20 7 27 20 7 27 20 1 19 17 7 27 24 
7 35 30 6 27 28 7 35 30 6 27 28 6 27 28 6 27 28 7 27 20 1 19 17 
7 27 20 1 19 17 7 27 20 7 27 20 7 27 24 1 19 17 1 19 17 7 27 24 

7 73 121 6 52 136 6 73 141 6 73 141 6 73 141 7 52 116 7 52 116 7 73 121 
7 81 122 7 81 122 7 73 121 7 81 122 7 73 121 7 73 121 7 73 121 7 73 121 
6 80 137 6 80 137 6 80 137 6 80 137 6 73 141 6 80 137 6 80 137 6 73 141 
6 80 137 6 80 137 3 89 142 7 80 149 3 89 142 7 80 149 3 89 142 3 89 142 
6 89 150 6 89 150 6 89 150 6 89 150 6 89 150 7 80 149 7 80 149 3 89 142 
6 89 150 6 89 150 6 89 150 6 99 150 6 95 166 6 95 166 6 95 166 6 95 166 
6 95 166 6 89 150 6 89 150 7 80 149 6 73 141 7 80 149 6 89 150 6 99 150 
6 89 150 6 89 150 6 89 150 6 95 166 6 120 170 7 145 184 7 145 184 7 145 184 
7 145 184 7 145 184 43 185 193 43 185 193 93 191 199 128 189 167 156 195 167 156 195 167 
128 189 167 156 195 167 189 174 177 128 189 167 93 161 196 43 185 193 43 185 193 43 185 193 
93 191 199 128 189 216 156 186 216 156 186 216 128 189 216 128 189 216 93 191 199 43 185 193 
7 113 146 7 52 116 7 27 52 7 18 20 1 16 14 1 11 6 1 7 4 1 12 4 
0 9 4 1 6 4 0 9 4 1 4 4 0 9 4 0 6 3 1 7 4 4 12 4 
1 7 4 1 9 4 1 13 6 0 9 4 4 12 4 1 9 4 1 6 4 1 13 6 
5 19 6 2 19 6 1 11 6 1 8 8 10 18 10 1 19 10 1 16 14 1 19 10 
1 19 17 1 19 17 1 19 17 1 19 17 1 19 17 1 19 17 1 16 14 1 16 14 
1 9 6 2 15 5 1 13 6 1 13 6 1 13 6 1 9 6 1 9 6 1 16 14 
6 27 28 6 27 28 6 27 28 6 27 33 6 27 33 7 18 20 6 27 28 1 19 17 
1 16 14 1 8 8 1 11 6 2 15 5 2 19 6 1 13 6 1 11 6 4 12 4 
1 13 6 1 19 10 7 10 8 1 13 6 1 8 8 1 16 14 1 19 10 4 9 6 
1 19 10 1 19 10 10 18 10 8 18 14 1 16 14 1 19 10 1 16 14 5 19 10 
1 20 14 1 16 14 1 16 14 8 18 14 1 16 14 1 16 14 1 16 14 1 20 14 
1 16 14 1 20 14 1 16 14 1 20 14 10 18 10 1 16 14 1 20 14 1 16 14 
1 20 14 8 18 14 8 18 17 7 27 20 7 27 24 8 18 17 5 19 10 1 19 17 
1 16 14 6 27 12 7 27 20 1 19 17 7 27 20 1 19 17 1 19 17 1 19 17 
7 27 24 7 27 24 7 27 24 7 27 20 7 27 20 7 18 20 7 27 20 7 18 20 
1 19 17 1 19 17 7 27 20 1 19 17 7 18 20 7 18 20 7 27 20 1 19 17 
1 19 17 7 27 20 7 27 20 1 19 17 7 27 20 7 18 20 1 19 17 1 19 17 
1 19 17 7 27 20 7 27 20 1 19 17 7 18 20 7 27 20 7 27 20 1 19 17 
1 19 17 1 19 17 1 19 17 1 19 17 1 19 17 1 19 17 1 19 17 7 27 24 

7 81 122 7 113 146 27 121 132 43 121 139 7 99 141 6 73 141 3 89 142 6 73 141 
7 73 121 7 73 121 7 73 121 7 73 121 7 81 122 7 73 121 7 73 121 7 73 121 
7 73 121 7 73 121 6 73 141 7 73 121 6 80 137 6 80 137 6 80 137 6 73 141 
6 80 137 6 80 137 6 80 137 3 89 142 3 89 142 3 89 142 3 89 142 3 89 142 
6 99 150 6 99 150 6 89 150 6 89 150 6 89 150 6 89 150 7 80 149 7 80 149 
6 89 150 6 89 150 7 80 149 6 89 150 6 89 150 6 95 166 6 95 166 6 95 166 
6 95 166 6 89 150 6 95 166 6 95 166 6 89 150 6 73 141 6 73 141 7 80 149 
7 80 149 3 89 142 6 99 150 6 120 170 6 120 170 6 120 170 6 120 170 7 145 184 
7 145 184 7 145 184 7 145 184 7 145 184 6 201 200 43 185 193 93 191 199 128 189 167 
156 195 167 156 195 167 189 174 177 156 195 167 156 195 167 93 191 199 93 161 196 43 185 193 
93 161 196 93 161 196 128 189 216 156 186 216 156 186 216 156 186 216 156 186 216 128 189 216 
93 191 199 42 156 192 7 113 146 6 33 96 7 27 52 7 18 20 1 8 8 1 4 6 
1 7 4 0 9 4 1 11 6 0 4 3 0 9 4 0 4 3 1 7 4 0 6 3 
0 6 3 1 7 4 1 7 4 1 7 4 0 4 3 1 9 4 1 9 4 1 9 4 
0 9 4 1 8 8 1 13 6 1 8 8 1 19 10 1 8 8 1 16 14 1 16 14 
1 16 14 1 19 17 1 19 17 1 19 17 1 19 17 1 20 14 5 19 10 1 13 6 
1 11 6 4 9 6 10 18 10 1 9 6 4 9 6 1 9 6 1 13 6 1 16 14 
7 27 20 7 18 20 6 27 28 23 24 27 6 27 33 6 27 28 1 19 17 1 16 14 
1 19 10 1 11 6 1 8 8 2 15 5 1 4 6 1 11 6 1 9 6 2 15 5 
1 11 6 1 19 10 5 19 10 1 8 8 1 11 6 1 13 6 1 13 6 1 8 8 
1 13 6 7 10 8 6 27 12 10 18 10 1 16 14 1 20 14 1 16 14 1 16 14 
1 20 14 1 16 14 1 16 14 1 16 14 1 16 14 5 19 10 1 16 14 8 18 14 
8 18 14 1 16 14 10 18 10 1 16 14 1 16 14 1 13 6 1 19 10 1 16 14 
1 16 14 1 16 14 1 19 17 1 19 17 1 19 17 8 18 17 1 20 14 1 19 17 
1 20 14 1 16 14 1 19 17 8 18 17 1 19 17 7 27 20 7 27 20 7 27 20 
7 27 20 1 19 17 1 19 17 1 19 17 1 19 17 7 27 20 1 19 17 7 18 20 
7 18 20 7 27 20 24 23 9 1 19 17 7 18 20 1 19 17 7 27 20 7 27 20 
1 19 17 1 16 14 1 16 14 1 19 17 1 19 17 7 18 20 1 19 17 7 27 24 
7 27 24 1 19 17 1 19 17 1 19 17 1 16 14 1 19 17 1 19 17 1 19 17 
1 19 17 1 19 17 1 19 17 1 19 17 1 19 17 7 27 20 1 19 17 1 19 17 

7 99 141 7 99 141 6 99 150 7 99 141 42 120 116 88 132 124 198 196 136 94 154 160 
7 80 149 6 80 137 7 73 121 7 73 121 7 73 121 7 81 122 7 81 122 6 80 137 
7 81 122 7 73 121 7 73 121 6 80 137 6 80 137 6 80 137 6 80 137 6 80 137 
6 80 137 6 80 137 6 80 137 3 89 142 3 89 142 3 89 142 6 99 150 6 89 150 
6 89 150 6 99 150 6 89 150 6 89 150 6 99 150 6 99 150 6 89 150 6 99 150 
6 89 150 6 89 150 7 80 149 7 80 149 7 80 149 7 80 149 6 89 150 6 95 166 
6 95 166 6 95 166 6 95 166 6 95 166 6 95 166 6 89 150 7 80 149 7 80 149 
7 80 149 7 80 149 7 80 149 6 89 150 6 120 170 6 120 170 6 120 170 6 95 166 
6 120 170 6 120 170 6 120 170 7 145 184 7 145 184 7 145 184 6 201 200 43 185 193 
93 191 199 156 195 167 156 195 167 156 195 167 128 189 167 128 189 167 93 161 196 93 191 199 
93 191 199 128 189 167 156 186 216 156 186 216 93 191 199 128 189 216 197 198 212 156 186 216 
156 186 216 128 189 216 93 191 199 43 185 193 7 113 146 7 52 116 7 27 52 7 18 20 
1 8 8 1 6 4 0 9 4 1 7 4 0 6 3 1 7 4 0 6 3 0 9 4 
1 7 4 1 12 4 1 7 4 1 12 4 0 9 4 1 11 6 1 12 4 0 9 4 
1 6 4 4 10 4 1 11 6 1 11 6 1 13 6 1 8 8 1 13 6 1 19 10 
1 16 14 8 18 17 1 19 17 1 19 17 1 16 14 10 18 10 5 19 10 4 12 4 
10 10 6 1 13 6 1 11 6 1 9 6 4 12 4 1 13 6 5 19 6 1 19 10 
1 8 8 1 8 8 1 16 14 1 19 17 23 24 27 23 24 27 8 18 17 5 19 10 
1 9 6 1 4 6 1 13 6 1 13 6 1 11 6 1 13 6 2 15 5 1 13 6 
1 11 6 1 9 6 5 19 6 5 19 6 1 13 6 1 19 10 5 19 10 1 13 6 
1 13 6 10 18 10 10 18 10 1 16 14 1 16 14 5 19 10 7 10 8 5 19 10 
8 18 14 1 16 14 1 20 14 1 16 14 1 13 6 1 13 6 5 19 10 1 20 14 
7 10 8 10 18 10 1 16 14 1 16 14 1 19 10 1 19 10 5 19 10 1 19 10 
1 8 8 1 20 14 1 20 14 1 20 14 10 18 10 1 16 14 1 20 14 1 16 14 
1 16 14 1 16 14 7 27 20 1 20 14 1 19 17 1 19 17 7 18 20 1 19 17 
1 19 17 7 27 20 1 19 17 8 18 17 1 16 14 1 20 14 1 19 17 7 27 20 
1 19 17 6 27 12 1 20 14 1 19 17 1 19 17 7 27 20 1 19 17 7 18 20 
7 27 20 1 16 14 1 19 17 1 19 17 1 19 17 7 18 20 7 18 20 7 27 20 
7 27 24 1 19 17 1 19 17 1 19 17 1 19 17 7 27 20 7 27 20 1 19 17 
1 19 17 7 27 20 7 27 20 1 19 17 7 18 20 1 19 17 1 19 17 1 19 17 

7 113 146 7 99 141 3 89 142 7 81 122 7 75 102 7 52 116 88 132 154 94 154 160 
7 113 146 7 73 121 7 73 121 7 73 121 7 73 121 7 73 121 7 73 121 7 73 121 
7 73 121 6 80 137 6 80 137 6 80 137 6 80 137 7 73 121 6 80 137 6 80 137 
6 80 137 6 73 141 6 80 137 3 89 142 3 89 142 3 89 142 6 89 150 6 89 150 
6 89 150 6 99 150 6 89 150 6 89 150 6 89 150 6 89 150 6 89 150 6 89 150 
6 89 150 6 99 150 6 95 166 6 99 150 6 89 150 6 89 150 7 80 149 7 80 149 
7 80 149 6 89 150 6 89 150 6 95 166 6 95 166 6 95 166 6 89 150 7 80 149 
7 80 149 6 73 141 6 73 141 7 80 149 7 80 149 6 89 150 6 95 166 6 120 170 
6 120 170 6 99 150 6 95 166 6 120 170 6 120 170 7 145 184 7 145 184 7 145 184 
6 201 200 43 185 193 93 191 199 128 189 167 156 195 167 156 195 167 128 189 167 128 189 167 
128 189 167 128 189 167 128 189 167 156 186 216 156 186 216 156 186 216 197 198 212 197 198 212 
197 198 212 156 186 216 156 186 216 128 189 216 93 191 199 43 185 193 7 113 146 7 52 116 
7 27 52 7 18 20 1 8 8 1 7 4 1 7 4 0 9 4 1 7 4 0 6 3 
0 5 1 0 6 3 2 15 5 0 6 3 1 12 4 1 7 4 1 9 6 0 9 4 
1 12 4 1 13 6 1 7 4 1 11 6 1 9 6 7 10 8 1 11 6 1 19 10 
1 16 14 1 20 14 1 19 17 1 20 14 1 8 8 1 11 6 1 8 8 1 9 6 
1 8 8 25 6 4 1 11 6 1 13 6 1 11 6 1 13 6 1 8 8 1 19 10 
2 19 6 1 13 6 1 11 6 1 19 10 24 23 9 1 16 14 1 13 6 1 8 8 
1 9 6 5 19 6 1 13 6 1 13 6 1 11 6 1 13 6 1 8 8 1 9 6 
4 9 6 2 15 5 1 11 6 1 13 6 1 11 6 1 11 6 1 8 8 1 19 10 
1 16 14 5 19 10 1 16 14 8 18 14 5 19 10 1 19 10 1 13 6 1 13 6 
24 23 9 8 18 14 5 19 10 5 19 10 1 19 10 1 16 14 1 16 14 1 19 10 
6 8 10 1 11 6 1 8 8 1 20 14 1 16 14 5 19 10 1 16 14 1 16 14 
1 19 10 1 20 14 1 16 14 1 16 14 1 19 10 6 8 10 8 18 14 8 18 17 
1 16 14 1 16 14 1 19 17 1 19 17 1 20 14 8 18 17 7 27 20 7 27 20 
1 19 17 7 27 20 7 27 20 1 19 17 1 19 17 1 20 14 1 19 17 1 19 17 
1 19 17 1 16 14 1 19 17 1 19 17 23 24 27 1 19 17 1 20 14 1 19 17 
1 19 17 1 20 14 1 19 17 1 20 14 1 19 17 1 19 17 7 27 20 7 27 24 
1 19 17 1 19 17 7 27 20 1 19 17 1 19 17 7 27 20 7 18 20 1 19 17 
1 19 17 1 19 17 1 19 17 7 27 20 1 19 17 1 19 17 1 19 17 7 27 20 

7 99 141 7 99 141 7 99 141 7 113 119 7 59 103 7 59 103 7 59 103 7 52 116 
7 73 121 7 52 116 7 73 121 7 73 121 7 73 121 7 73 121 7 73 121 7 81 122 
7 73 121 7 73 121 6 80 137 7 73 121 7 73 121 7 73 121 7 73 121 6 80 137 
6 73 141 6 73 141 6 73 141 6 80 137 6 80 137 3 89 142 3 89 142 7 80 149 
6 89 150 6 89 150 6 89 150 6 89 150 6 89 150 6 99 150 6 89 150 6 89 150 
6 89 150 6 89 150 6 89 150 6 95 166 6 99 150 6 99 150 6 95 166 6 95 166 
7 80 149 6 89 150 6 73 141 6 73 141 6 73 141 6 89 150 6 95 166 6 95 166 
6 89 150 6 89 150 7 80 149 6 89 150 6 89 150 7 80 149 6 89 150 6 89 150 
6 89 150 6 89 150 6 89 150 6 95 166 6 120 170 6 120 170 7 145 184 7 145 184 
7 145 184 7 145 184 6 201 200 43 185 193 93 191 199 128 189 167 128 189 167 128 189 167 
128 189 167 128 189 167 128 189 167 128 189 167 128 189 167 128 189 216 128 189 167 128 189 216 
156 186 216 156 186 216 197 198 212 201 238 223 197 198 212 156 186 216 93 191 199 43 185 193 
7 113 146 7 52 116 4 8 47 7 18 20 6 8 10 1 8 8 0 4 3 0 4 3 
0 4 3 0 4 3 0 6 3 0 6 3 0 6 3 4 10 4 1 7 4 1 12 4 
1 12 4 1 12 4 1 4 4 1 6 4 4 12 4 1 11 6 1 11 6 1 19 10 
1 8 8 1 16 14 1 16 14 1 20 14 1 13 6 2 15 5 1 11 6 1 13 6 
2 15 5 1 9 6 1 9 6 1 11 6 1 11 6 2 15 5 1 13 6 1 13 6 
2 15 5 1 9 6 1 13 6 1 13 6 24 23 9 1 9 6 1 11 6 1 11 6 
4 9 6 1 13 6 2 15 5 1 11 6 4 9 6 10 18 5 1 11 6 1 13 6 
10 11 4 1 13 6 1 8 8 2 15 5 2 19 6 5 19 10 1 8 8 5 19 10 
1 20 14 5 19 10 1 13 6 1 19 10 10 18 10 5 19 10 1 19 10 1 19 10 
5 19 10 1 16 14 1 16 14 1 8 8 5 19 10 1 16 14 1 20 14 1 16 14 
1 16 14 1 8 8 1 8 8 1 19 10 1 13 6 1 19 10 1 16 14 1 19 10 
1 16 14 1 19 10 1 19 10 5 19 10 1 16 14 1 16 14 1 16 14 1 20 14 
1 20 14 1 19 17 1 19 17 8 18 17 8 18 17 1 20 14 1 19 17 1 19 17 
1 16 14 1 19 17 7 27 20 7 27 20 1 19 17 1 16 14 1 19 17 1 20 14 
1 20 14 8 18 14 1 19 17 1 19 17 24 23 9 1 16 14 1 20 14 6 27 12 
1 16 14 1 20 14 1 20 14 1 16 14 1 20 14 1 19 17 1 19 17 7 27 20 
23 24 27 1 19 17 8 18 17 1 19 17 1 19 17 1 19 17 1 19 17 1 19 17 
1 19 17 1 20 14 1 19 17 1 16 14 1 20 14 1 19 17 1 19 17 7 27 20 

6 73 141 6 80 137 7 99 141 7 73 121 7 52 116 7 59 103 7 59 103 7 59 103 
7 59 103 7 52 116 7 73 121 7 73 121 7 73 121 7 73 121 7 73 121 7 81 122 
7 73 121 7 73 121 7 73 121 7 73 121 7 73 121 7 73 121 7 73 121 6 80 137 
6 80 137 6 73 141 6 80 137 6 80 137 3 89 142 7 80 149 3 89 142 3 89 142 
6 89 150 6 89 150 6 89 150 6 89 150 6 89 150 6 99 150 6 99 150 6 99 150 
6 99 150 6 95 166 6 99 150 6 89 150 7 80 149 7 80 149 6 89 150 6 95 166 
6 95 166 6 89 150 7 80 149 7 80 149 7 80 149 3 89 142 6 89 150 7 80 149 
6 89 150 6 89 150 6 89 150 6 95 166 6 89 150 7 80 149 6 73 141 6 99 150 
7 113 146 6 99 150 6 95 166 6 89 150 6 95 166 6 95 166 6 120 170 6 120 170 
6 120 170 7 145 184 7 145 184 7 145 184 43 185 193 43 185 193 93 191 199 128 189 167 
128 189 167 128 189 167 128 189 167 128 189 167 128 189 167 128 189 167 128 189 167 128 189 167 
93 161 196 128 189 216 156 186 216 197 198 212 242 242 223 242 242 223 201 238 223 197 198 212 
128 189 216 42 156 192 7 113 146 7 52 116 7 27 52 7 18 20 1 8 8 1 6 4 
0 4 3 0 5 1 0 4 3 0 6 1 0 6 1 0 6 1 0 5 1 0 6 3 
2 10 2 1 9 4 0 9 4 0 4 3 1 6 4 4 12 4 2 15 5 1 13 6 
2 19 6 1 19 10 1 13 6 1 13 6 1 8 8 2 15 5 1 8 8 1 8 8 
2 15 5 1 9 6 10 18 5 2 15 5 10 18 10 1 8 8 1 13 6 1 11 6 
1 9 6 2 15 5 1 11 6 1 8 8 1 11 6 1 13 6 2 15 5 2 15 5 
1 9 4 2 19 6 1 11 6 1 13 6 1 13 6 1 11 6 2 15 5 1 13 6 
1 9 6 2 19 6 1 11 6 1 19 10 10 18 10 10 18 10 1 19 10 1 19 10 
5 19 10 10 18 10 1 13 6 1 9 6 1 8 8 2 15 5 1 13 6 1 13 6 
1 19 10 1 11 6 1 19 10 1 13 6 2 19 6 1 19 10 1 20 14 1 20 14 
1 19 10 1 20 14 6 27 12 1 19 10 1 8 8 1 13 6 1 19 10 1 16 14 
1 20 14 1 16 14 1 13 6 1 16 14 1 16 14 1 19 10 1 19 10 1 16 14 
1 16 14 1 16 14 1 16 14 8 18 14 1 19 17 1 19 17 1 20 14 1 16 14 
1 19 17 1 19 17 7 27 20 1 19 17 7 18 20 24 23 9 1 19 17 1 19 17 
1 16 14 1 19 17 1 19 17 1 19 17 1 19 17 1 19 17 1 20 14 1 20 14 
8 18 17 1 19 17 1 16 14 1 16 14 1 20 14 1 19 17 1 19 17 7 18 20 
7 27 20 1 19 17 1 19 17 1 19 17 1 20 14 1 19 17 1 19 17 1 19 17 
1 20 14 1 19 17 1 19 17 1 19 17 1 16 14 1 16 14 1 16 14 1 16 14 

7 73 121 7 52 116 7 73 121 7 73 121 7 73 121 7 59 103 7 48 95 7 59 103 
7 59 103 7 59 103 7 59 103 7 59 103 7 73 121 7 73 121 7 73 121 7 73 121 
7 73 121 7 73 121 7 81 122 7 73 121 7 73 121 7 73 121 7 73 121 6 80 137 
3 89 142 3 89 142 3 89 142 6 73 141 6 80 137 6 80 137 6 80 137 6 80 137 
3 89 142 6 73 141 3 89 142 6 99 150 6 89 150 6 89 150 6 89 150 6 99 150 
6 89 150 6 89 150 6 99 150 6 89 150 6 89 150 6 89 150 7 80 149 7 80 149 
7 80 149 6 89 150 6 89 150 6 89 150 6 89 150 7 80 149 6 89 150 6 99 150 
7 113 146 6 99 150 6 89 150 6 95 166 6 95 166 6 99 150 6 99 150 7 80 149 
7 80 149 6 99 150 6 120 170 27 163 154 6 95 166 7 80 149 6 95 166 6 99 150 
6 120 170 6 120 170 6 120 170 7 145 184 7 145 184 42 156 192 43 185 193 93 191 199 
93 191 199 128 189 167 128 189 167 128 189 167 128 189 167 128 189 167 128 189 167 128 189 167 
128 189 167 128 189 167 128 189 216 156 186 216 197 198 212 242 242 223 242 242 223 242 242 223 
225 208 211 197 198 212 128 189 216 93 161 196 43 121 169 6 33 96 4 8 47 7 18 20 
1 8 8 0 5 1 0 3 1 0 5 1 0 6 1 0 4 3 0 5 1 0 6 1 
0 6 1 0 4 3 0 4 3 0 6 1 1 6 4 1 9 6 1 7 4 0 4 3 
0 9 4 1 13 6 1 13 6 1 13 6 1 8 8 1 19 10 1 16 14 1 16 14 
1 19 10 1 8 8 1 9 6 1 8 8 1 19 10 1 8 8 1 11 6 2 15 5 
1 6 4 1 7 4 1 9 6 1 11 6 1 9 6 1 8 8 2 15 5 1 6 4 
0 9 4 1 11 6 1 11 6 1 13 6 1 11 6 1 13 6 1 11 6 1 13 6 
1 9 6 1 13 6 1 13 6 1 19 10 1 11 6 1 8 8 1 8 8 1 13 6 
1 13 6 2 15 5 2 15 5 5 19 6 1 9 6 1 13 6 5 19 6 1 8 8 
1 13 6 1 13 6 1 13 6 1 13 6 1 13 6 1 19 10 1 16 14 1 16 14 
1 19 10 1 16 14 1 16 14 1 19 10 1 13 6 2 15 5 1 13 6 1 8 8 
1 16 14 1 16 14 5 19 10 1 19 10 1 16 14 1 16 14 1 20 14 6 27 12 
1 16 14 1 16 14 1 16 14 8 18 17 1 19 17 8 18 17 1 19 17 1 16 14 
1 19 17 1 19 17 1 19 17 7 27 20 7 27 20 1 19 17 1 19 17 1 19 17 
1 20 14 1 16 14 8 18 17 24 23 9 8 18 17 8 18 14 6 8 10 6 27 12 
1 19 17 7 27 20 6 27 12 1 16 14 1 19 17 7 27 20 1 19 17 1 19 17 
1 19 17 7 27 20 7 27 20 1 19 17 1 20 14 1 19 17 1 19 17 1 16 14 
1 16 14 1 16 14 1 19 17 6 27 12 1 20 14 1 16 14 6 27 12 1 20 14 

7 73 121 7 59 103 7 59 103 7 73 121 7 73 121 7 59 103 7 59 103 7 59 103 
7 59 103 7 59 103 7 59 103 7 59 103 7 59 103 7 73 121 7 73 121 7 73 121 
7 73 121 7 73 121 7 73 121 7 73 121 7 73 121 7 73 121 7 73 121 7 73 121 
6 80 137 3 89 142 3 89 142 6 99 150 3 89 142 3 89 142 3 89 142 3 89 142 
3 89 142 6 80 137 7 80 149 7 80 149 3 89 142 6 99 150 6 89 150 6 89 150 
3 89 142 6 99 150 6 89 150 6 89 150 6 95 166 6 95 166 6 95 166 6 89 150 
7 80 149 3 89 142 6 73 141 6 73 141 6 89 150 3 89 142 6 89 150 7 80 149 
6 89 150 7 80 149 7 80 149 7 80 149 6 89 150 6 89 150 6 95 166 6 99 150 
6 89 150 7 80 149 6 89 150 6 120 170 27 163 154 6 120 170 6 99 150 6 89 150 
6 89 150 6 95 166 6 120 170 6 120 170 7 145 184 7 145 184 7 145 184 7 145 184 
42 156 192 93 191 199 93 191 199 93 191 199 128 189 167 93 191 199 93 191 199 93 191 199 
128 189 167 128 189 167 156 195 167 156 186 216 156 186 216 156 186 216 197 198 212 242 242 223 
242 242 223 242 242 223 225 208 211 197 198 212 156 186 216 93 161 196 6 99 150 6 33 96 
4 8 47 6 8 10 1 4 6 1 7 4 0 6 3 0 4 3 0 4 3 0 6 1 
0 5 1 0 6 3 4 12 4 0 6 3 1 6 4 1 6 4 0 9 4 0 11 2 
0 6 3 1 9 6 4 9 6 1 13 6 1 19 17 7 27 24 6 27 28 1 19 17 
1 16 14 1 20 14 1 11 6 1 7 4 1 9 6 1 9 6 1 7 4 0 9 4 
0 9 4 1 12 4 1 11 6 2 15 5 1 7 4 10 18 5 1 9 6 0 9 4 
1 7 4 2 15 5 1 11 6 4 12 4 4 12 4 1 8 8 1 9 6 1 8 8 
2 15 5 1 11 6 1 19 10 1 19 10 1 8 8 2 15 5 1 9 6 1 9 4 
1 11 6 1 11 6 1 13 6 10 18 5 1 11 6 1 13 6 2 15 5 1 11 6 
1 19 10 5 19 10 1 8 8 2 15 5 1 19 10 1 16 14 1 19 10 1 16 14 
10 18 10 1 19 10 1 13 6 1 13 6 1 11 6 5 19 10 1 19 10 1 13 6 
5 19 10 1 8 8 1 13 6 1 13 6 1 8 8 1 11 6 1 16 14 1 16 14 
1 16 14 1 20 14 1 20 14 1 19 17 7 27 20 7 18 20 7 27 20 7 27 20 
7 18 20 1 19 17 7 18 20 1 19 17 1 19 17 1 16 14 8 18 14 1 16 14 
1 20 14 1 16 14 1 19 17 1 19 17 1 19 17 1 20 14 1 20 14 1 16 14 
1 16 14 1 20 14 1 16 14 6 27 12 1 19 17 1 16 14 1 19 17 1 19 17 
1 19 17 7 27 20 7 27 20 1 16 14 1 16 14 1 16 14 1 16 14 8 18 14 
1 16 14 6 27 12 1 16 14 1 16 14 1 16 14 1 20 14 1 16 14 1 16 14 

7 59 103 7 59 103 7 59 103 7 59 103 7 59 103 7 75 102 7 59 103 7 59 103 
7 59 103 7 59 103 7 59 103 7 59 103 7 59 103 7 59 103 7 59 103 7 73 121 
7 52 116 7 73 121 7 73 121 7 73 121 7 73 121 7 73 121 7 73 121 7 73 121 
7 81 122 6 52 136 3 89 142 6 99 150 6 99 150 6 99 150 6 99 150 6 99 150 
3 89 142 3 89 142 3 89 142 6 73 141 6 73 141 3 89 142 3 89 142 6 99 150 
3 89 142 6 89 150 6 99 150 6 95 166 6 95 166 6 89 150 6 99 150 6 89 150 
6 99 150 6 99 150 6 73 141 6 73 141 6 73 141 6 73 141 6 73 141 3 89 142 
6 99 150 6 89 150 6 89 150 3 89 142 3 89 142 7 80 149 7 80 149 7 80 149 
3 89 142 3 89 142 7 80 149 7 80 149 6 89 150 7 113 146 6 89 150 7 113 146 
6 95 166 6 89 150 6 89 150 6 95 166 6 120 170 7 145 184 7 145 184 7 145 184 
7 145 184 7 145 184 43 185 193 93 191 199 93 191 199 93 191 199 93 161 196 93 191 199 
93 161 196 93 161 196 93 161 196 128 189 167 128 189 167 156 186 216 197 198 212 197 198 212 
225 208 211 242 242 223 242 253 234 242 242 223 225 208 211 155 221 218 128 189 216 93 161 196 
7 99 141 6 33 96 4 8 47 6 8 10 1 4 6 0 2 2 0 3 1 0 3 1 
0 3 1 2 6 2 2 6 2 0 6 1 0 6 1 0 5 1 0 4 3 0 4 3 
1 7 4 1 13 6 1 8 8 1 19 17 6 27 28 7 35 30 7 35 30 7 27 24 
1 19 17 24 23 9 1 19 10 1 7 4 2 15 5 1 7 4 0 9 4 1 7 4 
4 10 4 25 6 4 1 9 6 1 13 6 1 9 6 1 7 4 1 12 4 1 12 4 
1 7 4 2 15 5 1 8 8 1 9 6 1 13 6 1 12 4 1 8 8 1 13 6 
1 11 6 1 13 6 1 11 6 1 4 6 1 13 6 2 15 5 1 19 10 1 11 6 
1 11 6 1 13 6 1 9 6 1 11 6 2 15 5 2 15 5 1 13 6 1 19 10 
1 19 10 5 19 10 1 11 6 1 8 8 1 19 10 5 19 10 1 19 10 1 16 14 
1 19 10 1 19 10 1 19 10 7 10 8 1 19 10 5 19 10 1 13 6 1 16 14 
1 16 14 1 19 10 1 11 6 1 13 6 1 13 6 1 8 8 10 18 10 1 16 14 
1 16 14 1 19 10 1 16 14 1 16 14 1 16 14 1 19 17 7 18 20 7 18 20 
1 19 17 1 19 17 8 18 14 1 16 14 1 16 14 10 18 10 24 23 9 1 16 14 
10 18 10 1 16 14 1 16 14 7 27 20 1 19 17 1 20 14 1 16 14 1 19 10 
1 19 10 1 19 10 1 11 6 1 16 14 1 20 14 1 16 14 6 27 12 1 19 17 
1 19 17 6 27 12 1 16 14 1 16 14 6 27 12 1 20 14 1 20 14 1 16 14 
6 27 12 1 16 14 1 19 10 1 16 14 1 19 17 1 19 17 1 16 14 1 19 10 

7 52 116 7 59 103 7 59 103 7 48 95 7 75 102 7 59 103 7 59 103 7 75 102 
7 59 103 7 59 103 7 59 103 7 59 103 7 59 103 7 59 103 7 59 103 7 59 103 
7 75 102 7 73 121 7 73 121 7 73 121 7 73 121 7 73 121 7 73 121 7 73 121 
7 81 122 7 73 121 7 73 121 6 80 137 7 113 146 6 99 150 7 113 146 6 99 150 
6 89 150 3 89 142 3 89 142 6 80 137 3 89 142 6 80 137 3 89 142 3 89 142 
3 89 142 6 89 150 6 89 150 6 99 150 6 99 150 6 99 150 6 89 150 6 99 150 
6 95 166 6 95 166 7 113 146 7 80 149 6 73 141 3 89 142 6 73 141 6 73 141 
6 73 141 6 89 150 6 99 150 6 89 150 6 89 150 6 99 150 6 89 150 7 80 149 
6 80 137 7 80 149 6 73 141 3 89 142 3 89 142 3 89 142 3 89 142 6 89 150 
6 95 166 7 145 184 6 120 170 6 95 166 6 95 166 6 95 166 6 120 170 6 120 170 
7 145 184 7 145 184 7 145 184 42 156 192 42 156 192 93 191 199 128 189 167 93 191 199 
93 191 199 93 161 196 43 185 193 93 161 196 93 161 196 128 159 167 156 186 216 197 198 212 
225 208 211 225 208 211 242 242 223 242 242 223 242 242 223 225 208 211 197 198 212 155 221 218 
128 189 216 93 161 196 7 99 141 6 33 96 4 8 47 1 8 8 0 4 3 0 6 1 
0 4 3 0 2 2 0 3 1 0 5 1 0 6 1 0 3 1 0 6 3 0 6 3 
0 4 3 1 9 6 1 16 14 7 27 24 6 27 33 6 27 33 7 35 30 6 27 33 
7 27 24 1 16 14 5 19 10 10 10 6 1 7 4 4 10 4 2 15 5 0 9 4 
1 12 4 1 9 6 1 12 4 1 7 4 1 7 4 2 15 5 1 8 8 1 8 8 
2 15 5 1 8 8 5 19 6 2 15 5 4 12 4 1 9 6 10 11 4 2 19 6 
1 11 6 1 9 6 1 11 6 1 9 6 4 12 4 2 19 6 5 19 6 2 15 5 
1 13 6 1 11 6 2 15 5 5 19 6 1 11 6 4 9 6 1 13 6 10 10 6 
5 19 10 1 16 14 1 16 14 1 19 10 1 19 10 1 19 10 1 13 6 1 19 10 
5 19 10 1 13 6 1 19 10 8 18 14 1 19 10 1 8 8 1 19 10 1 20 14 
1 20 14 1 20 14 7 10 8 1 11 6 5 19 6 1 8 8 1 19 10 1 16 14 
1 16 14 1 13 6 5 19 10 1 20 14 8 18 14 7 18 20 7 27 20 1 19 17 
8 18 14 1 16 14 1 16 14 1 19 10 1 16 14 1 19 10 1 16 14 1 16 14 
1 19 10 8 18 14 1 16 14 1 16 14 1 16 14 1 16 14 1 16 14 5 19 10 
1 16 14 1 19 10 2 19 6 1 16 14 1 16 14 1 16 14 1 16 14 1 16 14 
1 19 17 1 19 17 6 27 12 1 20 14 1 16 14 1 19 17 1 16 14 1 19 17 
1 16 14 1 19 10 1 16 14 1 16 14 8 18 17 1 20 14 1 16 14 1 16 14 

57 121 132 6 80 137 7 52 116 7 59 103 7 59 103 7 75 102 7 75 102 7 59 103 
7 59 103 7 59 103 7 59 103 7 59 103 7 59 103 7 59 103 7 59 103 7 59 103 
7 59 103 7 59 103 7 59 103 7 59 103 7 52 116 7 73 121 7 73 121 7 73 121 
7 73 121 7 73 121 7 73 121 6 80 137 3 89 142 3 89 142 6 99 150 6 99 150 
6 89 150 6 80 137 6 80 137 6 80 137 6 80 137 6 80 137 3 89 142 3 89 142 
6 80 137 3 89 142 6 89 150 6 89 150 6 89 150 6 89 150 6 89 150 6 95 166 
6 95 166 6 99 150 6 99 150 6 95 166 6 89 150 7 80 149 7 80 149 3 89 142 
6 80 137 6 73 141 6 120 170 56 162 154 6 95 166 6 95 166 6 95 166 6 99 150 
6 99 150 6 89 150 7 80 149 3 89 142 6 80 137 6 80 137 6 80 137 7 80 149 
6 89 150 6 89 150 6 95 166 6 120 170 6 120 170 6 95 166 6 89 150 6 89 150 
6 95 166 6 120 170 6 120 170 7 145 184 7 145 184 7 145 184 42 156 192 93 191 199 
128 189 167 128 189 167 93 191 199 43 185 193 93 161 196 93 161 196 93 161 196 128 159 167 
197 198 212 242 242 223 201 238 223 201 238 223 201 238 223 225 208 211 225 208 211 197 198 212 
197 198 212 156 186 216 128 189 216 56 162 154 6 80 137 7 29 75 7 18 20 1 8 8 
0 9 4 0 3 1 0 5 1 0 6 1 0 3 1 1 1 0 0 5 1 0 11 2 
0 6 3 0 9 4 1 16 14 6 27 28 6 27 33 7 34 46 24 41 31 7 35 30 
6 27 28 1 19 17 1 16 14 10 10 6 0 9 4 0 6 3 1 12 4 1 11 6 
1 9 4 1 12 4 0 9 4 4 8 4 4 10 4 1 13 6 24 23 9 2 15 5 
10 11 4 4 12 4 1 4 6 2 15 5 1 9 6 1 11 6 1 9 6 10 11 4 
1 13 6 1 9 4 4 8 4 1 11 6 4 9 6 1 7 4 1 11 6 1 8 8 
5 19 6 7 10 8 5 19 6 1 11 6 10 18 10 1 13 6 2 19 6 2 15 5 
1 19 10 1 16 14 5 19 10 1 19 10 1 13 6 1 13 6 5 19 10 1 16 14 
5 19 10 1 19 10 1 19 10 1 19 10 1 19 10 1 19 10 5 19 6 1 16 14 
1 19 17 1 20 14 1 16 14 1 13 6 1 16 14 1 19 10 2 15 5 1 19 10 
1 13 6 1 16 14 1 19 10 1 20 14 1 16 14 1 19 17 1 19 17 8 18 14 
1 16 14 1 16 14 5 19 10 1 16 14 5 19 10 1 19 10 1 16 14 1 19 10 
1 11 6 1 19 10 1 19 10 1 19 10 6 8 10 1 16 14 1 16 14 1 20 14 
1 19 10 1 19 10 1 8 8 5 19 10 1 11 6 1 19 10 1 16 14 1 20 14 
1 20 14 1 19 17 1 19 17 1 16 14 6 27 12 1 19 17 1 19 17 1 19 17 
1 16 14 1 16 14 1 16 14 1 16 14 1 19 10 1 16 14 1 19 10 1 20 14 

94 154 160 126 172 135 94 154 160 58 82 117 7 59 103 7 59 103 7 59 103 7 96 112 
7 73 121 7 52 116 7 113 119 7 73 121 7 59 103 7 73 121 7 59 103 7 59 103 
7 59 103 7 59 103 7 59 103 7 59 103 7 59 103 7 73 121 7 73 121 7 73 121 
7 73 121 7 73 121 7 73 121 7 99 141 3 89 142 3 89 142 3 89 142 6 89 150 
3 89 142 3 89 142 3 89 142 7 80 149 6 73 141 3 89 142 6 80 137 3 89 142 
3 89 142 3 89 142 6 89 150 6 89 150 3 89 142 6 89 150 6 99 150 6 95 166 
6 99 150 6 99 150 6 95 166 6 95 166 6 99 150 6 99 150 6 89 150 6 89 150 
6 99 150 7 80 149 7 80 149 43 121 169 56 162 154 6 120 170 6 95 166 6 95 166 
6 120 170 6 120 170 6 95 166 6 89 150 3 89 142 6 80 137 3 89 142 6 89 150 
6 89 150 3 89 142 6 89 150 6 89 150 6 95 166 6 89 150 6 95 166 6 89 150 
6 89 150 6 89 150 6 99 150 6 120 170 6 120 170 6 120 170 6 120 170 7 145 184 
93 161 196 128 189 167 128 189 167 93 191 199 93 191 199 93 161 196 128 189 167 93 161 196 
128 159 167 197 198 212 201 238 223 201 238 223 225 208 211 197 198 212 225 208 211 201 238 223 
225 208 211 197 198 212 156 186 216 128 189 216 93 191 199 56 162 154 7 73 121 4 8 47 
6 8 10 1 4 6 0 4 3 0 5 1 0 3 1 0 2 0 2 6 2 0 4 3 
2 6 2 1 6 4 1 16 14 6 27 28 6 27 33 7 41 43 7 35 30 6 27 33 
6 27 33 7 27 20 1 13 6 4 5 4 0 4 3 0 6 3 1 7 4 0 9 4 
0 6 3 1 7 4 0 9 4 1 9 4 1 6 4 0 9 4 1 11 6 1 9 6 
1 4 4 1 9 6 1 13 6 1 11 6 1 9 4 1 7 4 4 10 4 1 9 4 
1 7 4 4 12 4 7 7 4 2 15 5 0 9 4 1 13 6 4 9 6 1 7 4 
1 11 6 1 8 8 2 15 5 1 8 8 1 16 14 1 16 14 5 19 10 1 13 6 
1 13 6 1 11 6 10 18 10 2 19 6 1 13 6 1 8 8 5 19 10 10 18 10 
1 11 6 10 10 6 7 10 8 1 16 14 1 13 6 5 19 10 1 16 14 24 23 9 
8 18 14 1 16 14 1 19 10 1 16 14 1 16 14 1 19 10 1 11 6 1 13 6 
1 11 6 1 19 10 1 16 14 1 20 14 1 20 14 1 16 14 1 20 14 1 16 14 
1 16 14 1 16 14 1 13 6 1 11 6 24 23 9 5 19 10 10 18 10 1 19 10 
1 8 8 1 16 14 1 8 8 1 19 10 1 19 10 5 19 10 1 19 10 1 19 10 
1 8 8 5 19 6 2 15 5 1 19 10 1 11 6 1 13 6 5 19 10 1 20 14 
6 27 12 1 16 14 1 20 14 1 16 14 1 19 17 1 19 17 1 20 14 1 16 14 
6 27 12 1 20 14 1 20 14 1 16 14 7 10 8 10 10 6 1 8 8 1 13 6 

88 132 154 94 154 160 156 159 166 126 172 135 57 121 132 6 80 137 7 81 122 7 73 121 
7 73 121 7 73 121 7 113 119 7 81 122 7 81 122 7 73 121 7 73 121 7 73 121 
7 73 121 7 73 121 7 73 121 7 59 103 7 59 103 7 59 103 7 59 103 7 75 102 
7 59 103 7 73 121 7 73 121 3 89 142 7 99 141 7 99 141 6 99 150 3 89 142 
6 99 150 6 99 150 6 99 150 7 113 146 6 89 150 3 89 142 3 89 142 3 89 142 
3 89 142 3 89 142 3 89 142 3 89 142 3 89 142 3 89 142 6 89 150 7 80 149 
6 99 150 6 95 166 6 95 166 6 95 166 6 95 166 6 99 150 6 120 170 27 163 154 
6 99 150 6 99 150 6 99 150 6 95 166 6 95 166 6 120 170 6 95 166 6 95 166 
6 120 170 6 120 170 6 120 170 6 95 166 6 99 150 6 89 150 6 99 150 6 89 150 
6 99 150 6 89 150 6 89 150 3 89 142 6 89 150 6 89 150 6 95 166 6 89 150 
6 89 150 3 89 142 7 80 149 6 89 150 6 95 166 6 95 166 6 120 170 6 120 170 
6 120 170 7 145 184 93 191 199 128 189 167 128 189 167 128 189 167 128 189 167 128 189 167 
128 159 167 128 159 167 156 186 216 201 238 223 201 238 223 242 242 223 225 208 211 225 208 211 
225 208 211 197 198 212 197 198 212 197 198 212 156 186 216 128 189 216 93 161 196 43 121 139 
7 48 95 4 8 47 1 16 14 1 4 6 0 3 1 0 5 1 0 6 1 0 6 1 
0 4 3 1 8 8 1 16 14 1 19 17 23 24 27 6 27 33 6 27 33 7 35 30 
6 27 33 1 19 17 1 9 6 1 12 4 4 8 4 2 10 2 1 6 4 10 11 4 
2 15 5 0 6 3 4 10 4 1 13 6 1 12 4 1 12 4 1 7 4 1 11 6 
1 9 4 4 9 6 2 15 5 1 9 6 1 9 4 0 9 4 4 12 4 0 9 4 
2 15 5 1 12 4 4 9 6 1 13 6 1 11 6 1 13 6 1 13 6 1 13 6 
1 11 6 1 11 6 7 10 8 1 13 6 1 19 10 5 19 10 5 19 10 5 19 6 
1 13 6 1 13 6 1 11 6 1 13 6 1 8 8 1 19 10 1 19 10 7 10 8 
1 8 8 1 13 6 2 19 6 1 8 8 10 18 10 1 16 14 1 20 14 1 20 14 
1 16 14 1 19 10 2 19 6 1 13 6 2 15 5 1 11 6 1 13 6 5 19 6 
1 11 6 1 19 10 1 13 6 10 18 10 1 16 14 5 19 10 5 19 10 1 16 14 
1 20 14 1 16 14 1 11 6 2 15 5 1 13 6 1 13 6 1 16 14 5 19 10 
1 8 8 1 16 14 1 20 14 1 8 8 1 19 10 1 8 8 1 13 6 5 19 10 
1 13 6 2 19 6 1 13 6 10 18 10 1 8 8 1 19 10 1 19 10 1 8 8 
1 20 14 1 16 14 1 19 17 1 19 17 1 19 17 1 16 14 1 20 14 1 16 14 
1 16 14 1 20 14 1 16 14 1 11 6 1 13 6 1 13 6 1 13 6 2 15 5 

88 132 124 88 132 154 128 159 167 128 159 167 147 177 131 126 172 135 88 132 154 7 99 141 
7 96 112 7 99 141 7 81 122 7 73 121 7 81 122 7 96 112 7 99 141 7 99 141 
7 99 141 7 99 141 6 73 141 7 52 116 7 59 103 7 59 103 7 59 103 7 59 103 
7 59 103 7 73 121 6 80 137 57 121 132 7 99 141 6 80 137 3 89 142 7 99 141 
7 113 146 7 113 146 6 99 150 7 113 146 6 99 150 3 89 142 3 89 142 7 99 141 
7 99 141 6 80 137 3 89 142 7 80 149 6 80 137 6 80 137 3 89 142 7 80 149 
6 89 150 6 89 150 6 95 166 6 95 166 6 95 166 6 95 166 6 95 166 6 95 166 
6 99 150 6 89 150 6 95 166 6 95 166 6 95 166 6 95 166 6 95 166 6 120 170 
6 95 166 6 95 166 6 120 170 6 120 170 6 120 170 6 120 170 6 99 150 6 99 150 
6 99 150 6 89 150 7 80 149 6 89 150 3 89 142 7 80 149 3 89 142 6 89 150 
6 99 150 6 89 150 7 80 149 6 89 150 6 89 150 6 89 150 6 99 150 6 95 166 
6 95 166 6 120 170 6 120 170 7 145 184 93 161 196 93 191 199 93 191 199 128 189 167 
128 189 167 128 189 167 128 189 167 156 186 216 156 186 216 201 238 223 242 242 223 242 242 223 
242 242 223 242 214 215 225 208 211 225 208 211 197 198 212 156 186 216 156 186 216 128 189 216 
93 181 160 7 113 146 7 48 95 4 8 47 1 8 8 1 4 4 0 3 1 0 3 1 
1 7 4 1 20 14 1 19 17 1 19 17 7 18 20 1 16 14 1 19 17 7 35 30 
1 19 17 1 8 8 0 9 4 0 11 2 0 4 3 0 9 4 0 6 3 0 6 3 
2 10 2 0 9 4 1 9 4 1 7 4 4 8 4 1 7 4 1 9 4 1 7 4 
0 11 2 4 8 4 10 18 5 1 6 4 1 12 4 1 12 4 1 7 4 1 12 4 
1 12 4 1 7 4 1 9 4 0 9 4 1 7 4 1 9 6 1 13 6 1 6 4 
1 7 4 1 12 4 1 12 4 1 11 6 1 11 6 2 15 5 1 9 6 2 15 5 
1 13 6 7 10 8 10 18 10 6 8 10 1 13 6 2 15 5 4 9 6 1 9 6 
2 19 6 1 13 6 1 11 6 1 8 8 1 8 8 1 20 14 1 16 14 1 16 14 
2 15 5 1 11 6 1 11 6 1 11 6 4 12 4 1 11 6 2 15 5 1 8 8 
2 19 6 2 15 5 7 10 8 1 11 6 1 13 6 10 18 10 10 18 10 1 19 10 
1 16 14 1 16 14 1 19 10 1 13 6 2 19 6 1 8 8 5 19 10 1 16 14 
1 8 8 1 16 14 1 16 14 5 19 10 10 18 10 2 19 6 1 19 10 5 19 10 
10 18 10 1 13 6 1 13 6 1 19 10 5 19 6 1 19 10 1 13 6 1 16 14 
1 16 14 1 20 14 1 16 14 1 19 17 1 19 17 1 20 14 1 16 14 5 19 10 
1 19 10 1 8 8 5 19 10 1 8 8 1 19 10 5 19 10 1 11 6 1 13 6 

57 121 132 88 132 124 126 145 132 94 154 160 128 159 167 128 159 167 128 159 167 57 121 132 
6 80 137 7 96 112 7 96 112 7 81 122 7 73 121 7 81 122 27 121 132 7 113 146 
7 113 146 94 154 160 126 172 135 88 132 154 7 99 141 7 73 121 7 73 121 7 73 121 
7 52 116 7 52 116 6 80 137 56 162 154 7 113 146 3 89 142 3 89 142 3 89 142 
3 89 142 3 89 142 7 99 141 3 89 142 3 89 142 7 113 146 7 99 141 6 80 137 
6 80 137 6 80 137 6 73 141 3 89 142 6 80 137 6 80 137 6 80 137 7 80 149 
6 73 141 3 89 142 7 80 149 6 89 150 6 89 150 6 99 150 6 95 166 6 95 166 
6 89 150 7 80 149 6 99 150 6 120 170 6 95 166 6 95 166 6 95 166 6 120 170 
6 95 166 6 120 170 6 95 166 6 120 170 6 95 166 6 95 166 6 120 170 6 95 166 
6 95 166 6 95 166 6 89 150 6 89 150 6 89 150 7 80 149 6 80 137 3 89 142 
3 89 142 6 73 141 6 73 141 3 89 142 3 89 142 6 89 150 6 99 150 6 99 150 
6 89 150 6 95 166 6 120 170 6 120 170 7 145 184 7 145 184 43 185 193 93 191 199 
128 189 167 156 195 167 156 195 167 156 159 166 156 159 166 189 174 177 197 198 212 201 238 223 
242 242 223 242 242 223 242 242 223 242 242 223 225 208 211 225 208 211 197 198 212 156 186 216 
128 189 216 93 191 199 42 156 192 7 99 141 6 33 96 4 8 47 1 8 8 1 4 4 
1 9 6 1 16 14 1 19 17 1 20 14 1 16 14 1 11 6 1 16 14 1 8 8 
0 9 4 0 9 4 2 6 2 0 4 3 2 10 2 1 7 4 0 6 3 0 6 1 
0 4 3 0 4 3 2 6 3 0 4 3 15 7 5 1 7 4 10 18 5 1 11 6 
5 9 2 1 7 4 4 10 4 1 12 4 1 9 4 1 11 6 1 7 4 0 9 4 
1 4 4 1 7 4 4 8 4 0 11 2 1 4 4 1 12 4 4 9 6 0 9 4 
0 9 4 1 6 4 1 9 4 2 15 5 1 13 6 1 9 6 1 12 4 1 11 6 
1 9 6 4 9 6 1 11 6 1 11 6 5 19 6 5 19 10 1 19 10 1 13 6 
2 15 5 1 13 6 1 9 6 2 19 6 5 19 10 5 19 10 1 19 10 1 8 8 
1 13 6 1 9 4 1 9 6 1 9 6 4 9 6 1 9 6 1 13 6 2 15 5 
1 11 6 1 13 6 10 18 10 1 11 6 1 9 6 4 9 6 2 15 5 10 18 10 
7 10 8 1 19 10 5 19 10 1 13 6 1 13 6 1 11 6 1 13 6 5 19 10 
10 18 10 10 18 10 5 19 10 6 8 10 10 18 10 1 8 8 1 19 10 5 19 10 
10 18 10 1 11 6 1 11 6 10 18 10 2 19 6 1 11 6 1 13 6 1 19 10 
1 16 14 1 20 14 1 16 14 1 16 14 1 20 14 1 20 14 5 19 10 1 16 14 
1 19 10 1 19 10 7 10 8 1 11 6 1 13 6 2 19 6 24 23 9 2 15 5 

43 121 139 63 108 116 88 132 124 94 154 160 128 159 167 156 195 167 156 195 167 126 172 135 
88 132 154 27 78 145 6 80 137 7 99 141 7 73 121 7 73 121 7 99 141 43 121 139 
56 162 154 94 154 160 94 154 160 128 189 167 93 181 160 3 89 142 3 89 142 7 99 141 
7 113 119 7 81 122 6 80 137 27 121 132 27 163 154 27 163 154 7 126 130 7 113 146 
6 80 137 7 73 121 7 73 121 6 80 137 6 80 137 6 80 137 3 89 142 3 89 142 
6 80 137 6 80 137 3 89 142 6 80 137 6 80 137 3 89 142 6 80 137 6 80 137 
3 89 142 6 73 141 6 73 141 7 80 149 3 89 142 3 89 142 6 89 150 7 113 146 
6 99 150 6 89 150 6 73 141 6 89 150 56 162 154 43 121 169 6 120 170 6 120 170 
6 120 170 6 120 170 6 120 170 6 120 170 6 120 170 6 120 170 6 120 170 6 120 170 
43 121 169 88 132 154 6 95 166 6 99 150 6 99 150 6 89 150 3 89 142 3 89 142 
3 89 142 6 80 137 3 89 142 6 80 137 6 73 141 6 99 150 6 89 150 6 99 150 
6 99 150 6 120 170 6 120 170 6 120 170 6 120 170 6 120 170 6 120 170 7 145 184 
42 156 192 128 189 167 156 195 167 156 195 167 189 174 177 189 174 177 189 174 177 197 198 212 
225 208 211 225 208 211 225 208 211 242 242 223 242 242 223 242 242 223 225 208 211 197 198 212 
197 198 212 197 198 212 156 186 216 93 191 199 56 162 154 6 80 137 7 29 75 4 8 47 
1 16 14 1 16 14 1 16 14 1 8 8 1 8 8 0 9 4 1 12 4 0 4 3 
0 2 2 0 6 1 0 5 1 0 3 1 0 4 3 0 6 3 0 5 1 0 6 3 
0 6 1 0 6 1 1 9 4 0 9 4 0 6 3 2 10 2 1 6 4 4 12 4 
1 7 4 1 6 4 1 12 4 1 7 4 1 7 4 1 9 4 1 13 6 1 9 4 
1 9 4 10 11 4 4 8 4 10 18 5 1 6 4 1 9 6 1 13 6 1 13 6 
1 9 6 1 11 6 4 10 4 1 13 6 1 12 4 1 11 6 4 12 4 4 12 4 
1 11 6 1 11 6 1 11 6 1 11 6 1 13 6 1 19 10 1 8 8 1 11 6 
1 19 10 10 18 10 1 19 10 1 19 10 1 16 14 1 13 6 1 19 10 1 19 10 
4 12 4 1 9 6 2 15 5 1 11 6 2 15 5 1 9 6 2 15 5 1 11 6 
5 19 6 1 11 6 1 19 10 1 13 6 1 11 6 1 9 6 1 19 10 1 11 6 
7 10 8 1 13 6 1 13 6 5 19 6 1 11 6 1 13 6 5 19 6 1 8 8 
5 19 10 5 19 10 1 19 10 1 13 6 5 19 10 1 16 14 1 19 10 6 8 10 
5 19 6 1 8 8 2 15 5 10 18 10 1 19 10 1 13 6 1 8 8 1 19 10 
1 19 10 1 16 14 1 16 14 5 19 10 1 19 10 1 13 6 1 13 6 1 13 6 
1 11 6 1 11 6 4 9 6 1 12 4 2 15 5 2 19 6 1 11 6 1 13 6 

88 132 154 6 73 141 88 132 124 88 132 154 126 172 135 143 150 131 94 154 160 126 172 135 
147 177 131 126 172 135 88 132 124 147 177 131 88 132 124 7 81 122 29 95 109 43 121 139 
56 162 154 128 159 167 94 154 160 94 154 160 128 159 167 126 172 135 43 121 139 27 121 132 
27 121 132 27 121 132 7 99 141 3 89 142 6 73 141 3 89 142 7 113 146 6 99 150 
7 81 122 7 73 121 7 81 122 3 89 142 7 73 121 6 80 137 6 80 137 6 80 137 
3 89 142 3 89 142 3 89 142 6 80 137 6 80 137 6 80 137 3 89 142 6 80 137 
3 89 142 3 89 142 6 80 137 6 80 137 6 73 141 6 80 137 3 89 142 6 99 150 
27 163 154 6 120 170 7 113 146 6 73 141 6 89 150 56 162 154 94 154 160 6 120 170 
6 95 166 6 120 170 6 95 166 6 120 170 6 120 170 6 120 170 6 120 170 6 120 170 
6 95 166 93 181 160 93 181 160 6 95 166 6 95 166 6 95 166 6 120 170 6 99 150 
6 89 150 3 89 142 7 80 149 3 89 142 3 89 142 7 80 149 6 99 150 6 99 150 
6 99 150 6 99 150 6 95 166 6 95 166 6 120 170 6 120 170 6 120 170 6 120 170 
6 120 170 7 145 184 42 156 192 128 189 167 156 195 167 189 174 177 189 174 177 189 174 177 
198 212 189 225 208 211 225 208 211 225 208 211 242 214 215 242 242 223 242 253 234 242 242 223 
242 214 215 225 208 211 197 198 212 156 186 216 128 189 216 93 191 199 42 156 192 58 82 117 
7 29 75 4 8 47 1 8 8 0 4 3 0 4 3 4 5 4 0 3 1 0 5 1 
0 4 3 0 6 1 0 6 1 0 5 1 0 4 3 0 5 1 0 5 1 0 3 1 
0 6 1 0 5 1 0 4 3 1 7 4 1 7 4 0 6 3 0 11 2 1 9 4 
0 9 4 4 8 4 1 7 4 1 12 4 1 6 4 1 4 4 5 9 2 0 9 4 
0 4 3 1 7 4 0 9 4 1 11 6 10 18 5 1 11 6 24 23 9 2 15 5 
2 15 5 1 9 6 1 11 6 1 7 4 1 6 4 4 12 4 1 7 4 2 15 5 
1 11 6 2 15 5 1 11 6 1 9 6 2 15 5 1 13 6 1 9 6 1 9 6 
1 13 6 7 10 8 1 19 10 1 13 6 2 19 6 1 8 8 5 19 10 1 16 14 
2 15 5 1 4 6 2 15 5 1 13 6 1 19 10 1 13 6 1 9 6 1 11 6 
2 15 5 1 13 6 1 13 6 1 8 8 1 13 6 10 18 10 10 18 10 1 8 8 
1 13 6 1 9 6 4 9 6 1 13 6 1 11 6 2 15 5 2 15 5 1 13 6 
1 19 10 1 19 10 1 13 6 1 11 6 1 11 6 1 16 14 1 19 10 5 19 10 
1 13 6 2 15 5 1 11 6 7 10 8 5 19 10 1 19 10 10 18 10 1 16 14 
1 19 10 1 19 10 1 19 10 1 19 10 1 13 6 1 11 6 1 11 6 1 11 6 
7 10 8 1 13 6 1 13 6 1 11 6 4 9 6 1 19 10 1 19 10 2 19 6 

88 132 124 43 121 139 126 145 104 57 121 132 126 145 132 126 145 132 88 132 154 57 121 132 
6 80 137 29 95 109 27 121 132 57 121 132 27 121 132 7 59 103 7 75 102 57 121 132 
56 162 154 56 162 154 88 132 154 56 162 154 88 132 154 94 154 160 94 154 160 57 121 132 
27 121 132 27 121 132 43 121 139 43 121 139 3 89 142 6 80 137 27 121 132 43 121 139 
27 78 145 7 73 121 7 81 122 7 73 121 7 73 121 7 81 122 6 80 137 6 80 137 
6 80 137 6 80 137 6 80 137 6 80 137 6 73 141 6 80 137 6 80 137 6 80 137 
6 80 137 3 89 142 3 89 142 3 89 142 6 80 137 6 80 137 3 89 142 7 80 149 
7 80 149 6 99 150 6 120 170 6 89 150 3 89 142 7 80 149 6 99 150 27 163 154 
6 120 170 6 120 170 7 113 146 6 99 150 6 120 170 6 120 170 6 120 170 6 120 170 
6 120 170 6 95 166 6 120 170 6 120 170 93 181 160 128 159 167 43 121 169 6 95 166 
6 99 150 6 99 150 6 89 150 7 80 149 6 89 150 6 89 150 7 80 149 6 89 150 
6 99 150 6 89 150 6 99 150 6 99 150 6 99 150 6 95 166 6 95 166 6 120 170 
6 120 170 7 145 184 7 145 184 6 120 170 42 156 192 128 189 167 189 174 177 210 180 169 
210 180 169 210 180 169 198 212 189 225 208 211 197 198 212 197 198 212 225 208 211 242 242 223 
242 253 234 242 242 223 242 214 215 242 242 223 197 198 212 156 186 216 128 189 216 93 191 199 
43 121 169 7 52 116 4 8 47 6 8 10 1 4 6 0 2 2 0 5 1 0 4 3 
0 3 1 24 23 9 2 4 2 0 4 3 2 6 2 0 4 3 0 3 1 0 5 1 
0 4 3 0 6 1 0 9 4 1 12 4 0 9 4 0 6 3 0 9 4 0 4 3 
0 4 3 1 12 4 1 9 4 4 12 4 1 4 4 1 9 4 1 7 4 0 6 3 
1 7 4 0 4 3 4 10 4 0 9 4 1 6 4 1 9 4 1 9 6 1 9 6 
1 13 6 1 13 6 10 11 4 10 18 5 10 11 4 1 7 4 4 12 4 1 9 6 
1 7 4 1 9 4 1 9 6 1 11 6 1 9 6 1 8 8 1 13 6 4 9 6 
1 11 6 1 8 8 10 18 10 24 23 9 1 19 10 1 11 6 1 19 10 1 16 14 
1 13 6 1 13 6 1 13 6 1 13 6 1 13 6 1 11 6 4 9 6 2 15 5 
1 13 6 7 10 8 4 9 6 1 13 6 1 13 6 10 18 10 5 19 10 1 13 6 
1 8 8 5 19 6 2 15 5 2 15 5 24 23 9 1 9 6 1 11 6 1 8 8 
1 13 6 1 8 8 5 19 10 2 15 5 1 13 6 5 19 10 1 19 10 1 13 6 
1 9 6 1 11 6 2 15 5 5 19 10 1 13 6 1 8 8 1 13 6 1 19 10 
1 16 14 1 19 10 1 13 6 1 19 10 2 19 6 5 19 10 5 19 6 2 19 6 
1 11 6 1 19 10 1 19 10 5 19 10 5 19 10 1 19 10 1 19 10 1 19 10 

63 108 116 27 78 145 57 82 141 57 121 132 88 132 124 143 150 131 143 150 131 126 145 132 
23 120 116 7 59 103 7 59 103 7 59 103 7 52 116 7 48 95 7 59 103 7 81 122 
27 121 132 7 113 146 7 113 146 3 89 142 43 121 139 94 154 160 56 162 154 43 121 139 
43 121 139 88 132 124 43 121 139 57 121 132 23 120 116 3 89 142 7 99 141 27 78 145 
65 150 115 57 121 132 7 73 121 7 73 121 7 73 121 7 81 122 6 80 137 3 89 142 
3 89 142 7 99 141 6 80 137 6 80 137 6 80 137 6 80 137 6 80 137 6 80 137 
6 80 137 3 89 142 3 89 142 3 89 142 3 89 142 3 89 142 3 89 142 3 89 142 
3 89 142 3 89 142 7 113 146 27 163 154 7 113 146 7 113 146 6 99 150 6 89 150 
3 89 142 7 126 130 7 113 146 7 113 146 6 120 170 6 120 170 6 120 170 6 120 170 
6 95 166 6 99 150 6 99 150 6 95 166 6 95 166 43 121 169 56 162 154 6 120 170 
6 89 150 7 113 146 6 120 170 6 99 150 6 99 150 7 80 149 7 80 149 6 89 150 
7 80 149 3 89 142 3 89 142 3 89 142 3 89 142 6 99 150 6 95 166 6 120 170 
6 95 166 6 120 170 6 120 170 6 120 170 6 120 170 6 120 170 94 154 160 189 174 177 
210 180 169 239 198 170 239 198 170 239 198 170 239 198 170 225 208 211 197 198 212 225 208 211 
197 198 212 225 208 211 242 242 223 242 253 234 242 253 234 242 214 215 197 198 212 128 189 216 
93 191 199 93 161 196 7 113 146 7 52 116 4 8 47 6 8 10 0 4 3 0 5 1 
0 2 2 2 6 2 0 2 2 5 9 2 0 4 3 0 6 1 2 10 2 0 3 1 
0 6 1 0 4 3 0 6 3 0 4 3 2 4 2 2 10 2 0 9 4 2 6 3 
1 7 4 1 9 4 1 12 4 4 8 4 1 11 6 1 13 6 1 12 4 0 4 3 
2 6 3 1 7 4 1 7 4 2 15 5 1 9 4 1 12 4 1 9 4 1 9 6 
1 9 4 1 7 4 0 9 4 2 15 5 4 12 4 1 11 6 2 15 5 24 23 9 
1 12 4 1 9 6 2 15 5 1 11 6 2 15 5 1 9 6 1 13 6 1 13 6 
2 15 5 1 11 6 1 16 14 8 18 14 6 27 12 5 19 6 1 19 10 1 16 14 
5 19 10 1 11 6 1 13 6 1 9 6 4 12 4 1 11 6 1 11 6 2 19 6 
1 13 6 1 11 6 1 13 6 2 19 6 1 13 6 1 13 6 1 11 6 1 9 6 
2 15 5 2 15 5 1 13 6 1 13 6 1 11 6 1 11 6 1 9 6 2 15 5 
5 19 6 1 13 6 1 13 6 1 8 8 1 13 6 1 8 8 1 13 6 2 15 5 
1 13 6 1 13 6 5 19 10 4 9 6 1 11 6 1 8 8 1 11 6 1 19 10 
1 19 10 1 19 10 2 15 5 2 15 5 2 15 5 1 11 6 1 9 6 1 13 6 
1 9 6 1 11 6 1 19 10 1 16 14 5 19 10 1 13 6 1 11 6 1 19 10 

126 145 132 147 177 131 164 179 131 126 145 132 57 121 132 88 132 124 57 121 132 57 121 132 
7 96 112 7 73 121 29 95 109 29 95 109 42 120 116 24 95 100 7 48 95 7 59 103 
7 96 112 7 113 119 7 99 141 7 73 121 27 121 132 27 121 132 7 113 119 7 73 121 
7 73 121 7 96 112 7 81 122 7 73 121 7 81 122 7 81 122 7 81 122 7 73 121 
7 73 121 27 121 132 7 113 119 6 80 137 7 73 121 6 80 137 6 80 137 3 89 142 
3 89 142 7 113 146 6 99 150 6 89 150 7 80 149 6 80 137 3 89 142 6 80 137 
3 89 142 3 89 142 3 89 142 6 80 137 3 89 142 6 80 137 3 89 142 3 89 142 
3 89 142 3 89 142 6 99 150 6 99 150 6 89 150 6 99 150 7 113 146 6 99 150 
3 89 142 6 73 141 6 80 137 6 99 150 7 113 146 6 99 150 6 99 150 7 113 146 
6 99 150 7 113 146 6 99 150 6 89 150 6 99 150 3 89 142 6 89 150 6 99 150 
6 99 150 3 89 142 7 80 149 6 89 150 6 99 150 6 89 150 3 89 142 6 73 141 
7 80 149 3 89 142 3 89 142 6 80 137 6 80 137 6 73 141 6 89 150 6 89 150 
6 120 170 6 95 166 6 95 166 6 95 166 6 120 170 6 120 170 6 120 170 6 120 170 
128 159 167 197 213 164 239 198 170 239 198 170 239 198 170 225 208 211 239 198 170 239 198 170 
225 208 211 189 174 177 189 174 177 225 208 211 242 253 234 242 253 234 242 242 223 225 208 211 
156 186 216 128 189 216 93 191 199 42 156 192 7 113 146 6 33 96 4 8 47 1 8 8 
0 4 3 9 2 2 0 3 1 2 6 2 2 6 2 2 6 2 0 6 1 0 4 3 
0 6 1 0 4 3 0 6 3 2 10 2 0 5 1 1 7 4 1 7 4 1 7 4 
1 7 4 1 9 4 1 7 4 1 11 6 0 9 4 1 13 6 0 9 4 2 10 2 
4 8 4 1 7 4 0 9 4 0 9 4 1 4 6 1 9 4 1 11 6 4 10 4 
1 7 4 7 7 4 1 13 6 7 10 8 5 19 6 1 8 8 10 18 5 1 11 6 
2 15 5 1 9 6 1 6 4 1 9 4 1 7 4 1 13 6 2 15 5 1 11 6 
5 19 6 1 13 6 5 19 10 7 10 8 1 13 6 7 10 8 1 13 6 2 19 6 
1 11 6 1 8 8 2 15 5 1 11 6 1 7 4 4 12 4 1 7 4 5 19 6 
1 9 6 4 12 4 1 13 6 1 13 6 1 13 6 1 13 6 2 15 5 1 13 6 
1 11 6 1 11 6 1 13 6 1 8 8 1 11 6 1 11 6 2 15 5 1 9 6 
24 23 9 1 11 6 1 13 6 1 11 6 10 18 5 10 10 6 4 9 6 1 8 8 
1 19 10 24 23 9 5 19 6 1 13 6 2 15 5 1 13 6 1 13 6 1 13 6 
1 13 6 1 13 6 1 19 10 1 13 6 1 13 6 1 13 6 1 13 6 1 11 6 
2 15 5 1 13 6 2 19 6 1 13 6 1 11 6 1 13 6 10 18 5 2 19 6 

143 150 131 57 82 141 57 121 132 164 179 131 164 179 131 126 145 132 88 132 124 88 132 154 
57 121 132 7 99 141 42 120 116 63 108 116 7 81 122 29 95 109 24 95 100 7 96 112 
7 96 112 7 73 121 7 81 122 29 95 109 7 73 121 7 81 122 7 52 116 7 73 121 
7 52 116 7 81 122 7 73 121 7 81 122 7 81 122 7 99 141 7 73 121 7 73 121 
7 73 121 7 73 121 7 73 121 7 113 119 65 150 115 88 132 124 6 80 137 7 73 121 
7 113 146 56 162 154 94 154 160 56 162 154 88 132 154 6 89 150 3 89 142 3 89 142 
3 89 142 3 89 142 3 89 142 3 89 142 3 89 142 6 80 137 3 89 142 6 80 137 
7 99 141 7 99 141 6 99 150 6 99 150 3 89 142 6 99 150 6 89 150 6 99 150 
6 99 150 7 126 130 6 99 150 6 73 141 3 89 142 7 113 146 6 89 150 6 99 150 
6 99 150 6 89 150 6 89 150 6 89 150 6 99 150 3 89 142 6 80 137 3 89 142 
6 99 150 6 89 150 7 126 130 6 89 150 6 73 141 6 73 141 6 73 141 6 73 141 
3 89 142 3 89 142 6 73 141 6 80 137 3 89 142 3 89 142 3 89 142 6 89 150 
6 89 150 6 89 150 6 89 150 6 89 150 6 89 150 6 95 166 6 120 170 6 120 170 
6 120 170 43 121 169 156 159 166 239 198 170 239 198 170 239 198 170 239 198 170 239 198 170 
242 214 215 242 214 215 225 208 211 197 198 212 225 208 211 242 242 223 242 253 234 242 242 223 
242 214 215 197 198 212 156 186 216 128 189 216 93 191 199 56 162 154 7 81 122 7 29 75 
7 18 20 24 23 9 0 4 3 0 4 3 0 5 1 2 6 2 0 6 1 0 5 1 
0 6 3 1 7 4 0 6 3 0 4 3 0 5 1 2 15 5 0 9 4 10 11 4 
1 12 4 0 6 3 1 7 4 1 9 4 1 11 6 1 9 4 1 7 4 0 9 4 
2 15 5 1 7 4 1 9 4 1 7 4 1 9 6 1 13 6 4 12 4 0 9 4 
4 8 4 0 9 4 4 12 4 1 11 6 4 12 4 1 11 6 10 11 4 1 9 4 
1 13 6 1 13 6 0 9 4 1 11 6 4 12 4 2 15 5 1 11 6 10 18 5 
1 11 6 1 11 6 2 15 5 2 15 5 5 19 6 4 9 6 2 15 5 1 11 6 
1 4 4 1 11 6 1 13 6 4 12 4 1 9 6 2 15 5 1 11 6 0 9 4 
1 13 6 2 15 5 1 9 6 1 9 6 1 13 6 1 11 6 2 19 6 1 8 8 
4 12 4 1 13 6 4 12 4 5 19 6 1 11 6 2 15 5 1 9 6 1 7 4 
1 9 6 1 11 6 1 4 6 1 9 6 1 9 6 1 13 6 1 9 6 10 10 6 
1 19 10 1 13 6 1 11 6 1 11 6 1 9 6 10 18 5 4 9 6 2 15 5 
1 13 6 1 8 8 2 15 5 2 15 5 1 13 6 2 15 5 0 9 4 0 9 4 
1 11 6 1 13 6 1 13 6 1 11 6 1 11 6 1 8 8 2 15 5 10 18 5 

143 150 131 164 179 131 57 82 141 88 100 145 147 177 131 126 145 132 88 132 154 126 145 132 
126 172 135 43 121 139 7 81 122 7 73 121 7 81 122 7 73 121 7 73 121 7 73 121 
29 95 109 42 120 116 42 120 116 27 121 132 57 121 132 57 121 132 57 121 132 27 121 132 
7 113 119 43 121 139 57 121 132 43 121 139 56 162 154 43 121 139 7 99 141 7 81 122 
7 113 119 3 89 142 6 80 137 6 73 141 7 73 121 57 121 132 7 99 141 27 121 132 
88 132 154 56 162 154 93 181 160 128 189 167 156 195 167 128 189 167 88 132 154 6 89 150 
6 99 150 7 113 146 27 121 132 6 99 150 3 89 142 3 89 142 7 113 146 7 113 146 
6 99 150 6 99 150 6 99 150 3 89 142 6 99 150 3 89 142 3 89 142 6 99 150 
6 99 150 6 99 150 7 113 146 6 89 150 3 89 142 7 99 141 6 99 150 6 80 137 
3 89 142 7 113 146 3 89 142 6 89 150 6 99 150 6 99 150 3 89 142 3 89 142 
7 113 146 6 89 150 6 99 150 6 99 150 3 89 142 6 80 137 6 73 141 6 80 137 
6 73 141 3 89 142 3 89 142 3 89 142 6 89 150 7 80 149 3 89 142 6 99 150 
7 80 149 3 89 142 3 89 142 3 89 142 7 80 149 6 89 150 6 99 150 6 95 166 
6 120 170 6 120 170 6 120 170 43 121 169 156 195 167 239 198 170 239 198 170 239 198 170 
239 198 170 242 214 215 242 214 215 210 180 169 242 214 215 242 214 215 242 253 234 242 253 234 
242 242 223 242 214 215 225 208 211 197 198 212 156 186 216 128 189 216 93 191 199 43 121 169 
7 52 116 7 27 52 6 8 10 15 7 5 0 3 1 0 6 1 0 5 1 0 6 1 
0 6 1 0 4 3 0 6 1 2 10 2 1 9 4 0 4 3 0 6 3 1 12 4 
0 6 3 0 4 3 1 12 4 1 12 4 0 9 4 1 4 4 0 9 4 0 9 4 
2 10 2 1 9 4 1 12 4 4 10 4 1 7 4 0 9 4 1 6 4 1 7 4 
1 9 4 1 7 4 1 13 6 1 11 6 1 9 4 2 6 3 1 7 4 1 9 4 
1 4 6 1 13 6 1 7 4 1 11 6 1 8 8 1 8 8 1 11 6 2 15 5 
0 9 4 1 9 6 1 13 6 1 13 6 1 11 6 1 11 6 1 7 4 4 12 4 
4 9 6 2 15 5 4 9 6 1 13 6 1 9 6 1 8 8 0 9 4 0 6 3 
1 7 4 4 12 4 2 15 5 1 11 6 2 15 5 1 11 6 4 12 4 1 9 6 
1 4 4 1 12 4 2 15 5 1 11 6 4 9 6 1 9 6 1 11 6 1 7 4 
0 9 4 1 7 4 1 7 4 1 9 6 1 9 6 1 12 4 4 12 4 1 11 6 
1 19 10 1 11 6 1 11 6 1 13 6 1 9 6 1 9 6 1 8 8 1 11 6 
1 9 6 2 19 6 1 13 6 1 11 6 1 11 6 1 9 6 1 12 4 0 9 4 
1 13 6 2 15 5 1 9 6 1 13 6 1 9 6 1 12 4 1 11 6 1 13 6 

58 82 117 112 114 119 88 132 124 57 121 132 57 82 141 88 132 124 63 125 116 126 145 132 
126 145 132 126 172 135 63 108 116 7 59 103 7 96 112 29 95 109 27 121 132 63 125 116 
57 121 132 7 99 141 57 121 132 43 121 139 43 121 139 43 121 139 126 145 132 94 154 160 
57 121 132 57 121 132 126 172 135 126 145 132 94 154 160 88 132 154 88 132 154 43 121 139 
43 121 139 27 163 154 43 121 139 56 162 154 7 99 141 7 81 122 7 99 141 7 113 146 
57 121 132 88 132 124 93 181 160 128 159 167 156 195 167 156 195 167 197 213 164 189 174 152 
198 196 136 198 196 136 164 179 131 43 121 139 7 113 146 43 121 139 7 126 130 7 113 146 
43 121 139 7 113 146 6 99 150 6 99 150 3 89 142 3 89 142 3 89 142 3 89 142 
6 99 150 6 99 150 7 126 130 43 121 139 3 89 142 3 89 142 7 113 146 3 89 142 
6 80 137 6 80 137 6 80 137 3 89 142 6 99 150 6 99 150 6 99 150 7 113 146 
3 89 142 6 80 137 3 89 142 3 89 142 6 89 150 3 89 142 3 89 142 6 73 141 
6 80 137 3 89 142 3 89 142 6 99 150 6 99 150 6 89 150 3 89 142 3 89 142 
7 80 149 7 80 149 3 89 142 7 80 149 3 89 142 3 89 142 3 89 142 6 89 150 
6 99 150 6 120 170 6 120 170 6 120 170 6 120 170 42 156 192 156 195 167 239 198 170 
239 198 170 239 198 170 239 198 170 239 198 170 239 198 170 242 214 215 242 214 215 242 253 234 
242 242 223 242 214 215 239 198 170 236 177 170 210 180 169 197 198 212 128 189 216 93 191 199 
43 185 193 7 113 146 6 33 96 4 8 47 1 8 8 0 6 3 0 2 0 0 6 1 
0 3 1 0 4 3 0 4 3 0 3 1 0 6 1 0 11 2 0 4 3 2 10 2 
10 11 4 1 9 4 1 12 4 1 7 4 2 6 2 2 6 3 1 9 4 0 9 4 
1 7 4 1 12 4 1 7 4 1 12 4 1 7 4 0 9 4 1 6 4 4 9 6 
1 4 4 2 15 5 1 9 4 4 10 4 1 13 6 1 12 4 1 7 4 1 9 4 
0 9 4 4 12 4 1 7 4 1 7 4 1 9 6 4 12 4 2 19 6 1 9 6 
0 9 4 1 4 4 10 18 5 4 12 4 1 7 4 1 11 6 0 9 4 10 11 4 
1 11 6 2 15 5 1 7 4 1 6 4 2 15 5 5 19 6 1 9 4 1 7 4 
1 7 4 5 19 6 4 12 4 1 9 6 1 7 4 1 9 6 2 15 5 4 12 4 
0 9 4 4 5 4 4 9 6 2 19 6 1 7 4 1 12 4 0 9 4 1 7 4 
0 9 4 1 7 4 4 8 4 10 18 5 1 4 6 0 9 4 1 11 6 1 13 6 
1 19 10 1 13 6 1 11 6 2 15 5 1 11 6 1 9 6 1 13 6 0 9 4 
0 9 4 1 13 6 1 11 6 1 11 6 1 9 6 1 11 6 2 15 5 1 11 6 
1 12 4 1 6 4 1 9 6 4 9 6 1 11 6 1 9 6 1 9 6 0 9 4 

29 95 109 89 107 111 112 114 119 112 130 109 88 132 124 88 132 124 63 108 116 97 125 111 
126 145 132 126 145 132 126 172 135 27 76 117 7 73 121 42 120 116 43 121 139 57 121 132 
126 145 132 57 121 132 7 99 141 3 89 142 29 95 109 27 76 117 57 121 132 88 132 124 
88 132 124 88 132 154 126 172 135 88 132 154 88 132 154 88 132 154 126 172 135 126 172 135 
94 154 160 56 162 154 94 154 160 126 172 135 57 121 132 7 99 141 43 121 139 57 121 132 
7 81 122 7 52 116 27 121 132 88 132 154 56 162 154 128 159 167 94 154 160 128 159 167 
88 132 154 128 159 167 147 177 131 43 121 139 43 121 139 7 113 146 7 113 146 7 113 146 
43 121 139 7 113 146 43 121 139 3 89 142 3 89 142 3 89 142 3 89 142 3 89 142 
7 113 146 7 113 146 6 89 150 27 121 132 56 162 154 43 121 139 94 154 160 6 89 150 
6 73 141 3 89 142 6 80 137 6 80 137 7 113 146 6 99 150 27 163 154 6 99 150 
3 89 142 6 80 137 6 80 137 3 89 142 3 89 142 3 89 142 3 89 142 6 73 141 
6 80 137 6 73 141 3 89 142 3 89 142 6 99 150 6 99 150 6 99 150 6 89 150 
6 89 150 7 113 146 6 89 150 7 80 149 3 89 142 3 89 142 3 89 142 6 89 150 
6 89 150 6 89 150 6 95 166 6 120 170 7 145 184 7 145 184 7 145 184 42 156 192 
156 195 167 239 198 170 238 227 170 239 198 170 239 198 170 236 177 170 239 198 170 242 214 215 
242 242 223 242 242 223 242 214 215 242 214 215 239 198 170 239 198 170 197 198 212 156 186 216 
128 189 216 93 191 199 56 162 154 6 80 137 7 29 75 4 8 47 1 4 6 0 4 3 
0 3 1 0 3 1 0 2 2 0 4 3 0 5 1 0 4 3 0 6 1 0 3 1 
1 7 4 2 15 5 0 9 4 2 10 2 0 4 3 0 4 3 1 12 4 0 9 4 
0 9 4 1 12 4 1 9 4 1 9 4 1 7 4 1 12 4 1 9 6 1 9 6 
1 7 4 2 6 3 1 12 4 4 10 4 1 9 6 4 8 4 1 6 4 4 8 4 
1 7 4 1 6 4 2 15 5 1 6 4 1 6 4 1 9 4 1 13 6 1 13 6 
1 9 4 0 9 4 1 7 4 4 9 6 0 9 4 4 10 4 4 12 4 1 9 6 
1 12 4 1 7 4 1 7 4 1 12 4 1 13 6 1 12 4 0 6 3 1 7 4 
1 7 4 4 12 4 1 11 6 2 15 5 1 7 4 4 12 4 2 15 5 1 13 6 
1 13 6 2 15 5 1 11 6 5 19 6 1 11 6 1 7 4 1 12 4 1 9 4 
0 4 3 1 9 4 0 9 4 1 7 4 1 4 6 1 9 6 1 11 6 1 8 8 
2 15 5 1 13 6 2 15 5 2 19 6 1 13 6 1 9 6 1 11 6 1 9 4 
0 9 4 1 6 4 1 13 6 2 15 5 2 15 5 4 12 4 1 4 6 1 6 4 
1 13 6 1 9 6 2 15 5 1 9 6 1 9 6 1 9 6 1 11 6 0 9 4 

25 63 109 27 76 117 63 108 116 88 132 124 57 121 132 57 121 132 6 73 141 63 125 116 
63 108 116 88 132 124 126 145 132 126 172 135 63 125 116 29 95 109 57 121 132 43 121 139 
43 121 139 126 172 135 88 132 124 57 121 132 27 121 132 63 125 116 57 121 132 88 132 124 
126 145 132 126 145 132 126 172 135 126 145 132 88 132 124 88 132 124 94 154 160 126 172 135 
126 145 132 94 154 160 126 172 135 126 172 135 94 154 160 43 121 139 7 113 146 7 113 119 
7 96 112 6 33 96 7 96 112 7 113 119 7 126 130 3 89 142 6 80 137 7 113 146 
7 113 146 43 121 169 27 121 132 3 89 142 27 121 132 7 113 146 7 113 146 3 89 142 
6 99 150 6 89 150 7 113 146 7 126 130 7 113 146 7 99 141 3 89 142 3 89 142 
7 113 146 7 113 146 3 89 142 3 89 142 6 99 150 43 121 139 94 154 160 126 172 135 
126 172 135 57 121 132 6 89 150 7 113 146 6 80 137 7 99 141 7 113 146 6 99 150 
6 73 141 27 121 132 7 99 141 6 80 137 6 73 141 6 73 141 3 89 142 6 80 137 
3 89 142 6 80 137 6 73 141 6 80 137 6 99 150 6 99 150 6 99 150 6 99 150 
6 89 150 7 80 149 6 89 150 6 89 150 6 89 150 6 99 150 6 89 150 6 89 150 
6 95 166 6 89 150 6 95 166 6 95 166 6 120 170 7 145 184 7 145 184 7 145 184 
6 120 170 43 121 169 156 195 167 239 198 170 239 198 170 239 198 170 239 198 170 242 214 215 
242 214 215 242 242 223 242 242 223 242 242 223 242 242 223 242 214 215 239 198 170 236 177 170 
198 212 189 156 186 216 128 189 216 93 191 199 43 121 169 7 73 121 7 29 75 7 18 20 
1 4 6 0 4 3 0 4 3 0 3 1 7 7 4 0 3 1 10 9 2 0 4 3 
0 4 3 4 12 4 1 12 4 0 4 3 2 10 2 1 7 4 2 10 2 1 6 4 
0 6 3 0 6 3 0 6 3 1 12 4 0 11 2 1 7 4 1 7 4 24 23 9 
1 9 4 1 9 4 1 7 4 4 10 4 1 12 4 1 9 4 1 7 4 4 10 4 
1 9 4 0 9 4 2 15 5 1 7 4 1 9 4 2 15 5 4 10 4 1 13 6 
1 12 4 4 10 4 1 6 4 1 7 4 1 9 6 1 11 6 4 8 4 1 13 6 
2 15 5 1 6 4 1 12 4 1 12 4 1 7 4 1 11 6 1 9 4 1 7 4 
1 12 4 1 7 4 7 7 4 0 9 4 0 9 4 1 9 6 2 19 6 4 9 6 
1 11 6 1 13 6 1 13 6 2 15 5 0 9 4 1 7 4 4 10 4 1 12 4 
1 7 4 1 9 4 1 7 4 4 10 4 1 7 4 1 11 6 1 11 6 1 11 6 
1 9 6 1 13 6 1 12 4 0 9 4 1 6 4 1 9 6 1 13 6 1 9 4 
1 12 4 1 12 4 1 7 4 1 6 4 1 9 6 2 15 5 1 11 6 1 11 6 
2 15 5 1 11 6 1 9 6 1 9 6 1 11 6 1 11 6 1 13 6 1 12 4 

63 125 116 83 125 111 88 132 124 57 121 132 63 108 116 97 125 111 126 172 135 143 150 131 
57 82 141 63 125 116 57 82 141 57 121 132 27 121 132 42 120 116 63 125 116 57 121 132 
42 120 116 57 121 132 43 121 139 88 132 124 43 121 139 57 121 132 29 95 109 27 76 117 
63 125 116 88 132 124 126 145 132 143 150 131 126 145 132 126 145 132 94 154 160 126 172 135 
88 132 124 126 145 132 126 172 135 128 159 167 88 132 154 94 154 160 6 99 150 27 76 117 
27 76 117 7 52 116 7 73 121 7 73 121 7 73 121 7 73 121 7 73 121 6 80 137 
7 113 146 56 162 154 27 121 132 6 80 137 6 80 137 3 89 142 7 99 141 6 99 150 
126 172 135 94 154 160 56 162 154 43 121 169 27 78 145 7 80 149 6 80 137 6 80 137 
7 113 146 7 126 130 7 126 130 7 113 146 7 99 141 3 89 142 3 89 142 7 113 146 
126 172 135 156 195 167 197 213 164 94 154 160 6 99 150 6 89 150 7 113 146 6 99 150 
27 121 132 6 73 141 6 80 137 6 73 141 6 80 137 6 80 137 3 89 142 3 89 142 
6 73 141 6 80 137 6 73 141 6 73 141 6 73 141 6 73 141 3 89 142 6 99 150 
6 99 150 6 99 150 6 89 150 6 89 150 6 89 150 6 89 150 6 99 150 6 95 166 
6 95 166 6 95 166 6 95 166 6 95 166 6 95 166 6 120 170 6 120 170 6 120 170 
7 145 184 7 145 184 6 120 170 43 121 169 189 174 177 239 198 170 239 198 170 239 198 170 
236 177 170 236 177 170 239 198 170 242 214 215 242 242 223 242 253 234 242 242 223 239 198 170 
239 198 170 236 177 170 189 174 177 128 189 216 128 189 216 93 191 199 6 120 170 7 52 116 
4 8 47 1 16 14 1 6 4 0 5 1 0 3 1 0 5 1 0 6 1 0 3 1 
0 11 2 0 6 3 0 6 3 2 10 2 2 15 5 0 6 1 0 4 3 0 11 2 
0 9 4 0 4 3 0 9 4 0 11 2 2 6 2 0 4 3 1 7 4 1 12 4 
1 7 4 0 6 3 0 6 3 2 10 2 1 7 4 1 12 4 1 9 4 1 12 4 
0 9 4 2 6 3 0 6 3 1 4 4 1 12 4 0 9 4 0 4 3 1 7 4 
1 7 4 1 9 4 2 10 2 2 15 5 1 9 4 1 12 4 1 6 4 1 12 4 
1 7 4 0 4 3 4 12 4 1 12 4 1 9 4 1 12 4 1 4 4 2 15 5 
2 15 5 1 6 4 1 7 4 1 9 4 24 23 9 1 9 6 1 7 4 1 11 6 
4 12 4 1 11 6 0 9 4 1 4 4 2 15 5 1 7 4 1 9 6 1 9 6 
1 7 4 0 9 4 1 12 4 1 7 4 1 9 4 1 7 4 1 12 4 1 4 4 
1 7 4 1 7 4 0 6 3 2 15 5 1 13 6 2 15 5 1 11 6 1 9 4 
4 12 4 2 15 5 1 12 4 0 4 3 1 12 4 1 13 6 1 11 6 1 9 6 
1 11 6 1 11 6 2 19 6 1 11 6 2 15 5 1 11 6 0 9 4 1 7 4 

57 121 132 27 78 145 88 132 124 88 132 124 42 120 116 27 76 117 6 80 137 143 150 131 
147 177 131 88 100 145 57 121 132 88 132 124 63 125 116 63 108 116 57 121 132 57 121 132 
29 95 109 7 99 141 29 95 109 63 108 116 57 121 132 88 132 124 126 172 135 88 132 124 
43 121 139 88 132 124 88 132 124 57 121 132 88 132 124 164 179 131 147 177 131 126 145 132 
88 132 124 88 132 124 164 179 131 147 177 131 56 162 154 94 154 160 94 154 160 88 132 124 
126 172 135 7 113 119 7 113 119 7 73 121 7 59 103 7 59 103 7 73 121 7 81 122 
7 99 141 7 99 141 7 113 146 43 121 139 27 121 132 43 121 139 88 132 154 43 121 169 
156 195 167 156 195 167 156 195 167 126 172 135 147 177 131 94 154 160 43 121 139 88 132 154 
57 121 132 43 121 169 6 120 170 6 120 170 7 113 146 3 89 142 6 80 137 6 80 137 
7 99 141 126 172 135 197 213 164 198 196 136 147 177 131 43 121 169 6 120 170 7 113 146 
7 113 146 7 113 146 56 162 154 126 172 135 43 121 139 6 73 141 7 99 141 7 99 141 
3 89 142 3 89 142 6 80 137 6 80 137 3 89 142 3 89 142 6 80 137 6 73 141 
3 89 142 6 99 150 3 89 142 6 89 150 3 89 142 3 89 142 6 89 150 6 89 150 
6 95 166 6 95 166 6 95 166 6 95 166 6 95 166 6 95 166 6 120 170 6 120 170 
6 120 170 7 145 184 6 120 170 6 120 170 6 120 170 88 132 154 189 174 152 238 227 170 
238 227 170 239 198 170 239 198 170 239 198 170 238 227 170 242 214 215 242 242 223 242 242 223 
242 214 215 236 177 170 236 177 170 236 177 170 156 186 216 128 189 216 93 191 199 42 156 192 
7 99 141 6 33 96 4 8 47 1 4 6 0 4 3 0 5 1 0 3 1 0 5 1 
1 3 2 0 6 1 0 9 4 0 9 4 0 6 1 0 6 1 0 4 3 2 6 2 
0 6 3 0 4 3 0 6 1 0 6 1 0 6 3 0 6 3 2 10 2 0 9 4 
0 9 4 0 9 4 2 6 2 1 7 4 1 7 4 0 9 4 1 12 4 1 6 4 
4 5 4 0 9 4 1 4 4 1 12 4 1 7 4 1 12 4 1 9 4 1 12 4 
1 12 4 1 12 4 0 9 4 0 9 4 1 12 4 1 7 4 1 9 4 4 10 4 
1 9 4 0 9 4 0 9 4 1 7 4 0 9 4 1 12 4 2 6 3 1 9 4 
1 13 6 1 9 4 4 12 4 4 10 4 15 7 5 1 7 4 1 9 4 1 9 4 
2 19 6 1 13 6 4 10 4 4 8 4 4 12 4 1 9 6 5 19 6 1 12 4 
0 9 4 1 6 4 1 11 6 2 15 5 4 12 4 1 4 4 0 9 4 1 9 4 
1 7 4 1 7 4 1 9 4 1 9 4 1 7 4 2 15 5 1 4 6 2 15 5 
0 9 4 0 9 4 4 12 4 4 9 6 2 15 5 0 9 4 1 13 6 1 13 6 
1 7 4 4 9 6 1 11 6 2 15 5 1 11 6 1 13 6 1 11 6 10 18 5 

88 132 124 88 132 154 126 172 135 57 82 141 88 132 124 112 130 109 27 76 117 43 121 139 
126 172 135 164 179 131 127 116 140 88 132 154 43 121 139 42 120 116 126 145 132 57 121 132 
29 95 109 63 108 116 88 132 124 63 108 116 27 76 117 57 121 132 126 145 132 88 132 154 
57 121 132 88 132 124 57 121 132 57 121 132 57 121 132 126 145 132 164 179 131 126 172 135 
88 132 124 88 132 124 126 145 132 147 177 131 56 162 154 126 145 132 94 154 160 57 121 132 
3 89 142 6 80 137 43 121 139 7 99 141 7 73 121 7 75 102 7 81 122 7 126 130 
7 113 146 56 162 154 94 154 160 93 181 160 94 154 160 126 172 135 156 195 167 94 154 160 
128 189 167 156 195 167 94 154 160 94 154 160 94 154 160 126 172 135 126 172 135 94 154 160 
128 189 167 156 195 167 126 172 135 94 154 160 126 172 135 43 121 169 3 89 142 6 80 137 
7 81 122 6 80 137 43 121 139 94 154 160 56 162 154 93 181 160 128 159 167 43 121 169 
7 113 146 6 89 150 43 121 139 93 181 160 56 162 154 27 163 154 7 99 141 6 73 141 
3 89 142 7 99 141 7 99 141 3 89 142 6 52 136 7 81 122 6 80 137 3 89 142 
6 80 137 7 73 121 6 73 141 3 89 142 3 89 142 3 89 142 6 89 150 6 89 150 
6 95 166 6 95 166 6 95 166 6 95 166 6 95 166 6 95 166 6 95 166 6 120 170 
6 120 170 6 95 166 6 120 170 6 120 170 6 120 170 6 120 170 6 95 166 112 112 150 
197 213 164 238 227 170 239 198 170 239 198 170 239 198 170 239 198 170 242 242 223 242 242 223 
242 242 223 242 214 215 239 198 170 239 198 170 236 177 170 210 180 169 156 186 216 128 189 216 
93 191 199 56 162 154 7 73 121 7 29 75 7 18 20 4 5 4 0 6 3 0 3 1 
0 5 1 0 4 3 2 10 2 0 11 2 0 11 2 0 4 3 0 3 1 0 5 1 
0 6 1 0 6 3 0 4 3 0 5 1 2 4 2 0 5 1 0 4 3 0 6 1 
0 6 3 0 4 3 0 11 2 0 11 2 1 9 4 1 7 4 0 9 4 1 7 4 
0 6 1 7 7 4 1 4 4 0 9 4 0 4 3 1 9 4 0 9 4 0 6 3 
0 6 3 0 4 3 1 9 4 0 9 4 0 11 2 1 7 4 0 6 3 0 6 3 
2 6 3 0 4 3 1 12 4 1 12 4 0 9 4 0 9 4 0 9 4 0 9 4 
0 9 4 0 9 4 1 9 4 1 7 4 1 7 4 1 9 4 0 9 4 1 9 4 
0 9 4 4 12 4 10 18 5 1 12 4 0 9 4 1 11 6 1 9 4 0 9 4 
1 9 4 0 9 4 1 7 4 1 8 8 1 7 4 1 13 6 1 12 4 0 6 3 
1 7 4 1 12 4 0 9 4 0 9 4 1 7 4 0 9 4 1 11 6 1 9 4 
1 6 4 1 7 4 0 9 4 1 11 6 1 11 6 1 12 4 2 15 5 1 8 8 
0 9 4 0 9 4 1 11 6 1 9 4 1 12 4 2 15 5 1 7 4 1 7 4 

88 132 124 88 132 154 147 177 131 126 172 135 88 132 154 126 145 132 126 145 132 63 108 116 
57 121 132 88 132 154 156 159 166 197 213 164 164 179 131 27 76 117 112 114 119 147 177 131 
57 121 132 6 73 141 63 125 116 88 132 124 42 120 116 29 95 109 88 132 124 126 172 135 
126 172 135 57 121 132 88 132 124 57 121 132 43 121 139 88 132 124 164 179 131 164 179 131 
143 150 131 161 151 130 126 145 132 143 150 131 126 172 135 57 121 132 57 121 132 88 132 124 
6 80 137 7 81 122 126 145 132 94 154 160 6 52 136 7 73 121 7 59 103 7 81 122 
7 99 141 65 150 115 94 154 160 57 121 132 88 132 124 94 154 160 126 172 135 126 172 135 
94 154 160 128 159 167 94 154 160 27 121 132 7 113 119 27 121 132 88 132 154 126 172 135 
156 195 167 197 213 164 156 159 166 156 195 167 197 213 164 197 213 164 198 196 136 112 112 150 
6 89 150 6 80 137 6 80 137 3 89 142 43 121 139 126 172 135 197 213 164 156 195 167 
6 120 170 7 113 146 6 99 150 6 99 150 6 120 170 6 99 150 6 99 150 57 121 132 
6 80 137 6 73 141 6 80 137 6 80 137 3 89 142 6 80 137 6 80 137 6 73 141 
3 89 142 6 80 137 7 73 121 6 73 141 6 73 141 7 80 149 6 89 150 6 89 150 
6 95 166 6 95 166 6 89 150 6 89 150 7 80 149 6 99 150 6 95 166 6 95 166 
6 95 166 6 99 150 6 99 150 6 99 150 6 95 166 6 120 170 6 120 170 6 120 170 
6 120 170 128 159 167 239 198 170 238 227 170 238 227 170 238 227 170 242 242 223 242 253 234 
242 253 234 242 242 223 242 242 223 238 227 170 239 198 170 239 198 170 236 177 170 189 174 177 
156 186 216 128 189 216 93 191 199 6 120 170 7 52 116 4 8 47 1 16 14 1 4 6 
0 6 3 0 5 1 2 6 2 0 5 1 0 3 1 0 3 1 0 3 1 0 4 3 
0 6 1 0 4 3 0 6 1 0 5 1 2 6 2 0 6 1 2 6 2 1 3 2 
1 3 2 2 6 3 0 5 1 0 4 3 1 12 4 10 11 4 0 9 4 0 11 2 
5 9 2 0 6 1 2 6 2 10 9 2 0 6 3 1 9 4 4 10 4 0 4 3 
0 6 1 1 7 4 1 9 4 0 9 4 0 6 3 0 6 3 0 6 3 1 9 4 
2 6 3 0 6 3 1 12 4 1 12 4 1 7 4 2 10 2 0 4 3 0 9 4 
1 6 4 0 6 3 1 9 4 1 7 4 4 12 4 1 7 4 1 9 4 1 12 4 
0 9 4 1 6 4 1 11 6 1 12 4 1 13 6 1 7 4 1 9 4 0 9 4 
1 6 4 1 7 4 0 9 4 5 19 6 1 6 4 2 15 5 1 9 4 0 9 4 
0 6 3 1 7 4 2 15 5 1 12 4 2 15 5 1 7 4 1 6 4 1 9 6 
4 10 4 0 9 4 2 15 5 1 13 6 1 7 4 0 9 4 1 12 4 4 10 4 
2 15 5 1 6 4 1 12 4 1 6 4 2 15 5 1 6 4 1 7 4 1 9 4 

27 78 145 57 121 132 43 121 139 126 145 132 88 132 154 88 132 154 88 100 145 29 95 109 
29 95 109 88 132 124 88 100 145 156 195 167 197 213 164 88 132 154 27 76 117 112 130 109 
147 177 131 88 132 124 57 121 132 57 121 132 57 121 132 43 121 139 88 132 124 126 172 135 
126 145 132 88 132 154 57 121 132 88 132 124 57 121 132 27 121 132 88 132 154 164 179 131 
143 150 131 147 177 131 164 179 131 126 145 132 126 172 135 43 121 139 88 132 124 94 154 160 
65 150 115 7 99 141 88 132 124 198 196 136 147 177 131 57 121 132 7 73 121 7 81 122 
7 113 119 58 82 117 63 125 116 7 52 116 6 33 96 7 59 103 63 125 116 88 132 124 
94 154 160 128 159 167 126 172 135 7 99 141 7 52 116 7 52 116 83 125 111 65 150 115 
43 121 139 57 121 132 126 145 132 94 154 160 128 189 167 94 154 160 189 174 152 238 227 170 
238 227 170 164 179 131 43 121 139 3 89 142 3 89 142 7 80 149 128 159 167 126 172 135 
93 181 160 6 120 170 7 113 146 7 113 146 6 120 170 27 163 154 27 163 154 56 162 154 
43 121 139 6 73 141 7 73 121 7 73 121 6 80 137 6 80 137 6 80 137 7 73 121 
6 80 137 6 80 137 6 73 141 7 80 149 6 89 150 6 89 150 7 80 149 7 80 149 
6 89 150 6 99 150 6 73 141 6 99 150 6 89 150 7 80 149 6 89 150 6 89 150 
6 99 150 7 80 149 6 89 150 6 99 150 6 99 150 6 95 166 6 120 170 6 120 170 
6 120 170 6 120 170 7 145 184 128 159 167 238 227 170 238 227 170 239 198 170 242 242 223 
242 242 223 242 242 223 242 242 223 242 242 223 242 242 223 238 227 170 239 198 170 236 177 170 
236 177 170 189 174 177 128 189 216 93 191 199 42 156 192 6 99 150 6 33 96 4 8 47 
1 16 14 1 6 4 0 6 1 0 5 1 0 2 0 0 6 1 0 3 1 0 5 1 
0 11 2 0 5 1 2 6 2 1 3 2 0 5 1 0 6 3 0 6 1 0 5 1 
0 4 3 0 11 2 0 11 2 0 6 3 1 12 4 1 7 4 1 7 4 1 9 4 
0 9 4 0 6 3 2 6 2 0 5 1 1 9 4 0 9 4 0 9 4 0 4 3 
0 5 1 2 10 2 2 10 2 0 9 4 0 6 3 0 11 2 1 9 4 5 9 2 
1 7 4 5 9 2 0 4 3 1 12 4 1 6 4 4 8 4 4 10 4 1 11 6 
1 11 6 0 6 3 1 12 4 1 11 6 10 11 4 1 13 6 1 12 4 2 15 5 
1 12 4 1 7 4 0 4 3 0 9 4 2 15 5 0 9 4 1 9 4 1 12 4 
1 11 6 1 7 4 1 12 4 2 15 5 1 9 4 0 6 3 1 12 4 1 6 4 
1 9 4 1 9 4 0 6 3 1 4 4 0 9 4 1 12 4 1 12 4 2 15 5 
0 9 4 0 9 4 1 9 4 1 11 6 1 12 4 1 12 4 0 9 4 1 12 4 
1 7 4 0 6 3 1 6 4 1 13 6 1 11 6 1 12 4 1 12 4 1 12 4 

147 177 131 88 100 145 57 121 132 7 99 141 88 132 124 88 132 124 88 132 124 27 76 117 
27 76 117 59 95 109 88 132 124 94 154 160 156 159 166 156 195 167 57 121 132 126 145 132 
57 82 141 126 145 132 147 177 131 88 100 145 164 179 131 94 154 160 57 121 132 57 121 132 
126 145 132 143 150 131 88 132 124 57 121 132 57 121 132 57 121 132 88 132 124 147 177 131 
126 145 132 126 145 132 147 177 131 189 174 152 164 179 131 94 154 160 88 132 154 94 154 160 
43 121 139 7 126 130 27 78 145 156 159 166 197 213 164 197 213 164 126 172 135 88 132 124 
27 121 132 7 73 121 7 59 103 7 59 103 7 48 95 7 59 103 7 75 102 29 95 109 
27 121 132 88 132 124 126 145 132 126 145 132 7 73 121 7 48 95 6 33 96 7 52 116 
7 59 103 7 59 103 7 52 116 7 81 122 88 132 124 147 177 131 94 154 160 94 154 160 
128 159 167 197 213 164 94 154 160 7 113 146 6 80 137 3 89 142 7 113 146 6 99 150 
6 120 170 7 113 146 7 113 146 7 113 146 6 99 150 6 120 170 56 162 154 43 121 169 
93 181 160 56 162 154 7 99 141 6 80 137 6 80 137 7 73 121 6 80 137 6 73 141 
6 80 137 6 52 136 6 73 141 7 80 149 7 80 149 7 80 149 7 80 149 6 89 150 
6 99 150 7 80 149 6 73 141 3 89 142 3 89 142 3 89 142 6 89 150 6 99 150 
6 99 150 6 99 150 7 80 149 6 99 150 6 99 150 6 99 150 6 120 170 6 95 166 
6 120 170 6 120 170 7 145 184 7 145 184 7 145 184 156 159 166 239 198 170 238 227 170 
242 214 215 242 242 223 242 242 223 242 253 234 242 242 223 242 242 223 242 242 223 238 227 170 
239 198 170 236 177 170 210 180 169 156 186 216 128 189 216 93 191 199 56 162 154 7 81 122 
7 29 75 7 18 20 1 8 8 0 6 1 0 2 0 0 3 1 0 3 1 0 5 1 
0 3 1 0 6 1 0 3 1 0 3 1 0 5 1 0 6 1 0 6 1 0 9 4 
0 11 2 0 6 3 0 4 3 2 10 2 10 11 4 0 6 3 1 12 4 0 6 3 
0 9 4 2 10 2 2 10 2 0 4 3 0 9 4 25 6 4 0 9 4 0 6 1 
0 6 3 0 6 3 0 6 3 0 11 2 1 7 4 0 4 3 1 6 4 1 7 4 
10 11 4 0 6 3 2 6 2 1 9 4 5 9 2 2 6 3 1 12 4 1 13 6 
1 9 6 1 12 4 1 7 4 1 7 4 1 9 4 1 6 4 1 7 4 1 9 4 
0 9 4 0 4 3 0 6 3 1 12 4 1 7 4 1 7 4 1 7 4 1 7 4 
0 9 4 1 7 4 2 6 3 4 8 4 0 6 3 1 9 4 1 12 4 1 9 4 
1 7 4 1 12 4 1 9 4 1 7 4 0 9 4 0 9 4 4 10 4 1 4 4 
1 9 4 4 10 4 0 9 4 1 7 4 0 6 3 1 7 4 0 9 4 0 9 4 
10 11 4 0 9 4 1 7 4 1 12 4 0 9 4 2 15 5 1 9 6 1 12 4 

27 78 145 126 145 132 126 172 135 126 145 132 88 100 145 27 78 145 88 132 124 63 108 116 
63 125 116 88 132 124 88 132 124 126 172 135 147 177 131 156 195 167 164 179 131 126 145 132 
147 177 131 57 82 141 126 145 132 7 99 141 143 150 131 164 179 131 88 132 124 88 132 124 
126 172 135 126 172 135 126 145 132 126 172 135 57 121 132 88 132 124 88 132 124 126 145 132 
126 145 132 88 132 124 126 145 132 164 179 131 164 179 131 147 177 131 143 150 131 147 177 131 
88 132 154 23 120 116 29 95 109 126 145 132 156 159 166 156 195 167 156 195 167 156 195 167 
164 179 131 88 132 124 7 96 112 7 52 116 64 143 106 7 75 102 7 96 112 24 95 100 
7 48 95 7 52 116 43 121 139 94 154 160 88 132 124 27 121 132 29 95 109 29 95 109 
7 59 103 7 59 103 7 59 103 7 48 95 7 59 103 7 73 121 43 121 139 57 121 132 
65 150 115 94 154 160 164 179 131 126 172 135 7 113 146 3 89 142 7 113 146 7 126 130 
7 113 146 7 113 146 7 113 146 7 113 146 7 113 146 7 113 146 6 99 150 6 120 170 
6 120 170 128 189 167 94 154 160 7 113 146 3 89 142 7 73 121 3 89 142 3 89 142 
6 73 141 6 73 141 6 73 141 7 80 149 6 73 141 6 73 141 7 80 149 7 80 149 
7 80 149 6 73 141 6 73 141 3 89 142 6 80 137 6 73 141 6 89 150 6 89 150 
6 89 150 6 89 150 6 99 150 6 99 150 6 89 150 6 89 150 6 89 150 6 99 150 
6 120 170 6 95 166 6 120 170 6 120 170 7 145 184 7 145 184 42 156 192 197 213 164 
238 227 170 238 227 170 242 214 215 242 242 223 242 253 234 242 253 234 242 253 234 242 242 223 
242 242 223 239 198 170 236 177 170 236 177 170 189 174 177 156 186 216 93 191 199 93 191 199 
6 120 170 7 52 116 4 8 47 1 8 8 0 4 3 0 6 1 0 3 1 0 3 1 
0 5 1 0 2 0 0 6 1 0 5 1 2 6 2 0 6 1 0 6 1 0 4 3 
0 6 3 0 4 3 0 5 1 0 5 1 1 3 2 0 4 3 1 12 4 0 9 4 
4 10 4 0 6 3 2 6 2 1 7 4 1 9 4 0 9 4 0 9 4 0 4 3 
0 6 3 0 9 4 1 12 4 0 6 3 1 7 4 5 9 2 0 9 4 0 6 3 
0 4 3 0 4 3 0 6 3 0 4 3 2 10 2 0 9 4 0 4 3 2 6 3 
1 9 4 0 6 3 1 7 4 1 7 4 1 9 4 0 6 3 0 11 2 0 6 3 
0 9 4 4 8 4 1 12 4 1 7 4 0 6 3 4 10 4 0 4 3 0 9 4 
10 18 5 1 7 4 1 7 4 4 5 4 2 10 2 0 4 3 1 6 4 2 15 5 
1 7 4 4 10 4 1 7 4 2 10 2 0 4 3 0 9 4 0 4 3 2 6 3 
1 12 4 1 7 4 1 7 4 1 12 4 0 9 4 0 9 4 1 7 4 1 7 4 
0 9 4 2 15 5 1 4 4 0 9 4 1 7 4 0 6 3 0 9 4 1 12 4 

126 172 135 88 132 124 94 154 160 94 154 160 147 177 131 126 145 132 88 132 124 88 132 124 
57 121 132 63 108 116 59 95 109 57 121 132 88 132 124 88 132 154 126 145 132 147 177 131 
126 145 132 88 132 124 63 108 116 29 95 109 88 100 145 147 177 131 88 132 124 57 121 132 
126 145 132 126 145 132 126 172 135 126 172 135 126 145 132 57 121 132 88 132 154 126 145 132 
88 132 124 57 121 132 88 132 154 126 172 135 126 172 135 147 177 131 126 172 135 147 177 131 
126 145 132 7 81 122 7 96 112 58 82 117 147 177 131 128 159 167 156 195 167 156 159 166 
156 195 167 189 174 152 126 172 135 27 78 145 7 52 116 7 52 116 7 59 103 7 59 103 
7 48 95 7 59 103 7 73 121 27 121 132 65 150 115 7 113 146 88 132 124 164 179 131 
126 145 132 27 121 132 7 73 121 7 73 121 7 59 103 7 59 103 7 73 121 7 81 122 
7 99 141 7 99 141 43 121 139 126 145 132 43 121 139 7 99 141 3 89 142 6 99 150 
7 113 146 7 99 141 7 99 141 6 99 150 7 113 146 7 113 146 7 113 146 7 113 146 
6 120 170 43 121 169 93 181 160 56 162 154 27 163 154 6 80 137 7 73 121 3 89 142 
3 89 142 3 89 142 6 89 150 7 80 149 6 73 141 6 73 141 6 73 141 6 73 141 
7 80 149 7 80 149 6 80 137 6 80 137 6 80 137 6 80 137 3 89 142 7 80 149 
3 89 142 6 73 141 3 89 142 6 89 150 6 89 150 6 99 150 6 89 150 7 80 149 
6 89 150 6 99 150 6 95 166 6 120 170 6 120 170 6 120 170 6 120 170 7 145 184 
128 159 167 239 198 170 238 227 170 238 227 170 242 242 223 242 253 234 242 253 234 242 253 234 
242 242 223 242 242 223 238 227 170 239 198 170 239 198 170 236 177 170 189 174 177 128 189 216 
93 191 199 56 162 154 7 99 141 6 33 96 4 8 47 1 4 6 0 3 1 0 3 1 
0 3 1 0 3 1 0 3 1 0 3 1 0 3 1 0 3 1 0 6 1 0 4 3 
2 15 5 0 3 1 4 12 4 0 4 3 2 6 2 2 6 2 1 7 4 0 6 3 
2 6 2 0 5 1 0 4 3 0 4 3 1 7 4 0 6 3 24 23 9 0 4 3 
2 10 2 0 4 3 0 9 4 0 9 4 0 6 3 0 9 4 1 12 4 2 10 2 
1 7 4 0 4 3 0 6 1 0 11 2 0 2 2 2 10 2 0 4 3 1 7 4 
0 4 3 2 10 2 1 7 4 1 7 4 1 7 4 0 11 2 0 11 2 0 6 3 
0 6 3 1 7 4 4 12 4 1 6 4 0 9 4 2 15 5 1 7 4 0 9 4 
0 9 4 1 7 4 1 9 4 2 15 5 0 9 4 2 6 2 2 10 2 2 6 3 
2 6 2 5 9 2 0 11 2 1 7 4 1 7 4 1 7 4 0 9 4 0 6 3 
1 6 4 1 12 4 0 4 3 0 9 4 0 6 3 1 9 4 0 6 3 2 10 2 
0 9 4 0 9 4 1 12 4 24 23 9 1 13 6 0 6 3 0 6 3 1 6 4 

58 82 117 63 125 116 88 132 124 57 121 132 88 132 124 57 121 132 88 100 145 88 132 154 
57 121 132 29 95 109 7 52 116 25 63 109 59 95 109 63 108 116 43 121 139 63 108 116 
27 76 117 29 95 109 27 76 117 7 59 103 7 81 122 126 145 132 57 121 132 27 76 117 
88 132 124 88 132 124 88 132 124 126 172 135 126 172 135 94 154 160 126 145 132 88 132 124 
88 132 124 143 150 131 147 177 131 126 172 135 94 154 160 94 154 160 88 132 124 43 121 139 
42 120 116 7 96 112 7 75 102 7 75 102 63 108 116 126 145 132 128 159 167 94 154 160 
128 159 167 164 179 131 156 195 167 126 172 135 126 172 135 88 132 124 29 95 109 7 48 95 
7 48 95 7 48 95 7 59 103 7 52 116 7 73 121 7 73 121 7 99 141 57 121 132 
126 172 135 147 177 131 126 172 135 57 121 132 57 82 141 7 73 121 7 73 121 7 73 121 
7 73 121 7 73 121 7 73 121 7 73 121 3 89 142 7 99 141 3 89 142 7 99 141 
3 89 142 3 89 142 7 99 141 3 89 142 3 89 142 3 89 142 7 113 146 7 113 146 
7 113 146 6 120 170 6 120 170 43 121 169 93 181 160 7 113 146 7 73 121 7 73 121 
3 89 142 6 89 150 6 120 170 6 95 166 7 80 149 6 73 141 6 73 141 6 73 141 
6 73 141 6 73 141 6 80 137 7 73 121 7 73 121 6 80 137 6 80 137 3 89 142 
7 80 149 3 89 142 6 80 137 3 89 142 6 99 150 6 99 150 6 89 150 6 89 150 
6 99 150 7 80 149 6 89 150 7 113 146 6 120 170 6 95 166 6 120 170 6 120 170 
27 163 154 27 163 154 88 132 154 210 180 169 238 227 170 242 253 234 242 253 234 242 253 234 
242 253 234 242 253 234 242 242 223 242 242 223 238 227 170 239 198 170 236 177 170 236 177 170 
156 186 216 128 189 216 93 191 199 43 121 169 7 73 121 7 29 75 7 18 20 0 4 3 
4 5 4 0 5 1 0 5 1 0 3 1 0 3 1 0 3 1 0 2 2 0 6 1 
0 5 1 0 3 1 0 6 1 0 6 3 0 6 1 0 4 3 0 11 2 0 5 1 
0 5 1 0 4 3 0 11 2 1 7 4 25 6 4 0 11 2 24 23 9 0 4 3 
2 6 2 2 6 2 2 6 2 2 6 2 0 4 3 0 9 4 0 6 3 0 6 3 
0 9 4 0 6 1 2 6 2 0 4 3 0 5 1 0 5 1 0 6 3 0 6 3 
0 6 1 5 9 2 1 9 4 4 10 4 2 6 3 1 9 4 1 9 4 1 7 4 
0 9 4 0 4 3 2 15 5 1 11 6 1 9 4 0 6 3 1 9 4 1 7 4 
1 7 4 0 4 3 4 8 4 1 7 4 0 11 2 0 3 1 2 6 2 0 4 3 
2 10 2 1 7 4 0 6 3 1 12 4 1 9 4 1 12 4 0 4 3 0 11 2 
0 4 3 0 9 4 0 6 3 1 12 4 1 12 4 0 6 3 0 9 4 0 4 3 
0 4 3 0 9 4 1 7 4 1 12 4 1 9 4 0 6 3 1 9 4 2 15 5 

7 48 95 7 48 95 54 83 99 29 95 109 27 76 117 63 108 116 126 145 132 126 145 132 
126 145 132 43 121 139 7 75 102 7 72 82 24 68 95 97 125 111 126 145 104 29 95 109 
59 95 109 63 108 116 27 76 117 7 59 103 7 75 102 63 108 116 97 125 111 29 95 109 
63 108 116 88 132 124 63 125 116 88 132 124 88 132 124 88 132 154 126 145 132 43 121 139 
57 121 132 126 145 132 126 172 135 94 154 160 88 132 154 57 121 132 7 81 122 7 73 121 
29 95 109 7 75 102 24 95 100 54 83 99 27 76 117 88 132 154 128 189 167 94 154 160 
88 132 154 88 132 154 164 179 131 189 174 152 156 195 167 156 195 167 164 179 131 126 145 132 
27 76 117 7 52 116 7 59 103 7 59 103 7 59 103 7 59 103 7 73 121 7 73 121 
7 99 141 126 145 132 143 150 131 198 196 136 240 205 129 198 196 136 161 151 130 88 132 124 
88 132 124 57 121 132 57 121 132 7 99 141 7 99 141 7 99 141 7 113 146 7 126 130 
7 126 130 7 99 141 7 99 141 7 99 141 7 99 141 7 99 141 6 99 150 6 99 150 
7 113 146 6 120 170 6 120 170 7 113 146 6 95 166 7 113 146 7 99 141 6 80 137 
7 126 130 126 172 135 156 159 166 88 132 154 6 120 170 7 113 146 6 99 150 6 89 150 
6 73 141 7 73 121 7 52 116 7 73 121 7 73 121 7 73 121 6 80 137 6 80 137 
7 113 146 7 99 141 3 89 142 3 89 142 6 99 150 6 99 150 6 99 150 6 99 150 
6 99 150 3 89 142 3 89 142 7 80 149 6 99 150 6 95 166 6 95 166 6 120 170 
6 120 170 6 120 170 6 120 170 6 95 166 43 121 169 198 212 189 242 242 223 242 253 234 
242 253 234 242 253 234 242 253 234 242 253 234 242 242 223 242 242 223 238 227 170 236 177 170 
236 177 170 189 174 177 156 186 216 93 191 199 93 161 196 6 120 170 7 59 103 4 8 47 
1 4 6 0 5 1 0 3 1 0 3 1 0 2 0 0 3 1 0 5 1 0 5 1 
0 3 1 0 3 1 0 5 1 0 6 1 0 6 1 0 4 3 0 11 2 0 6 1 
0 6 1 0 3 1 0 4 3 0 6 1 0 6 1 2 6 3 0 5 1 0 5 1 
0 6 3 0 11 2 1 1 2 2 10 2 0 4 3 0 9 4 0 9 4 0 4 3 
0 6 1 0 5 1 0 6 1 0 4 3 0 4 3 2 6 2 1 7 4 2 6 2 
2 4 2 0 9 4 4 8 4 0 4 3 2 10 2 1 9 4 0 6 3 1 9 4 
0 11 2 0 9 4 1 12 4 1 9 4 0 4 3 0 11 2 1 12 4 1 7 4 
15 7 5 1 12 4 0 9 4 0 6 3 0 4 3 0 6 3 0 6 3 7 7 4 
4 8 4 0 9 4 1 12 4 0 9 4 0 11 2 0 6 3 1 7 4 0 9 4 
0 6 3 0 9 4 1 7 4 0 6 1 1 12 4 0 6 3 0 9 4 0 11 2 
0 4 3 0 4 3 0 4 3 24 23 9 1 7 4 4 12 4 1 7 4 1 7 4 

7 48 95 24 68 95 7 59 103 24 95 100 24 68 95 29 95 109 42 120 116 63 108 116 
126 145 132 126 145 104 29 95 109 7 48 95 7 29 75 7 48 95 89 107 111 24 68 95 
25 63 109 63 125 116 7 73 121 7 48 95 7 48 95 7 48 95 40 64 95 24 68 95 
25 63 109 27 76 117 27 76 117 7 81 122 6 80 137 88 132 124 88 132 124 27 76 117 
42 120 116 88 132 124 126 172 135 126 172 135 94 154 160 57 121 132 29 95 109 7 73 121 
7 59 103 6 33 96 7 59 103 83 125 111 65 150 115 126 145 132 126 172 135 128 159 167 
88 132 154 57 121 132 88 132 124 126 145 132 147 177 131 156 195 167 189 174 152 189 174 152 
164 179 131 147 177 131 126 145 132 88 132 124 57 121 132 27 121 132 7 81 122 7 52 116 
27 76 117 126 145 104 126 145 132 143 150 131 147 177 131 164 179 131 198 170 136 198 170 136 
164 179 131 198 196 136 198 196 136 164 179 131 88 132 124 43 121 139 57 121 132 57 121 132 
7 113 146 7 99 141 3 89 142 3 89 142 7 113 146 7 126 130 6 99 150 3 89 142 
6 99 150 7 113 146 7 113 146 7 113 146 7 113 146 7 113 146 6 89 150 3 89 142 
6 99 150 6 95 166 156 195 167 238 227 170 189 174 177 94 154 160 27 163 154 56 162 154 
43 121 139 7 73 121 7 73 121 7 73 121 7 73 121 7 52 116 7 73 121 6 80 137 
6 80 137 7 113 146 6 99 150 6 99 150 6 73 141 6 99 150 6 99 150 6 95 166 
6 120 170 7 113 146 6 89 150 6 99 150 6 89 150 6 89 150 6 99 150 6 95 166 
6 120 170 6 120 170 6 120 170 6 120 170 6 89 150 88 132 154 198 212 189 242 242 223 
242 253 234 242 253 234 242 253 234 242 253 234 242 253 234 242 242 223 242 242 223 238 227 170 
238 227 170 236 177 170 236 177 170 189 174 177 128 189 216 93 191 199 42 156 192 3 89 142 
7 29 75 7 18 20 1 8 8 0 5 1 0 3 1 0 5 1 0 3 1 0 2 0 
0 3 1 0 6 1 0 3 1 2 6 2 0 11 2 0 6 1 0 4 3 0 6 1 
2 10 2 0 6 1 0 6 1 0 6 3 0 6 1 0 6 1 25 6 4 0 5 1 
5 9 2 11 7 4 2 10 2 0 5 1 0 6 3 1 9 4 1 12 4 0 6 3 
0 11 2 0 5 1 5 9 2 10 11 4 0 9 4 0 5 1 0 4 3 5 9 2 
2 6 3 2 6 3 0 4 3 4 10 4 4 5 4 0 6 3 0 11 2 10 11 4 
2 10 2 2 6 3 0 6 3 1 12 4 0 6 3 0 9 4 1 12 4 1 9 4 
0 6 3 4 10 4 1 12 4 1 7 4 0 11 2 0 9 4 2 6 2 1 1 2 
0 6 3 4 8 4 0 6 3 15 7 5 0 5 1 2 6 2 2 10 2 2 10 2 
0 4 3 0 11 2 2 6 3 0 4 3 0 11 2 1 7 4 1 12 4 4 8 4 
0 9 4 0 9 4 10 18 5 0 9 4 0 9 4 2 15 5 1 7 4 0 11 2 

83 125 111 29 95 109 63 125 116 58 82 117 27 76 117 29 95 109 27 76 117 7 52 116 
7 73 121 27 76 117 7 73 121 7 75 102 24 95 100 7 75 102 24 95 100 24 68 95 
59 95 109 63 108 116 42 120 116 23 120 116 7 75 102 24 95 100 24 68 95 54 83 99 
27 76 117 63 108 116 57 121 132 57 121 132 126 145 132 126 172 135 88 132 124 63 125 116 
29 95 109 63 108 116 88 132 124 88 132 124 57 121 132 43 121 139 43 121 139 65 150 115 
42 120 116 7 59 103 7 96 112 7 52 116 7 96 112 42 120 116 88 132 124 126 172 135 
88 132 154 88 132 124 63 108 116 88 132 124 88 132 154 126 145 132 164 179 131 189 174 152 
189 174 152 156 159 166 189 174 152 147 177 131 126 172 135 126 172 135 126 172 135 43 121 139 
42 120 116 7 81 122 42 120 116 42 120 116 88 132 124 155 144 112 126 145 132 126 145 132 
161 151 130 126 145 132 88 132 124 126 145 132 126 172 135 143 150 131 88 132 124 88 132 124 
126 172 135 126 172 135 57 121 132 7 113 146 3 89 142 7 113 146 7 126 130 7 99 141 
3 89 142 3 89 142 7 113 146 7 113 146 7 113 146 7 113 146 7 113 146 7 126 130 
7 113 146 27 163 154 6 95 166 189 174 152 238 227 170 238 227 170 189 174 177 88 132 154 
94 154 160 63 125 116 57 82 141 7 52 116 7 73 121 7 73 121 7 73 121 7 73 121 
7 73 121 6 80 137 7 99 141 7 113 146 3 89 142 3 89 142 6 99 150 6 99 150 
6 99 150 7 113 146 7 113 146 6 99 150 6 99 150 6 99 150 6 89 150 6 95 166 
6 120 170 6 120 170 6 120 170 6 120 170 6 120 170 6 95 166 43 121 169 112 112 150 
198 212 189 242 242 223 242 253 234 242 253 234 242 253 234 242 253 234 242 253 234 242 242 223 
238 227 170 239 198 170 239 198 170 236 177 170 210 180 169 156 186 216 93 191 199 93 191 199 
6 120 170 7 59 103 4 8 47 1 8 8 0 4 3 0 3 1 0 3 1 0 3 1 
0 6 1 0 5 1 1 3 2 2 6 2 5 9 2 2 6 2 0 3 1 0 5 1 
2 6 3 1 7 4 0 9 4 1 9 4 0 6 1 0 11 2 0 6 3 0 4 3 
1 9 4 25 6 4 2 6 2 2 6 2 2 6 2 0 9 4 0 4 3 0 4 3 
2 15 5 0 11 2 1 7 4 2 6 3 0 4 3 0 6 1 0 6 1 0 4 3 
0 3 1 2 10 2 1 7 4 4 8 4 1 12 4 0 6 3 1 7 4 1 12 4 
2 6 2 1 7 4 2 10 2 1 12 4 0 11 2 0 6 3 0 9 4 10 11 4 
1 7 4 1 7 4 1 7 4 0 9 4 1 7 4 0 6 3 1 7 4 0 4 3 
0 11 2 1 6 4 5 9 2 0 4 3 2 6 2 0 6 1 0 9 4 0 6 3 
0 4 3 0 11 2 0 6 3 0 4 3 2 6 3 1 7 4 1 12 4 4 8 4 
1 12 4 1 13 6 1 13 6 1 9 6 0 9 4 1 7 4 0 4 3 0 6 1 

58 82 117 29 95 109 88 132 124 147 177 131 63 125 116 63 108 116 97 125 111 126 145 132 
126 145 132 88 132 124 88 132 124 63 108 116 59 95 109 57 121 132 42 120 116 27 76 117 
29 95 109 29 95 109 42 120 116 29 95 109 24 56 95 7 75 102 27 76 117 59 95 109 
59 95 109 83 125 111 97 125 111 88 132 124 57 121 132 57 121 132 27 76 117 7 59 103 
7 59 103 7 59 103 29 95 109 7 113 119 27 121 132 56 162 154 94 154 160 94 154 160 
43 121 139 7 113 119 24 95 100 7 59 103 7 48 95 7 59 103 42 120 116 126 145 132 
164 179 131 126 145 132 57 121 132 57 121 132 126 145 132 88 132 124 88 100 145 126 145 132 
164 179 131 156 159 166 128 159 167 147 177 131 143 150 131 164 179 131 147 177 131 126 172 135 
57 121 132 27 121 132 7 96 112 7 73 121 23 120 116 63 108 116 88 132 124 126 172 135 
143 150 131 57 121 132 57 121 132 57 121 132 57 121 132 143 150 131 126 145 132 63 125 116 
27 121 132 57 121 132 126 172 135 126 172 135 27 163 154 7 113 146 7 113 146 7 126 130 
7 113 146 7 113 146 7 99 141 7 113 146 7 113 146 7 113 146 7 113 146 7 113 146 
6 99 150 6 99 150 3 89 142 7 80 149 128 159 167 238 227 170 238 227 170 239 198 170 
189 174 152 88 132 154 88 132 124 43 121 139 3 89 142 6 80 137 6 52 136 7 73 121 
7 73 121 7 73 121 7 52 116 6 73 141 6 80 137 6 80 137 3 89 142 3 89 142 
6 73 141 6 89 150 6 89 150 6 99 150 6 99 150 6 89 150 6 89 150 6 99 150 
6 89 150 6 95 166 6 120 170 6 120 170 42 156 192 128 189 167 6 120 170 6 120 170 
128 159 167 225 208 211 242 242 223 242 253 234 242 253 234 242 253 234 242 253 234 242 242 223 
242 242 223 238 227 170 239 198 170 238 227 170 239 198 170 236 177 170 189 174 177 128 189 216 
93 191 199 42 156 192 7 99 141 7 29 75 4 8 47 1 4 6 0 3 1 0 3 1 
0 3 1 0 3 1 0 5 1 0 6 1 0 4 3 0 6 1 0 6 1 0 6 1 
0 6 3 2 10 2 0 4 3 0 5 1 0 3 1 0 6 3 0 6 1 2 6 2 
0 9 4 1 7 4 0 6 3 2 10 2 0 4 3 0 9 4 1 7 4 0 9 4 
0 11 2 0 6 3 0 11 2 0 6 3 0 6 3 4 12 4 0 4 3 0 4 3 
0 4 3 1 7 4 0 11 2 4 5 4 2 10 2 1 7 4 10 18 5 1 4 4 
0 6 3 4 8 4 0 6 3 0 6 3 1 7 4 1 7 4 1 7 4 0 11 2 
1 7 4 1 9 4 0 9 4 4 5 4 4 12 4 2 6 3 1 9 4 0 6 1 
24 23 9 2 15 5 1 9 4 0 4 3 0 6 1 0 11 2 1 7 4 2 10 2 
2 6 3 1 9 4 0 9 4 2 10 2 1 7 4 4 12 4 1 7 4 0 11 2 
1 6 4 1 9 6 1 9 6 1 12 4 0 6 3 0 6 1 0 9 4 0 11 2 

112 130 109 7 73 121 7 52 116 63 108 116 27 76 117 58 82 117 58 82 117 57 121 132 
57 121 132 88 132 124 88 132 124 88 132 124 88 132 124 88 132 124 88 132 124 88 132 124 
27 76 117 58 82 117 7 73 121 7 52 116 7 59 103 7 59 103 7 75 102 7 59 103 
7 48 95 7 48 95 27 76 117 143 150 131 94 154 160 126 172 135 112 130 109 63 108 116 
7 96 112 24 95 100 7 113 119 7 96 112 7 113 119 27 121 132 27 121 132 42 120 116 
7 75 102 7 48 95 7 48 95 7 72 82 7 72 82 7 48 95 83 125 111 57 121 132 
88 132 154 126 172 135 147 177 131 88 132 154 88 132 154 147 177 131 143 150 131 143 150 131 
147 177 131 164 179 131 164 179 131 126 145 132 126 145 132 126 172 135 126 145 132 126 172 135 
147 177 131 147 177 131 126 145 132 63 125 116 88 132 124 88 132 124 27 121 132 57 121 132 
164 179 131 198 170 136 164 179 131 164 179 131 164 179 131 143 150 131 143 150 131 88 132 124 
88 132 124 27 121 132 7 113 146 43 121 139 43 121 139 7 126 130 7 126 130 7 113 146 
7 113 146 7 113 146 6 99 150 6 99 150 6 99 150 7 113 146 7 113 146 6 99 150 
6 99 150 3 89 142 3 89 142 3 89 142 3 89 142 112 112 150 240 205 129 238 227 170 
238 227 170 238 227 170 156 159 166 164 179 131 112 112 150 7 113 146 7 99 141 6 80 137 
6 80 137 7 73 121 7 73 121 7 73 121 7 73 121 7 73 121 6 80 137 6 73 141 
6 80 137 3 89 142 7 80 149 6 89 150 6 99 150 7 113 146 6 99 150 3 89 142 
6 99 150 7 113 146 6 95 166 6 120 170 6 95 166 94 154 160 93 181 160 6 95 166 
43 121 169 156 195 167 242 242 223 242 253 234 242 253 234 242 253 234 242 253 234 242 253 234 
242 253 234 242 253 234 242 242 223 238 227 170 239 198 170 236 177 170 236 177 170 210 180 169 
156 186 216 128 189 216 93 191 199 27 163 154 7 73 121 4 8 47 1 16 14 0 4 3 
0 3 1 0 2 0 0 3 1 0 3 1 0 5 1 0 3 1 1 3 2 0 5 1 
0 4 3 0 6 1 2 6 2 2 6 2 0 6 1 0 6 1 0 6 1 0 4 3 
4 12 4 0 4 3 10 11 4 0 6 3 1 7 4 2 10 2 0 4 3 0 6 3 
0 6 3 0 9 4 0 6 3 0 5 1 0 4 3 1 7 4 0 4 3 0 3 1 
10 9 2 5 9 2 0 9 4 0 4 3 0 9 4 1 4 4 4 12 4 0 9 4 
10 18 5 0 4 3 0 6 3 0 11 2 0 4 3 4 10 4 0 9 4 1 12 4 
0 6 3 25 6 4 1 7 4 0 6 3 0 4 3 0 4 3 0 6 1 2 6 2 
0 6 3 1 7 4 1 9 4 2 15 5 0 9 4 0 6 1 4 8 4 2 10 2 
0 6 3 0 9 4 4 12 4 0 11 2 1 4 4 4 12 4 0 9 4 1 6 4 
2 15 5 2 15 5 0 9 4 4 8 4 0 6 1 0 3 1 0 11 2 1 7 4 

63 108 116 63 108 116 63 125 116 27 76 117 29 95 109 42 120 116 29 95 109 59 95 109 
27 76 117 29 95 109 63 108 116 29 95 109 59 95 109 88 132 124 88 132 124 143 150 131 
126 172 135 164 179 131 126 172 135 143 150 131 88 132 124 88 132 124 57 121 132 63 108 116 
25 63 109 29 95 109 126 145 104 126 145 132 126 172 135 147 177 131 126 172 135 126 145 132 
7 81 122 7 48 95 7 59 103 24 95 100 42 120 116 27 121 132 7 73 121 7 48 95 
7 59 103 7 59 103 7 75 102 7 75 102 7 59 103 7 29 75 7 48 95 24 95 100 
7 81 122 63 125 116 57 121 132 126 145 132 88 132 154 126 172 135 126 172 135 126 145 132 
143 150 131 164 179 131 126 145 132 143 150 131 126 172 135 126 145 132 126 145 132 164 179 131 
161 151 130 143 150 131 164 179 131 126 172 135 126 145 132 126 145 132 126 172 135 126 145 132 
126 145 132 88 132 124 147 177 131 164 179 131 189 174 152 198 196 136 198 196 136 198 170 136 
164 179 131 198 170 136 143 150 131 43 121 139 7 99 141 7 99 141 7 126 130 7 126 130 
6 99 150 7 126 130 6 120 170 7 113 146 6 99 150 6 99 150 3 89 142 7 113 146 
7 99 141 7 99 141 3 89 142 7 99 141 7 99 141 3 89 142 6 89 150 112 112 150 
197 213 164 238 227 170 238 227 170 239 198 170 198 196 136 43 121 169 88 132 154 3 89 142 
6 73 141 6 80 137 6 80 137 7 73 121 7 73 121 7 52 116 7 52 116 7 73 121 
6 80 137 6 73 141 3 89 142 3 89 142 3 89 142 6 89 150 6 99 150 6 99 150 
3 89 142 7 80 149 6 99 150 6 95 166 6 95 166 6 95 166 43 121 169 56 162 154 
6 120 170 56 162 154 128 159 167 242 242 223 242 253 234 242 253 234 242 253 234 242 253 234 
242 253 234 242 253 234 242 253 234 242 242 223 242 242 223 239 198 170 239 198 170 236 177 170 
239 198 170 189 174 177 156 186 216 93 191 199 43 185 193 7 113 146 7 29 75 7 18 20 
1 4 6 0 2 2 0 3 1 0 3 1 0 3 1 2 4 2 0 3 1 0 6 1 
0 3 1 25 6 4 0 6 1 0 5 1 0 3 1 0 5 1 0 11 2 0 6 1 
0 4 3 0 6 1 0 5 1 0 11 2 1 12 4 0 4 3 2 6 2 1 12 4 
0 4 3 0 11 2 1 7 4 0 11 2 1 7 4 0 11 2 0 11 2 2 6 2 
1 3 2 0 6 3 2 10 2 0 6 3 1 12 4 1 9 4 4 12 4 1 12 4 
1 12 4 1 9 4 4 8 4 0 6 3 0 4 3 25 6 4 1 9 4 0 11 2 
0 4 3 0 4 3 0 11 2 1 12 4 4 5 4 0 6 1 1 7 4 1 7 4 
0 11 2 2 6 2 2 4 2 0 4 3 1 12 4 0 2 2 10 11 4 4 12 4 
2 10 2 10 11 4 0 9 4 1 7 4 0 9 4 0 6 3 1 12 4 1 13 6 
1 12 4 1 7 4 0 6 3 0 6 1 0 6 1 0 6 1 0 9 4 0 9 4 

88 132 124 88 132 124 88 132 124 63 108 116 63 108 116 63 125 116 83 125 111 63 108 116 
7 52 116 27 76 117 63 108 116 112 130 109 57 121 132 63 108 116 88 132 124 112 114 119 
88 132 124 27 78 145 57 82 141 126 145 132 88 132 154 147 177 131 126 172 135 143 150 131 
88 132 124 83 125 111 88 132 124 88 132 124 88 100 145 88 132 154 126 145 132 126 172 135 
27 121 132 7 96 112 7 59 103 7 75 102 7 96 112 42 120 116 7 96 112 7 59 103 
7 48 95 7 81 122 27 121 132 88 132 124 23 120 116 7 75 102 7 56 82 6 33 96 
7 48 95 7 73 121 63 125 116 7 99 141 57 121 132 94 154 160 88 132 154 94 154 160 
126 172 135 126 145 132 88 132 124 57 82 141 126 145 132 88 132 154 88 132 154 126 145 132 
161 151 130 143 150 131 126 145 132 164 179 131 143 150 131 126 172 135 126 145 132 143 150 131 
126 145 132 63 108 116 7 81 122 88 132 124 143 150 131 164 179 131 164 179 131 198 196 136 
240 205 129 240 173 129 198 196 136 126 145 132 57 121 132 7 126 130 7 99 141 7 99 141 
7 113 146 7 126 130 7 113 146 7 126 130 7 113 146 6 99 150 3 89 142 7 99 141 
7 99 141 7 99 141 3 89 142 3 89 142 7 113 146 7 126 130 7 99 141 3 89 142 
7 80 149 112 112 150 210 180 169 239 198 170 239 198 170 210 180 169 189 174 152 198 170 136 
88 100 145 7 99 141 6 80 137 7 73 121 7 73 121 7 73 121 7 52 116 7 73 121 
7 73 121 7 73 121 6 80 137 3 89 142 3 89 142 6 89 150 7 80 149 6 99 150 
6 89 150 3 89 142 3 89 142 6 99 150 6 89 150 6 99 150 6 95 166 6 120 170 
6 120 170 6 120 170 6 95 166 189 174 177 242 242 223 242 253 234 242 242 223 242 242 223 
242 253 234 242 253 234 242 253 234 242 253 234 242 253 234 242 253 234 242 242 223 239 198 170 
239 198 170 239 198 170 236 177 170 189 174 177 128 189 216 93 191 199 43 121 169 7 73 121 
4 8 47 1 16 14 0 4 3 0 3 1 0 5 1 0 3 1 0 6 1 0 4 3 
0 5 1 0 3 1 0 3 1 0 3 1 0 6 1 0 5 1 0 4 3 0 4 3 
24 23 9 0 11 2 0 5 1 0 11 2 0 9 4 2 10 2 0 4 3 4 8 4 
2 6 3 0 6 3 0 6 3 0 2 2 0 4 3 0 4 3 0 6 3 2 6 2 
0 6 3 0 9 4 1 7 4 1 7 4 1 12 4 1 12 4 1 7 4 1 6 4 
1 7 4 10 11 4 4 8 4 2 10 2 0 4 3 5 9 2 0 9 4 1 9 4 
2 4 2 1 7 4 0 9 4 1 7 4 0 9 4 1 7 4 1 7 4 2 4 2 
0 5 1 2 6 2 5 9 2 0 4 3 4 10 4 1 7 4 4 10 4 0 4 3 
0 4 3 4 8 4 0 4 3 0 6 3 0 9 4 1 9 4 1 9 4 1 7 4 
1 7 4 1 12 4 1 7 4 1 9 4 2 6 3 0 6 3 0 9 4 1 7 4 

25 63 109 59 95 109 63 108 116 89 107 111 83 125 111 63 125 116 112 114 119 126 145 132 
143 150 131 63 108 116 27 76 117 112 130 109 63 125 116 88 132 124 88 132 124 112 114 119 
57 121 132 112 130 109 143 150 131 88 132 124 88 132 124 112 114 119 126 145 132 126 145 132 
57 121 132 63 125 116 126 145 132 126 145 132 88 132 124 88 132 154 88 132 154 126 145 132 
88 132 124 57 121 132 63 125 116 63 108 116 7 52 116 7 81 122 7 81 122 7 75 102 
59 95 109 57 121 132 94 154 160 88 132 124 29 95 109 7 75 102 7 75 102 7 75 102 
7 75 102 7 75 102 29 95 109 42 120 116 88 132 124 147 177 131 126 145 132 88 132 154 
126 172 135 126 172 135 126 172 135 143 150 131 126 145 132 94 154 160 126 145 132 126 145 132 
126 145 132 164 179 131 126 145 132 147 177 131 164 179 131 88 132 154 147 177 131 126 172 135 
147 177 131 164 179 131 83 125 111 83 125 111 126 145 132 143 150 131 161 151 130 198 170 136 
198 196 136 198 170 136 240 205 129 164 179 131 126 145 132 27 121 132 27 121 132 7 113 146 
7 113 146 3 89 142 7 99 141 7 113 146 43 121 139 27 121 132 7 113 146 7 99 141 
7 99 141 7 113 146 3 89 142 3 89 142 6 73 141 3 89 142 3 89 142 3 89 142 
3 89 142 3 89 142 126 145 132 239 198 170 239 198 170 239 198 170 238 227 170 239 198 170 
240 205 129 189 174 152 88 132 154 27 78 145 6 73 141 7 81 122 7 73 121 7 73 121 
7 52 116 7 52 116 7 73 121 3 89 142 3 89 142 3 89 142 6 99 150 3 89 142 
3 89 142 3 89 142 3 89 142 6 89 150 7 113 146 6 99 150 7 113 146 6 120 170 
6 95 166 6 99 150 7 113 146 43 121 169 156 195 167 242 242 223 242 242 223 225 208 211 
225 208 211 242 214 215 242 253 234 242 253 234 242 253 234 242 253 234 242 253 234 242 253 234 
242 242 223 238 227 170 239 198 170 236 177 170 210 180 169 156 186 216 93 191 199 42 156 192 
6 99 150 7 29 75 7 18 20 1 4 4 0 3 1 0 2 0 0 5 1 0 3 1 
0 5 1 0 3 1 0 3 1 0 5 1 0 6 1 0 2 0 0 3 1 2 4 2 
1 7 4 0 4 3 2 6 2 0 11 2 0 4 3 1 12 4 0 9 4 0 9 4 
1 7 4 0 11 2 0 4 3 2 10 2 2 6 2 0 5 1 1 3 2 0 5 1 
2 6 3 1 6 4 1 7 4 0 4 3 4 10 4 4 8 4 1 12 4 4 10 4 
0 4 3 1 7 4 2 6 3 0 4 3 2 10 2 1 4 4 1 7 4 0 6 3 
4 12 4 1 9 4 4 8 4 4 9 6 1 4 4 1 9 4 0 4 3 2 6 2 
0 6 1 0 6 3 10 18 5 0 6 3 15 7 5 0 6 3 1 12 4 2 6 3 
0 4 3 0 4 3 0 11 2 0 4 3 1 12 4 1 4 4 1 4 4 1 7 4 
0 5 1 0 6 3 1 9 4 1 7 4 0 6 3 1 7 4 1 12 4 0 6 3 

24 68 95 27 76 117 27 76 117 59 95 109 27 76 117 63 125 116 88 132 124 126 145 132 
112 112 150 147 177 131 27 76 117 59 95 109 63 108 116 88 132 124 88 132 124 126 145 132 
126 145 132 88 132 124 126 145 132 88 132 124 63 108 116 59 95 109 63 108 116 63 108 116 
63 125 116 29 95 109 63 108 116 88 132 124 88 132 124 88 132 124 126 145 132 88 132 154 
88 132 154 57 121 132 88 132 124 126 145 132 63 125 116 65 150 115 88 132 124 57 121 132 
57 121 132 29 95 109 63 108 116 7 59 103 7 48 95 7 56 82 7 56 82 7 48 95 
7 56 82 7 59 103 29 95 109 57 121 132 57 121 132 88 132 154 88 132 124 57 121 132 
94 154 160 126 145 132 94 154 160 147 177 131 147 177 131 126 145 132 147 177 131 126 172 135 
147 177 131 164 179 131 147 177 131 147 177 131 164 179 131 126 145 132 147 177 131 126 172 135 
126 145 132 147 177 131 164 179 131 88 132 124 88 132 124 112 130 109 112 130 109 88 132 124 
161 151 130 161 151 130 198 170 136 147 177 131 126 172 135 57 121 132 27 121 132 7 113 146 
27 121 132 7 126 130 7 99 141 7 99 141 6 99 150 7 113 146 27 163 154 7 113 146 
3 89 142 6 99 150 6 99 150 7 99 141 7 99 141 6 80 137 3 89 142 3 89 142 
6 80 137 3 89 142 3 89 142 126 172 135 238 227 170 238 227 170 239 198 170 239 198 170 
236 177 170 239 198 170 240 205 129 198 170 136 143 150 131 88 132 154 6 73 141 7 73 121 
7 73 121 7 52 116 7 73 121 7 73 121 3 89 142 3 89 142 6 73 141 6 73 141 
3 89 142 3 89 142 3 89 142 3 89 142 6 89 150 43 121 139 7 113 146 6 99 150 
6 120 170 6 120 170 7 113 146 3 89 142 6 73 141 156 159 166 198 212 189 197 198 212 
198 212 189 198 212 189 210 180 169 242 214 215 242 253 234 242 253 234 242 253 234 242 253 234 
242 253 234 242 253 234 238 227 170 238 227 170 239 198 170 236 177 170 189 174 177 128 189 216 
93 191 199 6 120 170 7 52 116 4 8 47 1 8 8 0 4 3 0 6 1 0 3 1 
5 9 2 0 5 1 0 3 1 0 3 1 0 3 1 0 2 0 0 3 1 0 5 1 
0 3 1 0 5 1 0 11 2 0 6 1 0 4 3 0 6 1 0 4 3 0 6 3 
0 3 1 2 6 2 0 6 3 2 6 2 0 6 1 2 6 2 0 6 1 2 6 2 
0 4 3 0 4 3 0 6 3 2 6 3 0 6 3 0 9 4 1 7 4 0 4 3 
0 6 1 2 6 2 0 3 1 0 6 3 1 7 4 0 9 4 1 12 4 0 4 3 
1 7 4 1 9 4 1 7 4 5 9 2 0 4 3 2 6 2 0 4 3 2 10 2 
0 6 1 1 12 4 0 4 3 2 10 2 0 9 4 0 4 3 0 9 4 1 9 4 
0 6 1 0 6 1 0 4 3 1 7 4 0 11 2 2 6 3 1 9 4 0 11 2 
0 4 3 0 6 1 0 6 3 0 4 3 0 6 3 0 9 4 1 7 4 0 4 3 

54 83 99 89 107 111 58 82 117 59 95 109 25 63 109 27 76 117 58 82 117 126 145 132 
112 112 150 143 150 131 164 179 131 88 100 145 63 125 116 63 108 116 57 121 132 126 145 132 
88 132 154 126 145 132 126 145 132 88 132 154 126 145 132 88 132 124 57 121 132 88 132 124 
126 145 132 88 132 124 27 76 117 58 82 117 88 132 124 88 132 124 126 145 132 88 132 154 
126 145 132 126 172 135 57 121 132 88 132 154 57 121 132 88 132 154 126 145 132 126 145 132 
88 132 124 27 121 132 7 73 121 7 48 95 7 29 75 7 48 75 7 48 75 7 48 75 
7 48 75 7 48 75 7 75 102 63 125 116 57 121 132 88 132 124 27 78 145 57 121 132 
88 132 154 88 132 154 57 121 132 88 132 124 126 145 132 94 154 160 126 172 135 126 145 132 
126 145 132 164 179 131 126 145 132 126 145 132 164 179 131 126 145 132 112 130 109 147 177 131 
57 121 132 164 179 131 164 179 131 88 132 124 83 125 111 27 76 117 83 125 111 88 132 124 
88 132 124 126 145 132 164 179 131 143 150 131 57 121 132 7 99 141 7 99 141 7 113 146 
7 99 141 3 89 142 7 99 141 3 89 142 3 89 142 7 99 141 6 99 150 7 126 130 
7 126 130 27 121 132 7 113 146 6 99 150 7 113 146 3 89 142 3 89 142 7 99 141 
7 99 141 3 89 142 7 73 121 27 78 145 127 116 140 240 205 129 240 205 129 239 198 170 
239 198 170 236 177 170 236 177 170 239 198 170 239 198 170 240 205 129 198 170 136 88 132 154 
6 80 137 7 81 122 7 73 121 7 73 121 7 52 116 3 89 142 94 154 160 88 132 154 
7 80 149 3 89 142 7 99 141 6 80 137 6 80 137 3 89 142 3 89 142 6 99 150 
164 179 131 6 120 170 7 145 184 43 121 169 6 120 170 6 99 150 88 132 154 198 212 189 
156 159 166 128 159 167 156 159 166 210 180 169 236 177 170 242 242 223 242 253 234 242 253 234 
242 253 234 242 253 234 242 253 234 242 214 215 238 227 170 239 198 170 236 177 170 210 180 169 
156 186 216 93 191 199 56 162 154 3 89 142 7 29 75 7 18 20 1 4 6 0 3 1 
0 5 1 0 6 1 0 2 0 0 3 1 0 0 0 0 3 1 0 3 1 5 9 2 
2 6 2 0 6 1 0 5 1 2 6 2 2 10 2 2 6 2 0 6 1 0 4 3 
0 4 3 2 6 3 0 4 3 0 6 1 2 6 2 0 4 3 0 9 4 0 5 1 
0 5 1 2 10 2 4 12 4 1 7 4 0 6 3 1 9 4 0 5 1 2 4 2 
0 5 1 2 6 2 0 6 3 4 12 4 0 5 1 0 4 3 1 7 4 1 7 4 
2 10 2 1 7 4 1 7 4 0 9 4 0 4 3 0 6 1 0 4 3 0 6 3 
0 4 3 4 12 4 0 6 3 1 7 4 0 6 3 0 11 2 0 11 2 1 7 4 
0 9 4 2 6 2 2 6 2 0 6 1 0 6 1 0 5 1 0 6 3 1 12 4 
2 10 2 2 6 2 1 7 4 1 7 4 0 11 2 1 12 4 0 6 3 1 12 4 

25 63 109 58 82 117 89 107 111 126 145 104 59 95 109 29 95 109 89 107 111 89 107 111 
126 172 135 88 100 145 88 132 154 164 179 131 143 150 131 126 145 132 126 145 132 88 132 124 
63 108 116 89 107 111 63 108 116 126 145 104 112 114 119 126 145 132 143 150 131 126 145 132 
57 121 132 126 145 132 126 145 104 112 130 109 63 108 116 63 125 116 88 132 124 143 150 131 
143 150 131 143 150 131 126 172 135 126 145 132 88 132 124 126 145 132 88 132 154 88 132 154 
57 121 132 88 132 154 43 121 139 23 120 116 7 75 102 7 48 75 7 29 75 6 34 60 
7 41 60 6 34 60 7 29 75 7 73 121 88 132 124 57 121 132 42 120 116 29 95 109 
88 132 124 126 172 135 63 125 116 42 120 116 88 132 124 57 121 132 126 145 132 126 145 132 
88 132 124 143 150 131 126 145 132 126 172 135 164 179 131 126 145 132 27 76 117 29 95 109 
7 96 112 88 132 124 126 145 132 126 145 132 23 120 116 29 95 109 155 154 99 147 177 131 
143 150 131 147 177 131 126 145 132 126 145 132 126 145 132 147 177 131 164 179 131 147 177 131 
126 172 135 57 121 132 27 121 132 57 121 132 27 121 132 7 113 146 7 126 130 7 126 130 
7 113 146 94 154 160 56 162 154 27 163 154 7 113 146 7 113 146 3 89 142 7 99 141 
3 89 142 7 99 141 7 99 141 7 73 121 7 73 121 57 82 141 126 145 132 161 151 130 
240 173 129 240 205 129 210 180 169 236 177 170 239 198 170 239 198 170 239 198 170 189 174 152 
164 179 131 27 78 145 7 73 121 7 73 121 7 73 121 7 52 116 57 121 132 57 121 132 
7 99 141 6 73 141 7 73 121 7 81 122 6 80 137 7 99 141 3 89 142 7 113 146 
6 99 150 6 120 170 126 172 135 197 213 164 197 213 164 88 132 154 43 121 169 156 195 167 
198 212 189 156 159 166 43 121 169 128 159 167 197 213 164 239 198 170 242 214 215 242 253 234 
242 253 234 242 253 234 242 253 234 242 253 234 242 214 215 238 227 170 238 227 170 239 198 170 
236 177 170 189 174 177 128 189 216 93 161 196 43 121 169 7 59 103 4 8 47 1 4 6 
0 3 1 0 3 1 0 2 0 0 5 1 0 3 1 0 3 1 0 3 1 5 9 2 
0 3 1 0 6 1 2 10 2 0 6 1 0 6 3 2 10 2 2 6 2 2 6 2 
0 5 1 0 11 2 0 11 2 0 4 3 0 4 3 0 5 1 0 6 1 2 10 2 
0 6 1 2 10 2 0 6 3 0 4 3 0 6 3 1 9 4 2 6 3 0 5 1 
0 5 1 0 5 1 0 6 3 0 4 3 0 5 1 0 4 3 0 4 3 1 9 4 
0 4 3 0 6 3 2 10 2 1 9 4 0 4 3 0 9 4 2 10 2 0 6 1 
2 6 2 1 9 4 1 6 4 0 9 4 1 7 4 1 6 4 0 11 2 0 4 3 
2 10 2 0 6 1 0 6 1 0 6 1 0 6 1 1 3 2 2 6 3 0 9 4 
10 11 4 2 6 3 1 7 4 1 7 4 0 11 2 0 9 4 1 7 4 1 7 4 

83 125 111 126 145 132 126 145 132 59 95 109 27 76 117 83 125 111 27 76 117 7 73 121 
88 100 145 126 145 132 27 76 117 97 125 111 147 177 131 126 145 132 88 132 154 126 145 132 
7 81 122 27 76 117 27 76 117 27 76 117 58 82 117 63 108 116 143 150 131 126 145 132 
29 95 109 7 81 122 29 95 109 63 125 116 63 108 116 63 108 116 63 108 116 88 132 124 
57 82 141 57 121 132 88 132 124 126 172 135 57 121 132 57 121 132 126 172 135 126 172 135 
57 121 132 88 132 124 126 172 135 94 154 160 88 132 124 7 72 82 7 48 75 6 34 60 
6 34 60 7 41 60 7 48 75 7 56 82 54 115 81 24 68 95 7 48 75 7 48 75 
24 68 95 29 95 109 7 59 103 24 95 100 54 92 81 7 75 102 88 132 124 88 132 124 
88 132 124 88 132 124 126 145 132 88 132 124 126 145 132 88 132 124 42 120 116 97 125 111 
63 108 116 29 95 109 164 179 131 161 151 130 6 80 137 42 120 116 126 145 132 147 177 131 
164 179 131 147 177 131 143 150 131 42 120 116 126 145 132 126 145 132 126 145 132 126 145 132 
57 121 132 43 121 139 57 121 132 126 172 135 88 132 124 27 121 132 7 113 146 7 113 146 
6 99 150 7 113 146 6 120 170 27 121 132 88 132 124 56 162 154 7 113 146 6 99 150 
6 99 150 7 99 141 7 99 141 6 80 137 7 81 122 7 81 122 3 89 142 6 99 150 
164 179 131 240 173 129 240 173 129 240 173 129 236 177 170 240 205 129 210 180 169 189 174 152 
239 198 170 198 196 136 126 145 132 57 82 141 7 52 116 7 52 116 7 52 116 7 73 121 
65 150 115 6 80 137 7 73 121 7 73 121 7 126 130 7 113 146 3 89 142 7 99 141 
3 89 142 6 80 137 7 80 149 94 154 160 238 227 170 197 213 164 156 159 166 43 121 169 
156 159 166 197 213 164 189 174 177 88 132 154 6 95 166 128 159 167 156 159 166 210 180 169 
242 214 215 242 253 234 242 253 234 242 253 234 242 253 234 242 253 234 242 242 223 242 242 223 
238 227 170 236 177 170 210 180 169 128 189 216 93 191 199 27 163 154 7 99 141 7 29 75 
7 18 20 1 4 4 0 3 1 0 3 1 0 3 1 2 6 2 0 3 1 0 3 1 
0 6 1 0 6 1 0 6 1 0 5 1 1 3 2 0 11 2 1 7 4 2 10 2 
0 6 1 0 6 1 0 6 1 2 6 2 2 6 2 0 11 2 0 6 1 0 5 1 
0 4 3 2 10 2 0 4 3 2 10 2 0 4 3 2 10 2 0 4 3 2 6 2 
0 6 1 0 4 3 2 6 2 0 6 1 0 5 1 2 10 2 0 9 4 0 6 3 
2 6 2 0 6 3 0 9 4 0 11 2 0 9 4 0 6 3 1 7 4 2 10 2 
0 4 3 1 9 4 1 7 4 2 10 2 2 10 2 1 9 4 1 9 4 2 6 3 
10 18 5 0 11 2 2 6 2 0 11 2 1 12 4 0 5 1 7 7 4 0 6 3 
1 7 4 4 12 4 1 9 4 1 7 4 0 6 3 0 9 4 2 15 5 5 9 2 

58 82 117 63 108 116 63 108 116 63 108 116 27 76 117 63 108 116 97 125 111 88 132 124 
63 108 116 112 130 109 83 125 111 7 59 103 25 63 109 88 100 145 161 151 130 126 145 132 
29 95 109 63 108 116 83 125 111 83 125 111 42 120 116 29 95 109 126 145 132 147 177 131 
126 145 132 29 95 109 63 108 116 63 108 116 88 132 124 57 121 132 63 108 116 57 121 132 
126 172 135 57 121 132 63 108 116 88 132 124 126 172 135 88 132 154 126 145 132 126 172 135 
126 172 135 43 121 139 88 132 154 88 132 154 27 121 132 7 75 102 7 48 75 7 29 75 
6 34 60 6 34 60 6 34 60 6 34 60 6 34 60 6 34 60 7 41 60 7 48 75 
7 29 75 7 29 75 7 29 75 7 48 75 6 34 60 7 29 75 63 108 116 29 95 109 
7 52 116 63 108 116 112 130 109 126 145 132 88 132 124 7 81 122 7 59 103 126 145 104 
59 95 109 7 48 95 29 95 109 97 125 111 83 125 111 42 120 116 88 132 124 88 132 124 
57 121 132 112 130 109 126 145 132 42 120 116 63 108 116 126 145 104 143 150 131 126 145 132 
88 132 124 88 132 124 88 132 124 126 172 135 126 145 132 126 145 132 94 154 160 43 121 139 
7 126 130 7 113 146 7 113 146 7 113 146 7 113 146 56 162 154 56 162 154 27 163 154 
7 113 146 6 99 150 7 99 141 7 99 141 3 89 142 3 89 142 7 99 141 7 99 141 
126 145 132 240 205 129 240 205 129 198 170 136 240 173 129 198 170 136 198 170 136 240 173 129 
210 180 169 210 180 169 240 205 129 240 205 129 126 145 132 7 73 121 7 52 116 7 52 116 
7 52 116 7 81 122 7 73 121 7 73 121 6 80 137 3 89 142 3 89 142 6 80 137 
3 89 142 3 89 142 3 89 142 27 121 132 94 154 160 156 195 167 238 227 170 197 213 164 
88 132 154 88 132 154 156 195 167 197 213 164 147 177 131 43 121 169 43 121 139 88 132 154 
128 159 167 210 180 169 242 242 223 242 253 234 242 253 234 242 253 234 242 253 234 242 253 234 
242 242 223 238 227 170 240 173 129 236 177 170 156 159 166 93 191 199 43 185 193 7 145 184 
7 59 103 4 8 47 1 8 8 0 3 1 0 2 0 0 2 0 2 4 2 0 5 1 
0 6 1 0 3 1 2 4 2 0 5 1 2 6 2 25 6 4 0 9 4 0 6 1 
10 9 2 0 6 3 0 6 3 2 6 2 0 4 3 7 7 4 0 6 1 0 5 1 
2 6 2 0 6 1 0 6 1 0 11 2 0 6 1 0 6 3 2 10 2 0 6 3 
5 9 2 2 6 2 0 6 1 0 4 3 0 3 1 0 11 2 0 6 1 24 23 9 
1 3 2 5 9 2 1 4 4 2 6 3 0 6 3 0 4 3 0 6 1 2 6 2 
1 7 4 0 4 3 0 6 1 0 6 3 1 12 4 0 6 3 1 9 4 0 4 3 
1 12 4 0 4 3 2 6 2 2 6 2 0 6 3 2 6 3 0 6 1 0 9 4 
0 9 4 1 4 4 1 12 4 0 4 3 0 6 3 1 12 4 1 9 4 0 4 3 

25 63 109 24 95 100 59 95 109 112 130 109 58 82 117 7 48 95 40 64 95 112 130 109 
24 95 100 7 59 103 25 63 109 24 68 95 88 87 111 63 108 116 164 179 131 164 179 131 
88 132 124 83 125 111 88 132 124 88 132 124 83 125 111 57 121 132 88 132 154 128 159 167 
126 172 135 57 121 132 112 130 109 57 121 132 126 145 132 88 132 124 126 145 132 57 82 141 
112 130 109 164 179 131 57 82 141 27 76 117 63 108 116 112 130 109 88 132 124 126 145 132 
88 132 124 63 125 116 126 172 135 43 121 139 6 80 137 7 113 119 29 95 109 7 75 102 
7 72 82 7 56 82 7 29 75 6 34 60 6 34 60 6 34 60 6 34 60 6 34 60 
6 34 60 6 34 60 6 34 60 6 34 60 7 27 52 7 56 82 112 130 109 143 150 131 
55 71 109 7 59 103 59 95 109 112 130 109 42 120 116 7 59 103 7 29 75 24 68 95 
29 95 109 24 95 100 6 33 96 6 33 96 7 81 122 7 81 122 42 120 116 42 120 116 
7 113 119 63 125 116 126 145 104 64 143 106 7 96 112 63 108 116 126 145 104 63 108 116 
126 145 104 88 132 124 88 132 124 88 132 124 88 132 124 126 172 135 88 132 154 126 172 135 
7 113 146 7 173 128 7 113 146 6 99 150 7 113 146 7 113 146 6 99 150 43 121 139 
56 162 154 7 113 146 6 99 150 7 113 146 7 99 141 7 99 141 7 99 141 7 99 141 
3 89 142 88 100 145 198 170 136 240 205 129 240 173 129 240 173 129 240 205 129 240 173 129 
240 205 129 189 174 152 189 174 152 239 198 170 240 205 129 198 170 136 57 82 141 7 73 121 
7 73 121 7 52 116 7 52 116 7 113 119 3 89 142 7 73 121 7 73 121 7 81 122 
7 99 141 6 80 137 6 80 137 7 99 141 7 113 146 43 121 169 197 213 164 239 198 170 
239 198 170 210 180 169 156 159 166 94 154 160 94 154 160 94 154 160 189 174 152 156 159 166 
156 159 166 189 174 177 162 122 140 225 208 211 242 253 234 242 253 234 242 253 234 242 253 234 
242 253 234 242 242 223 238 227 170 240 173 129 236 177 170 189 174 177 128 189 216 93 191 199 
42 156 192 7 99 141 7 29 75 7 18 20 0 4 3 0 2 0 0 3 1 0 2 0 
0 5 1 0 3 1 0 3 1 0 6 1 0 5 1 0 5 1 0 6 1 0 5 1 
2 6 2 0 3 1 0 4 3 0 6 1 10 18 5 0 3 1 0 3 1 0 5 1 
0 5 1 0 6 1 0 4 3 0 11 2 0 4 3 0 6 1 0 6 1 0 6 3 
0 5 1 1 3 2 2 6 2 0 5 1 0 5 1 0 5 1 0 6 1 1 9 4 
0 11 2 0 6 3 1 7 4 1 4 4 1 4 4 0 9 4 1 3 2 0 4 3 
0 11 2 0 6 1 0 6 1 0 6 1 1 9 4 1 7 4 0 6 3 0 9 4 
0 9 4 2 10 2 2 6 2 4 5 4 0 6 3 0 6 1 0 4 3 1 7 4 
0 11 2 0 4 3 0 6 1 1 9 4 0 9 4 0 11 2 0 6 3 0 6 1 

126 145 132 27 76 117 83 125 111 89 107 111 112 130 109 97 125 111 58 82 117 25 63 109 
54 83 99 89 107 111 97 125 111 59 95 109 88 132 124 161 151 130 57 121 132 126 145 132 
63 108 116 63 108 116 88 132 124 88 132 154 63 108 116 63 125 116 126 145 132 126 172 135 
164 179 131 164 179 131 126 145 132 126 145 132 88 132 124 126 145 132 143 150 131 143 150 131 
89 107 111 126 145 132 126 145 132 63 108 116 42 120 116 7 81 122 58 82 117 29 95 109 
7 73 121 27 76 117 88 132 124 57 121 132 88 132 124 88 132 154 63 125 116 7 52 116 
7 75 102 7 96 112 7 59 103 7 48 95 7 48 75 7 48 75 7 48 75 7 48 95 
7 75 102 7 59 103 7 48 75 7 48 75 7 41 60 7 72 82 126 145 104 164 179 131 
126 145 104 63 108 116 128 117 109 112 130 109 7 96 112 7 59 103 7 75 102 29 95 109 
65 150 115 126 172 135 23 120 116 7 52 116 83 125 111 42 120 116 29 95 109 7 73 121 
7 113 119 42 120 116 43 121 139 57 121 132 63 125 116 126 145 104 57 121 132 112 130 109 
88 132 124 155 154 99 88 132 124 63 125 116 57 121 132 65 150 115 126 172 135 88 132 124 
56 162 154 93 181 160 27 163 154 27 163 154 7 113 146 7 113 146 7 113 146 7 113 146 
7 113 146 27 163 154 27 163 154 7 113 146 7 113 146 7 99 141 7 113 146 7 126 130 
7 113 146 7 99 141 164 179 131 198 170 136 240 173 129 240 205 129 236 177 170 240 173 129 
240 173 129 240 173 129 189 174 152 210 180 169 239 198 170 239 198 170 240 205 129 162 122 140 
6 52 136 7 52 116 7 59 103 7 52 116 7 81 122 7 81 122 7 73 121 7 73 121 
6 80 137 3 89 142 3 89 142 6 80 137 7 99 141 7 113 146 94 154 160 189 174 152 
198 196 136 239 198 170 238 227 170 238 227 170 189 174 152 43 121 169 197 213 164 242 242 223 
225 208 211 242 214 215 198 212 189 156 159 166 189 174 177 242 242 223 242 253 234 242 253 234 
242 253 234 242 253 234 242 242 223 238 227 170 239 198 170 239 198 170 236 177 170 156 186 216 
93 191 199 43 185 193 6 120 170 7 59 103 4 8 47 1 8 8 0 2 2 0 3 1 
0 3 1 0 2 0 0 3 1 0 3 1 0 2 0 0 3 1 0 5 1 0 3 1 
24 23 9 0 5 1 0 6 1 2 6 2 0 6 1 0 5 1 0 3 1 2 6 2 
0 6 1 1 3 2 2 6 2 1 7 4 0 6 1 2 6 2 0 4 3 0 6 1 
15 7 5 0 4 3 0 5 1 0 4 3 0 4 3 4 12 4 10 11 4 1 12 4 
0 4 3 0 6 3 1 9 4 11 7 4 1 7 4 0 6 3 0 6 3 0 5 1 
0 6 1 0 5 1 0 5 1 0 6 1 0 11 2 5 9 2 0 4 3 0 9 4 
0 11 2 0 6 3 1 3 2 0 6 3 0 6 1 2 6 2 0 6 3 2 15 5 
2 6 3 0 6 1 0 6 3 2 10 2 0 4 3 0 11 2 2 6 2 2 6 2 

164 179 131 88 132 124 63 125 116 89 107 111 59 95 109 126 145 132 199 197 101 164 179 131 
161 151 130 57 82 141 88 132 124 63 108 116 112 130 109 161 151 130 126 145 132 58 82 117 
27 76 117 29 95 109 57 121 132 88 132 124 29 95 109 27 76 117 63 108 116 27 78 145 
27 78 145 88 132 124 88 132 124 126 145 132 126 145 132 88 132 124 88 132 124 143 150 131 
88 132 154 88 132 124 88 132 124 126 172 135 88 132 124 88 132 124 88 132 124 97 125 111 
29 95 109 88 132 124 126 172 135 126 145 132 126 172 135 126 172 135 94 154 160 7 113 119 
7 81 122 126 145 132 147 177 131 27 76 117 7 48 95 7 59 103 42 120 116 88 132 124 
126 172 135 147 177 131 88 132 124 126 145 104 25 63 109 6 33 96 7 59 103 29 95 109 
57 121 132 126 172 135 126 145 132 89 107 111 29 95 109 63 108 116 63 125 116 88 132 124 
88 132 154 126 145 132 126 145 132 88 132 124 43 121 139 57 121 132 88 132 124 126 183 100 
88 132 124 57 121 132 143 150 131 164 179 131 126 172 135 147 177 131 126 172 135 88 132 124 
57 121 132 57 82 141 88 132 124 43 121 139 164 179 131 143 150 131 88 132 154 43 121 139 
7 126 130 65 150 115 27 121 132 27 121 132 7 113 146 7 113 146 7 99 141 7 99 141 
7 113 146 7 113 146 94 154 160 56 162 154 94 154 160 6 99 150 7 99 141 7 99 141 
7 126 130 27 121 132 161 151 130 240 205 129 240 173 129 239 198 170 239 198 170 239 198 170 
239 198 170 239 198 170 239 198 170 210 180 169 198 170 136 210 180 169 239 198 170 240 205 129 
198 170 136 88 100 145 7 73 121 7 52 116 7 73 121 7 73 121 7 81 122 7 81 122 
7 73 121 7 73 121 6 80 137 3 89 142 7 113 146 3 89 142 43 121 139 27 78 145 
88 132 124 88 132 154 239 198 170 239 198 170 239 198 170 128 159 167 88 132 154 197 213 164 
242 214 215 225 208 211 242 214 215 225 208 211 189 174 177 156 159 166 210 180 169 242 242 223 
242 253 234 242 253 234 242 253 234 242 253 234 242 242 223 239 198 170 239 198 170 236 177 170 
189 174 177 128 189 216 93 191 199 7 145 184 3 89 142 7 29 75 7 18 20 1 6 4 
0 4 3 0 3 1 2 4 2 0 5 1 0 3 1 0 3 1 0 3 1 0 2 0 
2 4 2 0 6 1 5 9 2 0 3 1 0 6 1 2 10 2 0 6 1 2 4 2 
0 5 1 0 6 1 0 3 1 2 6 2 0 5 1 2 4 2 0 4 3 0 11 2 
0 4 3 1 3 2 2 6 2 0 11 2 0 11 2 1 7 4 10 18 5 0 6 3 
0 6 3 0 9 4 2 6 3 4 8 4 1 7 4 0 4 3 1 4 4 0 11 2 
7 7 4 1 3 2 1 7 4 0 5 1 0 6 1 1 7 4 0 9 4 0 9 4 
0 6 3 0 6 3 2 6 2 2 6 2 2 6 2 0 4 3 1 12 4 0 6 3 
0 6 3 2 10 2 0 9 4 0 4 3 1 7 4 0 4 3 0 6 1 0 6 1 

97 125 111 88 132 124 63 108 116 83 125 111 27 76 117 25 63 109 58 82 117 27 78 145 
126 145 132 29 95 109 89 107 111 7 59 103 58 82 117 112 130 109 88 132 124 126 145 132 
43 121 139 88 132 124 88 132 124 43 121 139 42 120 116 42 120 116 63 125 116 57 121 132 
57 121 132 57 121 132 63 108 116 88 132 124 88 132 124 147 177 131 27 78 145 88 132 124 
126 145 132 57 121 132 7 99 141 63 108 116 88 132 124 147 177 131 88 132 154 143 150 131 
126 145 132 57 121 132 57 121 132 88 132 124 88 132 124 88 132 154 126 172 135 126 172 135 
88 132 124 88 132 154 164 179 131 147 177 131 88 132 124 63 125 116 57 121 132 88 132 154 
147 177 131 156 195 167 197 213 164 198 196 136 147 177 131 29 95 109 89 107 111 63 108 116 
88 132 124 147 177 131 126 145 132 29 95 109 83 125 111 126 145 132 126 145 132 126 145 132 
126 145 132 147 177 131 147 177 131 164 179 131 198 196 136 126 145 132 126 172 135 88 132 154 
199 197 101 126 145 132 88 132 124 126 145 132 94 154 160 143 150 131 126 145 132 126 172 135 
126 145 132 126 172 135 88 132 124 65 150 115 126 172 135 147 177 131 126 172 135 88 132 124 
7 126 130 3 89 142 7 99 141 7 99 141 6 99 150 7 113 146 7 113 146 7 99 141 
7 99 141 7 113 146 43 121 139 88 132 154 94 154 160 56 162 154 7 99 141 7 99 141 
7 99 141 43 121 139 240 205 129 240 205 129 239 198 170 239 198 170 236 177 170 239 198 170 
239 198 170 239 198 170 236 177 170 240 205 129 198 170 136 236 177 170 239 198 170 239 198 170 
239 198 170 240 205 129 143 150 131 6 52 136 7 73 121 7 73 121 7 73 121 7 73 121 
7 96 112 7 96 112 7 81 122 3 89 142 7 99 141 7 99 141 3 89 142 7 113 146 
27 121 132 164 179 131 189 174 152 156 159 166 239 198 170 239 198 170 161 151 130 27 78 145 
197 213 164 225 208 211 156 159 166 225 208 211 238 227 170 210 180 169 128 159 167 156 159 166 
225 208 211 242 253 234 242 253 234 242 253 234 242 253 234 242 242 223 238 227 170 239 198 170 
236 177 170 210 180 169 156 186 216 93 191 199 43 185 193 6 120 170 7 48 95 4 8 47 
1 8 8 0 2 0 0 2 0 0 3 1 0 3 1 0 3 1 0 6 1 0 3 1 
0 3 1 2 6 2 10 9 2 0 6 1 0 5 1 0 3 1 0 5 1 0 4 3 
0 6 1 0 4 3 2 4 2 0 3 1 0 3 1 2 4 2 2 6 2 0 5 1 
1 3 2 0 6 1 0 4 3 0 4 3 2 10 2 0 4 3 1 9 4 0 11 2 
0 6 3 1 7 4 7 7 4 10 11 4 1 7 4 1 9 4 1 7 4 0 11 2 
0 4 3 2 10 2 0 9 4 0 6 3 2 10 2 0 9 4 0 6 3 1 7 4 
1 9 4 2 6 2 0 5 1 0 4 3 1 9 4 0 4 3 1 7 4 5 9 2 
0 9 4 1 7 4 0 6 3 0 9 4 0 6 3 0 11 2 2 10 2 0 11 2 

7 59 103 25 63 109 29 95 109 59 95 109 27 76 117 29 95 109 7 59 103 63 108 116 
63 108 116 63 108 116 7 59 103 6 33 96 54 83 99 83 125 111 57 121 132 88 132 124 
88 132 124 57 121 132 143 150 131 147 177 131 88 132 124 63 125 116 63 108 116 57 121 132 
88 132 124 88 132 124 42 120 116 63 108 116 88 100 145 89 107 111 63 108 116 126 145 132 
126 145 132 88 132 154 57 82 141 63 108 116 7 81 122 83 125 111 88 132 124 88 132 124 
88 132 124 57 121 132 57 121 132 88 132 124 88 132 124 88 132 124 43 121 139 88 132 124 
126 145 132 147 177 131 126 172 135 88 132 154 164 179 131 126 172 135 126 145 132 143 150 131 
94 154 160 88 132 154 128 159 167 128 159 167 88 132 154 57 121 132 88 132 124 126 172 135 
126 145 132 88 132 154 126 172 135 97 125 111 29 95 109 88 132 124 88 132 154 126 172 135 
126 145 132 88 132 124 88 132 124 88 132 124 112 130 109 88 132 124 126 172 135 143 150 131 
126 145 132 88 132 124 88 132 124 88 132 124 126 172 135 126 172 135 88 132 124 126 145 132 
126 172 135 88 132 124 88 132 124 57 121 132 126 172 135 147 177 131 56 162 154 7 113 146 
7 99 141 7 81 122 7 99 141 7 126 130 7 113 146 7 113 146 7 99 141 7 99 141 
7 99 141 7 99 141 7 113 146 7 113 146 6 99 150 7 113 146 7 113 146 7 113 146 
3 89 142 6 80 137 57 82 141 198 196 136 240 205 129 240 173 129 240 173 129 240 173 129 
239 198 170 239 198 170 239 198 170 239 198 170 240 205 129 240 173 129 240 205 129 239 198 170 
239 198 170 239 198 170 240 205 129 198 170 136 57 82 141 7 81 122 64 143 106 7 96 112 
7 73 121 7 81 122 7 113 119 3 89 142 7 99 141 3 89 142 7 113 119 88 132 124 
88 132 154 126 145 132 6 99 150 189 174 152 238 227 170 240 205 129 143 150 131 43 121 139 
88 132 154 238 227 170 225 208 211 128 159 167 128 159 167 156 195 167 128 159 167 94 154 160 
94 154 160 156 159 166 242 214 215 242 253 234 242 253 234 242 253 234 242 253 234 242 242 223 
238 227 170 239 198 170 236 177 170 189 174 177 128 189 216 93 191 199 7 145 184 6 80 137 
7 29 75 1 8 8 0 2 2 0 3 1 0 2 0 0 3 1 0 5 1 0 5 1 
0 3 1 0 3 1 0 3 1 0 3 1 0 3 1 0 5 1 0 5 1 2 6 2 
0 3 1 0 6 1 0 6 1 0 2 2 0 5 1 0 6 1 0 4 3 1 3 2 
1 3 2 0 6 1 2 6 2 0 5 1 0 5 1 0 6 1 0 4 3 4 12 4 
1 9 4 1 6 4 4 9 6 4 9 6 0 9 4 2 6 3 0 4 3 2 6 2 
0 4 3 1 9 4 0 4 3 1 7 4 2 15 5 0 4 3 0 6 1 0 6 3 
0 6 1 0 9 4 0 2 2 1 7 4 1 7 4 0 5 1 0 3 1 2 6 2 
2 10 2 1 9 4 0 9 4 1 12 4 0 4 3 0 9 4 0 6 1 0 6 1 

63 108 116 59 95 109 58 82 117 59 95 109 59 95 109 59 95 109 59 95 109 63 108 116 
97 125 111 63 125 116 29 95 109 7 59 103 7 59 103 55 71 109 63 108 116 29 95 109 
63 108 116 58 82 117 58 82 117 126 172 135 57 121 132 88 132 124 57 121 132 59 95 109 
7 99 141 63 125 116 83 125 111 88 132 124 143 150 131 126 145 132 88 132 124 88 132 124 
126 145 132 147 177 131 88 132 124 63 108 116 7 48 95 7 75 102 63 108 116 57 121 132 
88 132 124 88 132 124 88 132 124 126 145 132 164 179 131 88 132 124 63 108 116 63 108 116 
63 125 116 89 107 111 147 177 131 94 154 160 57 121 132 126 172 135 57 121 132 88 132 124 
164 179 131 88 132 124 88 132 124 126 172 135 126 145 132 88 132 124 126 172 135 126 145 132 
88 132 154 164 179 131 126 145 132 42 120 116 6 33 96 63 125 116 88 132 124 88 132 154 
126 172 135 143 150 131 147 177 131 126 145 132 29 95 109 64 143 106 126 145 132 147 177 131 
126 172 135 57 121 132 88 132 124 57 121 132 88 132 124 143 150 131 143 150 131 88 132 124 
29 95 109 27 121 132 7 96 112 23 120 116 88 132 124 126 145 132 88 132 124 7 99 141 
7 81 122 7 113 119 7 126 130 7 99 141 27 121 132 7 113 119 7 99 141 7 113 146 
7 113 146 7 99 141 7 99 141 7 99 141 7 99 141 7 113 146 7 126 130 7 126 130 
7 113 146 7 99 141 6 80 137 6 73 141 161 151 130 240 205 129 240 205 129 240 173 129 
240 173 129 239 198 170 239 198 170 239 198 170 240 173 129 240 173 129 240 205 129 240 173 129 
240 205 129 239 198 170 239 198 170 239 198 170 240 205 129 112 112 150 6 80 137 7 81 122 
7 81 122 7 73 121 7 73 121 7 99 141 7 113 146 7 99 141 6 80 137 7 99 141 
143 150 131 126 145 132 3 89 142 43 121 139 88 132 154 43 121 139 57 121 132 65 150 115 
57 82 141 156 195 167 242 242 223 198 212 189 197 213 164 43 121 169 6 120 170 6 120 170 
94 154 160 128 159 167 88 132 154 189 174 177 242 242 223 242 253 234 242 253 234 242 253 234 
242 242 223 238 227 170 239 198 170 236 177 170 210 180 169 128 189 216 93 191 199 6 201 200 
7 113 146 6 33 96 4 8 47 1 4 6 1 3 2 0 3 1 2 4 2 0 2 0 
0 3 1 0 3 1 0 6 1 0 3 1 0 3 1 0 3 1 0 3 1 0 4 3 
0 6 1 1 7 4 0 2 2 0 2 2 2 6 2 0 4 3 0 5 1 0 5 1 
0 6 3 0 4 3 2 6 2 2 6 2 1 7 4 2 6 2 2 6 2 0 4 3 
0 6 3 5 9 2 1 7 4 0 4 3 0 4 3 0 9 4 0 4 3 1 9 4 
0 4 3 0 11 2 2 15 5 0 9 4 0 9 4 0 9 4 1 12 4 0 9 4 
1 3 2 0 9 4 0 11 2 1 7 4 0 4 3 2 10 2 1 3 2 0 6 1 
0 6 3 1 7 4 4 10 4 0 9 4 0 6 3 0 6 1 0 4 3 0 9 4 

88 132 124 57 121 132 97 125 111 59 95 109 58 82 117 58 82 117 58 82 117 58 82 117 
89 107 111 63 108 116 42 120 116 25 63 109 24 95 100 24 68 95 59 95 109 63 108 116 
63 108 116 83 125 111 29 95 109 7 52 116 59 95 109 89 107 111 88 132 124 25 63 109 
24 95 100 7 96 112 58 82 117 59 95 109 63 108 116 59 95 109 63 108 116 88 132 124 
126 145 132 126 145 132 42 120 116 24 95 100 7 48 95 7 48 95 29 95 109 42 120 116 
88 132 124 126 145 132 57 121 132 88 132 124 164 179 131 94 154 160 126 145 132 143 150 131 
63 125 116 7 52 116 112 114 119 126 172 135 88 132 124 27 76 117 7 59 103 6 33 96 
83 125 111 63 108 116 83 125 111 29 95 109 88 132 124 88 132 124 126 172 135 126 145 132 
126 172 135 88 132 154 126 145 132 97 125 111 6 33 96 24 95 100 43 121 139 126 172 135 
143 150 131 147 177 131 143 150 131 126 145 132 126 145 132 83 125 111 57 121 132 126 145 132 
126 145 132 88 132 124 126 145 132 126 145 132 88 132 124 88 132 124 126 145 132 63 108 116 
7 113 119 7 113 119 7 96 112 7 73 121 7 96 112 7 81 122 7 73 121 7 81 122 
7 81 122 7 96 112 42 120 116 7 113 119 7 99 141 7 99 141 7 126 130 94 154 160 
94 154 160 6 99 150 7 99 141 7 99 141 7 99 141 7 99 141 7 113 146 7 126 130 
7 113 146 7 113 146 7 99 141 3 89 142 6 73 141 88 100 145 88 100 145 184 151 125 
240 205 129 239 198 170 239 198 170 240 173 129 240 173 129 240 173 129 198 170 136 161 151 130 
161 151 130 240 205 129 239 198 170 239 198 170 239 198 170 238 227 170 198 170 136 88 100 145 
7 73 121 7 52 116 7 81 122 3 89 142 7 99 141 57 121 132 88 132 124 6 80 137 
3 89 142 7 99 141 7 99 141 7 99 141 6 99 150 3 89 142 7 99 141 3 89 142 
27 121 132 126 145 132 238 227 170 225 208 211 198 212 189 128 159 167 7 113 146 7 113 146 
43 121 169 94 154 160 94 154 160 43 121 169 88 132 154 210 180 169 242 242 223 242 253 234 
242 253 234 242 242 223 238 227 170 239 198 170 236 177 170 236 177 170 189 174 177 128 189 216 
43 185 193 7 145 184 7 73 121 4 8 47 1 8 8 0 4 3 0 3 1 0 0 0 
0 3 1 0 3 1 0 5 1 0 5 1 0 2 0 0 4 3 0 4 3 0 6 1 
0 4 3 0 5 1 2 6 2 0 4 3 15 7 5 0 5 1 2 6 2 0 6 1 
0 11 2 0 11 2 0 5 1 1 3 2 0 3 1 1 3 2 2 10 2 0 6 3 
1 9 4 1 6 4 1 7 4 2 6 2 0 4 3 1 7 4 0 4 3 1 9 4 
0 9 4 0 4 3 0 9 4 0 6 3 24 23 9 2 15 5 0 9 4 1 7 4 
1 12 4 0 9 4 2 6 2 0 5 1 0 4 3 0 6 1 0 6 1 0 11 2 
2 6 2 0 6 3 1 12 4 7 7 4 0 4 3 1 3 2 0 11 2 1 7 4 

88 132 124 88 132 124 126 145 132 126 145 132 112 114 119 143 150 131 143 150 131 88 132 124 
57 121 132 88 132 124 88 132 124 63 108 116 58 82 117 7 48 95 24 56 95 27 76 117 
29 95 109 97 125 111 63 108 116 29 95 109 40 64 95 59 95 109 126 145 104 59 95 109 
7 48 95 24 68 95 63 108 116 63 125 116 27 76 117 7 59 103 7 59 103 97 125 111 
126 145 132 88 132 124 63 108 116 29 95 109 24 95 100 54 83 99 29 95 109 29 95 109 
88 132 124 126 145 132 88 132 124 42 120 116 97 125 111 126 145 132 126 145 132 143 150 131 
155 154 99 97 125 111 112 130 109 126 145 132 126 145 132 63 125 116 54 83 99 54 83 99 
59 95 109 54 83 99 7 75 102 40 64 95 58 82 117 88 132 124 57 121 132 143 150 131 
164 179 131 164 179 131 126 145 132 42 120 116 24 95 100 24 95 100 57 121 132 88 132 124 
126 145 132 126 145 132 164 179 131 147 177 131 57 82 141 147 177 131 126 145 132 88 132 124 
57 121 132 63 125 116 88 132 124 143 150 131 126 145 132 126 145 132 126 145 132 63 125 116 
112 130 109 88 132 124 65 150 115 42 120 116 7 96 112 7 96 112 7 96 112 7 73 121 
7 73 121 7 81 122 7 81 122 7 81 122 7 81 122 7 81 122 3 89 142 6 99 150 
164 179 131 164 179 131 6 99 150 7 126 130 7 99 141 7 113 146 7 113 146 7 113 146 
7 113 146 7 113 146 7 99 141 7 99 141 7 99 141 7 99 141 7 81 122 7 73 121 
112 112 150 198 170 136 240 205 129 240 173 129 240 205 129 240 173 129 164 179 131 161 151 130 
112 112 150 240 173 129 240 173 129 239 198 170 239 198 170 239 198 170 239 198 170 240 205 129 
198 170 136 161 151 130 27 78 145 7 113 119 42 120 116 27 121 132 126 172 135 43 121 139 
6 80 137 6 80 137 3 89 142 7 99 141 7 113 146 7 99 141 3 89 142 3 89 142 
126 145 132 6 73 141 112 112 150 156 195 167 225 208 211 238 227 170 43 121 169 6 99 150 
43 121 139 164 179 131 43 121 169 56 162 154 27 163 154 6 120 170 156 159 166 225 208 211 
242 253 234 242 253 234 242 242 223 238 227 170 238 227 170 236 177 170 236 177 170 189 174 177 
128 189 216 93 191 199 43 185 193 6 99 150 6 33 96 4 8 47 1 7 4 0 3 1 
0 3 1 0 3 1 0 3 1 0 2 0 0 3 1 0 3 1 0 5 1 0 5 1 
2 6 2 2 6 2 0 6 1 0 5 1 0 5 1 0 3 1 5 9 2 0 5 1 
0 6 1 0 6 1 0 5 1 0 3 1 0 3 1 0 5 1 0 11 2 0 6 1 
0 4 3 0 9 4 0 6 3 0 6 3 0 4 3 2 6 2 0 4 3 0 11 2 
0 9 4 0 6 3 0 5 1 0 6 3 0 6 3 1 7 4 0 6 3 0 6 3 
0 4 3 1 7 4 0 6 3 0 6 1 0 6 1 0 6 1 0 3 1 0 6 1 
0 6 1 0 6 3 1 12 4 0 4 3 0 11 2 0 5 1 0 11 2 1 7 4 

88 100 145 88 132 124 63 108 116 112 114 119 88 100 145 112 114 119 88 100 145 88 132 124 
57 121 132 88 100 145 126 145 132 43 121 139 126 145 132 89 107 111 7 59 103 86 120 88 
29 95 109 29 95 109 29 95 109 59 95 109 7 73 121 27 76 117 112 130 109 97 125 111 
54 83 99 24 68 95 59 95 109 126 145 104 147 177 131 112 130 109 89 107 111 27 76 117 
88 132 124 88 132 124 27 76 117 29 95 109 29 95 109 29 95 109 63 125 116 57 121 132 
88 132 124 57 121 132 57 121 132 57 121 132 88 132 124 63 108 116 57 121 132 88 132 124 
57 121 132 6 73 141 63 108 116 126 145 132 143 150 131 7 81 122 29 95 109 54 83 99 
24 68 95 24 95 100 7 75 102 59 95 109 42 120 116 23 120 116 7 73 121 7 73 121 
88 100 145 126 145 132 198 196 136 88 100 145 7 81 122 7 81 122 63 125 116 147 177 131 
88 132 124 88 132 124 42 120 116 89 107 111 112 130 109 63 125 116 88 132 124 58 82 117 
97 125 111 63 125 116 42 120 116 88 132 124 126 145 132 143 150 131 164 179 131 126 145 132 
143 150 131 126 172 135 147 177 131 147 177 131 126 145 104 27 121 132 63 125 116 88 132 124 
7 73 121 7 73 121 7 73 121 7 73 121 7 81 122 7 81 122 3 89 142 3 89 142 
57 82 141 164 179 131 94 154 160 88 132 154 6 99 150 7 113 146 6 99 150 57 121 132 
7 113 146 7 113 146 7 113 146 7 113 146 7 113 146 7 113 146 7 99 141 7 99 141 
3 89 142 6 73 141 57 82 141 143 150 131 198 196 136 198 170 136 189 174 152 198 196 136 
198 170 136 161 151 130 240 205 129 240 173 129 239 198 170 239 198 170 239 198 170 239 198 170 
210 180 169 210 180 169 198 170 136 126 145 132 27 78 145 27 121 132 7 126 130 43 121 139 
7 126 130 3 89 142 7 99 141 7 99 141 3 89 142 7 99 141 6 80 137 6 80 137 
43 121 139 7 99 141 143 150 131 128 159 167 198 212 189 225 208 211 128 159 167 6 99 150 
6 99 150 6 120 170 56 162 154 6 120 170 7 113 146 7 126 130 6 120 170 43 121 169 
156 159 166 242 242 223 242 253 234 242 242 223 238 227 170 238 227 170 239 198 170 236 177 170 
239 198 170 156 186 216 93 191 199 43 185 193 7 145 184 7 73 121 4 8 47 1 8 8 
1 1 2 0 2 0 15 7 5 0 6 1 0 3 1 0 2 0 0 3 1 15 7 5 
0 3 1 0 6 1 0 5 1 0 2 2 0 4 3 0 5 1 0 6 1 0 6 1 
0 3 1 0 5 1 0 6 1 0 11 2 2 6 2 0 4 3 0 6 1 0 4 3 
1 7 4 5 9 2 0 4 3 0 9 4 10 9 2 0 4 3 0 11 2 0 6 1 
1 7 4 0 6 3 0 5 1 0 6 1 1 3 2 2 10 2 2 6 2 10 11 4 
0 6 1 1 9 4 0 4 3 0 6 1 0 4 3 0 4 3 2 6 2 0 9 4 
0 6 1 0 5 1 2 6 2 0 6 1 0 4 3 0 5 1 15 7 5 0 9 4 

89 107 111 112 130 109 97 125 111 88 100 145 27 78 145 29 95 109 63 108 116 88 132 124 
88 100 145 88 132 124 63 108 116 63 108 116 126 145 132 126 145 132 59 95 109 27 76 117 
112 130 109 58 82 117 27 76 117 59 95 109 63 108 116 63 108 116 27 76 117 24 56 95 
54 83 99 24 95 100 7 59 103 27 76 117 88 132 124 126 172 135 147 177 131 143 150 131 
57 121 132 88 132 124 155 181 94 59 95 109 24 95 100 7 59 103 63 108 116 83 125 111 
63 108 116 63 108 116 57 121 132 88 132 124 88 132 124 143 150 131 126 145 132 126 145 132 
164 179 131 126 145 132 112 114 119 126 145 132 147 177 131 27 76 117 24 68 95 54 83 99 
7 72 82 7 48 95 54 83 99 112 130 109 143 150 131 126 145 132 83 125 111 58 82 117 
88 132 124 147 177 131 126 145 132 126 172 135 164 179 131 88 132 124 63 108 116 63 108 116 
88 132 124 57 121 132 57 121 132 27 76 117 7 75 102 7 59 103 29 95 109 112 130 109 
88 132 124 126 145 132 88 132 124 126 145 132 143 150 131 161 151 130 143 150 131 143 150 131 
164 179 131 126 145 132 88 132 124 143 150 131 147 177 131 126 172 135 164 179 131 164 179 131 
57 121 132 7 96 112 7 81 122 7 99 141 7 81 122 7 126 130 7 113 146 7 113 146 
7 99 141 6 99 150 43 121 139 147 177 131 164 179 131 198 196 136 94 154 160 198 196 136 
126 145 132 7 126 130 7 126 130 7 113 146 7 126 130 7 113 146 7 113 146 7 113 146 
7 99 141 7 99 141 7 99 141 6 80 137 27 78 145 43 121 139 126 145 132 88 132 154 
164 179 131 88 132 154 240 173 129 198 170 136 198 170 136 240 205 129 198 170 136 210 180 169 
189 174 152 210 180 169 236 177 170 240 205 129 198 170 136 88 100 145 7 81 122 7 81 122 
7 113 119 7 126 130 7 99 141 7 99 141 7 99 141 7 99 141 3 89 142 6 80 137 
6 80 137 27 78 145 7 99 141 161 151 130 128 159 167 238 227 170 197 213 164 43 121 139 
57 121 132 88 132 154 156 195 167 197 213 164 88 100 145 3 89 142 7 113 146 6 120 170 
6 120 170 88 100 145 210 180 169 242 242 223 242 242 223 242 242 223 238 227 170 239 198 170 
236 177 170 239 198 170 189 174 177 128 189 216 93 191 199 42 156 192 3 89 142 7 29 75 
7 18 20 0 6 3 0 3 1 0 3 1 0 3 1 0 2 0 4 5 4 0 6 1 
0 6 1 0 3 1 0 5 1 2 6 2 0 5 1 0 2 2 0 5 1 0 2 2 
0 6 1 0 3 1 2 6 2 1 3 2 1 3 2 0 6 1 0 6 3 1 12 4 
2 6 2 2 6 2 0 11 2 0 6 3 0 6 1 0 5 1 0 11 2 1 7 4 
4 8 4 2 6 3 2 10 2 0 6 3 0 5 1 0 4 3 2 6 2 0 6 1 
0 6 1 0 4 3 0 6 1 1 3 2 2 10 2 2 6 2 0 4 3 1 12 4 
2 6 2 0 2 2 1 9 4 0 6 1 0 5 1 2 6 2 0 4 3 1 12 4 

59 95 109 27 76 117 97 125 111 88 132 124 83 125 111 29 95 109 27 76 117 89 107 111 
126 145 132 126 145 132 27 76 117 27 76 117 57 121 132 57 121 132 7 75 102 7 48 95 
40 64 95 54 115 81 7 48 95 86 120 88 88 132 124 147 177 131 88 132 124 24 95 100 
7 48 95 24 95 100 6 33 96 7 56 82 7 75 102 27 76 117 126 145 104 88 132 124 
126 145 132 126 145 132 88 100 145 97 125 111 7 59 103 7 75 102 29 95 109 42 120 116 
63 108 116 29 95 109 57 82 141 88 132 124 88 132 124 63 108 116 126 145 132 57 121 132 
88 132 124 126 145 132 147 177 131 198 196 136 198 196 136 143 150 131 126 145 132 112 130 109 
54 83 99 7 29 75 24 68 95 83 125 111 57 121 132 147 177 131 126 145 132 155 154 99 
59 95 109 27 76 117 88 132 124 27 78 145 63 125 116 63 108 116 7 59 103 63 125 116 
126 172 135 88 132 154 164 179 131 126 145 132 88 132 124 97 125 111 112 130 109 126 145 132 
161 151 130 164 179 131 126 145 132 147 177 131 126 145 132 199 169 104 88 132 124 143 150 131 
126 145 132 126 145 104 155 144 112 147 177 131 164 179 131 164 179 131 126 172 135 88 132 154 
57 121 132 126 172 135 65 150 115 7 126 130 7 99 141 7 126 130 7 126 130 7 113 146 
27 121 132 7 99 141 3 89 142 6 99 150 88 132 154 94 154 160 147 177 131 88 132 154 
56 162 154 56 162 154 7 113 146 7 113 146 6 120 170 7 113 146 7 113 146 7 113 146 
7 113 146 7 113 146 7 113 146 7 113 146 7 113 146 7 113 146 7 113 146 7 126 130 
88 132 124 143 150 131 198 196 136 198 170 136 198 170 136 198 196 136 208 152 121 198 170 136 
198 170 136 236 177 170 240 173 129 240 173 129 240 173 129 240 205 129 127 116 140 7 73 121 
7 73 121 7 99 141 7 126 130 7 126 130 3 89 142 3 89 142 3 89 142 6 80 137 
6 80 137 7 73 121 6 80 137 88 132 124 57 82 141 156 195 167 197 213 164 112 112 150 
3 89 142 6 99 150 6 95 166 128 189 167 128 159 167 3 89 142 3 89 142 27 121 132 
7 113 146 43 121 139 6 120 170 112 112 150 238 227 170 238 227 170 238 227 170 238 227 170 
239 198 170 236 177 170 236 177 170 236 177 170 156 186 216 93 191 199 43 185 193 6 120 170 
7 48 95 4 8 47 1 4 6 0 3 1 0 5 1 0 2 0 0 3 1 0 2 0 
0 3 1 0 3 1 0 11 2 0 5 1 10 9 2 2 6 2 0 6 1 0 5 1 
0 5 1 2 6 2 2 4 2 2 6 2 0 11 2 0 3 1 0 4 3 1 9 4 
0 4 3 0 4 3 0 4 3 2 15 5 2 10 2 0 11 2 0 5 1 0 5 1 
1 7 4 2 6 3 0 9 4 0 6 3 2 6 3 0 4 3 0 6 3 0 4 3 
0 6 1 0 6 1 5 9 2 5 9 2 0 6 1 0 5 1 0 6 1 0 4 3 
2 10 2 0 4 3 2 15 5 2 6 2 0 4 3 0 6 1 0 6 1 0 11 2 

63 108 116 40 64 95 24 56 95 54 83 99 27 76 117 63 108 116 59 95 109 89 107 111 
88 132 124 147 177 131 112 130 109 59 95 109 88 132 124 126 145 132 63 108 116 29 95 109 
7 56 82 7 29 75 7 29 75 7 29 75 27 76 117 126 145 132 126 172 135 27 78 145 
27 76 117 27 76 117 54 115 81 54 92 81 7 56 82 7 29 75 7 59 103 7 73 121 
42 120 116 57 121 132 112 130 109 97 125 111 6 33 96 7 48 95 59 95 109 112 130 109 
88 132 124 63 125 116 88 132 124 88 132 124 126 145 132 112 130 109 57 121 132 112 130 109 
88 132 124 59 95 109 27 76 117 88 100 145 198 196 136 164 179 131 147 177 131 161 151 130 
164 179 131 112 130 109 63 108 116 7 73 121 43 121 139 57 121 132 63 108 116 63 108 116 
7 75 102 7 52 116 83 125 111 63 125 116 112 130 109 126 145 104 83 125 111 42 120 116 
88 132 124 126 172 135 56 162 154 164 179 131 126 172 135 164 179 131 147 177 131 147 177 131 
63 108 116 126 145 132 143 150 131 88 132 124 126 172 135 88 132 124 126 145 132 126 145 132 
126 145 132 112 130 109 126 145 132 161 151 130 147 177 131 164 179 131 164 179 131 147 177 131 
126 172 135 126 172 135 164 179 131 126 172 135 65 150 115 3 89 142 7 99 141 7 126 130 
65 150 115 7 126 130 7 126 130 7 126 130 7 126 130 43 121 139 43 121 139 126 172 135 
27 121 132 6 99 150 7 113 146 7 113 146 7 126 130 6 120 170 7 113 146 7 113 146 
7 113 146 7 113 146 7 113 146 7 113 146 7 126 130 7 113 146 7 113 146 7 126 130 
7 113 146 88 132 154 240 205 129 240 205 129 198 170 136 161 151 130 198 170 136 240 173 129 
240 173 129 240 205 129 240 173 129 240 173 129 240 173 129 240 205 129 240 205 129 143 150 131 
7 99 141 7 81 122 6 80 137 7 113 146 43 121 139 27 121 132 3 89 142 6 80 137 
7 73 121 7 73 121 6 80 137 3 89 142 57 121 132 88 100 145 128 159 167 164 179 131 
43 121 139 6 89 150 6 120 170 94 154 160 156 195 167 156 195 167 88 100 145 6 73 141 
6 99 150 88 132 154 126 172 135 88 132 154 43 121 169 189 174 152 238 227 170 238 227 170 
238 227 170 239 198 170 236 177 170 236 177 170 239 198 170 197 198 212 128 189 216 43 185 193 
7 145 184 6 80 137 7 27 52 1 4 6 1 1 2 0 3 1 0 3 1 0 2 0 
2 6 2 0 6 1 2 6 2 0 3 1 0 3 1 0 4 3 0 3 1 0 5 1 
0 5 1 2 10 2 0 4 3 1 3 2 0 4 3 1 3 2 0 6 1 0 4 3 
0 6 1 0 6 1 0 6 1 1 12 4 0 6 3 0 5 1 0 4 3 2 6 2 
0 5 1 0 6 3 0 5 1 0 4 3 1 12 4 2 10 2 1 12 4 0 9 4 
2 6 2 0 3 1 0 3 1 0 5 1 0 6 1 0 5 1 0 5 1 1 7 4 
2 10 2 0 9 4 1 12 4 0 6 3 0 5 1 2 6 2 0 6 1 0 5 1 

63 108 116 29 95 109 24 56 95 40 64 95 54 83 99 54 83 99 59 95 109 126 145 132 
88 132 154 88 100 145 112 130 109 89 107 111 143 150 131 147 177 131 143 150 131 88 132 124 
83 125 111 104 121 89 24 95 100 24 56 81 6 33 96 63 108 116 147 177 131 164 179 131 
88 132 124 27 78 145 88 132 124 27 76 117 54 92 81 7 72 82 59 95 109 126 145 104 
88 132 124 126 145 132 88 132 154 58 82 117 59 95 109 54 92 81 24 95 100 63 125 116 
88 132 124 88 132 124 88 132 124 88 132 124 88 132 124 57 121 132 29 95 109 57 82 141 
112 130 109 63 108 116 112 130 109 58 82 117 143 150 131 164 179 131 88 132 154 143 150 131 
147 177 131 126 145 132 126 145 132 126 145 132 164 179 131 164 179 131 126 145 132 147 177 131 
63 125 116 63 125 116 112 130 109 57 121 132 57 82 141 112 130 109 164 179 131 88 132 124 
65 150 115 88 132 124 65 150 115 126 145 132 126 145 132 27 78 145 126 145 132 147 177 131 
126 145 104 63 108 116 97 125 111 164 179 131 143 150 131 164 179 131 88 132 124 155 154 99 
164 179 131 164 179 131 126 145 132 147 177 131 126 145 132 164 179 131 164 179 131 126 172 135 
164 179 131 164 179 131 164 179 131 88 132 154 43 121 139 7 126 130 7 99 141 3 89 142 
7 99 141 7 99 141 7 99 141 7 99 141 7 99 141 7 126 130 7 113 146 7 113 146 
56 162 154 57 121 132 7 113 146 7 113 146 7 113 146 6 120 170 6 120 170 6 120 170 
7 113 146 7 113 146 6 99 150 7 113 146 7 126 130 7 126 130 7 126 130 7 113 146 
7 126 130 7 126 130 94 154 160 147 177 131 143 150 131 198 196 136 240 173 129 240 173 129 
240 173 129 240 173 129 240 173 129 240 173 129 208 152 121 240 173 129 239 198 170 240 205 129 
161 151 130 27 78 145 7 81 122 6 80 137 7 99 141 7 113 146 7 113 146 57 121 132 
7 99 141 7 73 121 6 80 137 3 89 142 6 80 137 7 73 121 6 80 137 6 99 150 
88 132 154 43 121 139 7 145 184 128 189 167 198 212 189 242 242 223 189 174 177 128 159 167 
43 121 169 7 80 149 156 195 167 197 213 164 88 100 145 43 121 169 88 132 154 189 174 152 
238 227 170 238 227 170 239 198 170 239 198 170 236 177 170 239 198 170 225 208 211 156 186 216 
43 185 193 7 145 184 7 113 146 6 33 96 7 18 20 1 4 4 0 0 0 0 2 0 
15 7 5 0 2 0 0 3 1 0 3 1 0 0 0 0 3 1 0 3 1 0 2 0 
0 5 1 0 3 1 2 6 2 0 4 3 0 5 1 0 4 3 0 3 1 0 5 1 
0 5 1 0 5 1 0 3 1 5 9 2 1 3 2 2 6 2 0 3 1 0 6 1 
0 6 1 0 6 1 0 5 1 0 4 3 2 10 2 0 4 3 0 6 3 0 2 2 
0 5 1 0 5 1 0 5 1 2 6 2 0 4 3 2 10 2 0 6 1 2 6 2 
0 6 3 0 6 3 1 9 4 0 6 3 0 11 2 2 6 3 0 9 4 2 6 2 

63 108 116 97 125 111 83 125 111 29 95 109 27 76 117 27 76 117 27 76 117 88 132 124 
126 145 132 126 172 135 7 73 121 27 76 117 59 95 109 112 130 109 126 145 132 126 145 132 
63 108 116 63 108 116 83 125 111 83 125 111 63 125 116 59 95 109 88 132 124 126 145 132 
143 150 131 88 132 124 147 177 131 147 177 131 63 108 116 7 59 103 59 95 109 63 108 116 
88 132 124 126 145 132 147 177 131 88 132 124 63 108 116 59 95 109 7 48 95 24 68 95 
112 130 109 88 132 124 126 145 132 88 132 124 143 150 131 147 177 131 126 172 135 88 132 124 
88 132 124 88 132 124 88 132 124 126 145 104 57 82 141 112 114 119 88 132 124 27 76 117 
83 125 111 88 132 124 88 132 124 43 121 139 126 145 132 164 179 131 156 159 166 164 179 131 
27 76 117 7 59 103 126 145 104 126 145 132 155 181 94 126 145 132 88 132 154 126 145 132 
126 172 135 88 132 124 7 52 116 63 108 116 199 197 101 88 100 145 112 130 109 143 150 131 
112 130 109 112 130 109 112 130 109 88 132 124 126 145 132 198 196 136 112 114 119 112 130 109 
126 145 132 164 179 131 161 151 130 164 179 131 184 151 125 143 150 131 143 150 131 161 151 130 
164 179 131 164 179 131 164 179 131 147 177 131 88 132 124 27 121 132 7 126 130 7 126 130 
7 99 141 7 99 141 7 99 141 7 99 141 7 99 141 7 99 141 7 99 141 7 113 146 
27 121 132 126 172 135 56 162 154 6 120 170 6 120 170 7 113 146 7 113 146 7 126 130 
7 126 130 7 126 130 7 113 146 7 113 146 7 113 146 7 113 146 7 126 130 7 126 130 
7 126 130 7 173 128 7 126 130 65 150 115 65 150 115 126 145 132 198 170 136 240 173 129 
240 173 129 126 145 132 240 173 129 240 205 129 240 173 129 240 173 129 240 205 129 239 198 170 
240 205 129 198 170 136 88 100 145 7 99 141 7 99 141 7 81 122 6 80 137 6 80 137 
7 99 141 7 99 141 7 73 121 7 73 121 7 73 121 7 73 121 7 81 122 6 80 137 
7 99 141 57 121 132 88 132 154 128 189 167 225 208 211 242 242 223 242 214 215 198 212 189 
189 174 177 88 132 154 27 78 145 197 213 164 225 208 211 198 212 189 189 174 177 88 132 154 
88 132 154 198 170 136 240 205 129 240 205 129 239 198 170 236 177 170 239 198 170 225 208 211 
156 186 216 93 161 196 43 185 193 6 120 170 7 59 103 4 8 47 1 4 6 0 3 1 
0 2 0 0 3 1 0 3 1 0 3 1 0 3 1 0 2 0 0 3 1 2 6 2 
0 3 1 0 3 1 0 3 1 2 6 2 15 7 5 15 7 5 0 3 1 0 3 1 
0 4 3 1 3 2 0 4 3 0 6 1 0 5 1 0 6 1 0 6 1 1 1 2 
5 9 2 0 5 1 2 10 2 24 23 9 0 6 1 0 4 3 0 6 1 2 6 2 
0 6 3 2 10 2 0 4 3 2 10 2 10 11 4 0 2 2 2 6 2 0 5 1 
0 5 1 0 6 3 0 9 4 0 6 3 2 6 2 0 11 2 0 6 1 0 3 1 

27 76 117 89 107 111 112 130 109 89 107 111 89 107 111 97 125 111 83 125 111 58 82 117 
57 82 141 164 179 131 143 150 131 63 108 116 24 68 95 54 83 99 88 100 145 88 132 124 
58 82 117 59 95 109 63 108 116 27 76 117 42 120 116 29 95 109 27 76 117 63 108 116 
58 82 117 27 76 117 63 108 116 88 132 124 83 125 111 27 76 117 25 63 109 59 95 109 
59 95 109 58 82 117 88 132 124 126 145 132 126 145 132 143 150 131 83 125 111 25 63 109 
7 48 95 59 95 109 88 132 124 57 121 132 88 132 124 88 132 154 126 145 132 126 145 132 
88 132 124 112 130 109 83 125 111 126 145 104 88 132 124 126 145 132 57 121 132 7 52 116 
6 33 96 7 59 103 59 95 109 63 125 116 57 121 132 88 132 154 164 179 131 164 179 131 
164 179 131 59 95 109 27 76 117 59 95 109 88 132 124 147 177 131 126 172 135 164 179 131 
88 132 154 126 183 100 88 132 124 27 76 117 58 82 117 155 181 94 88 100 145 63 125 116 
88 132 124 126 145 132 143 150 131 63 108 116 88 132 124 143 150 131 164 179 131 164 179 131 
88 132 124 143 150 131 143 150 131 161 151 130 143 150 131 164 179 131 164 179 131 161 151 130 
143 150 131 198 170 136 164 179 131 198 196 136 164 179 131 126 172 135 147 177 131 65 150 115 
7 126 130 7 113 146 7 113 146 7 113 146 7 113 146 7 99 141 7 113 146 7 99 141 
7 113 146 27 121 132 56 162 154 126 172 135 126 172 135 43 121 139 7 113 146 7 113 146 
7 113 146 7 113 146 7 113 146 7 126 130 7 126 130 7 113 146 7 126 130 7 126 130 
7 126 130 7 126 130 7 126 130 7 126 130 65 150 115 7 126 130 143 150 131 240 173 129 
240 173 129 237 157 111 161 151 130 208 152 121 240 173 129 240 205 129 240 173 129 240 173 129 
240 205 129 240 205 129 240 173 129 184 151 125 88 100 145 7 99 141 7 96 112 7 73 121 
7 81 122 6 80 137 7 99 141 3 89 142 3 89 142 6 80 137 7 73 121 6 80 137 
3 89 142 6 80 137 6 99 150 94 154 160 198 212 189 242 242 223 242 242 223 242 242 223 
242 242 223 198 212 189 57 121 132 88 100 145 198 212 189 242 253 234 242 253 234 242 214 215 
127 116 140 43 121 169 112 112 150 198 170 136 240 205 129 239 198 170 239 198 170 239 198 170 
225 208 211 189 174 177 93 161 196 43 185 193 7 145 184 3 89 142 7 29 75 6 8 10 
1 1 2 0 2 0 0 3 1 0 3 1 0 2 0 0 3 1 0 2 0 0 5 1 
0 3 1 0 3 1 0 3 1 0 5 1 0 11 2 0 4 3 0 4 3 0 4 3 
0 4 3 0 5 1 0 6 1 0 2 0 0 6 1 0 3 1 0 5 1 0 5 1 
0 4 3 0 2 2 2 6 2 0 6 1 0 6 1 1 3 2 0 6 1 0 4 3 
0 5 1 2 6 2 0 6 1 0 4 3 0 6 3 0 6 1 0 4 3 0 6 1 
0 5 1 2 6 2 0 6 1 0 6 3 0 6 1 2 4 2 0 5 1 0 2 0 

24 56 95 24 68 95 59 95 109 59 95 109 58 82 117 88 132 124 88 132 124 83 125 111 
63 108 116 88 132 124 126 145 132 147 177 131 63 108 116 7 52 116 63 108 116 126 145 104 
59 95 109 59 95 109 63 108 116 27 76 117 29 95 109 83 125 111 58 82 117 89 107 111 
88 132 124 27 76 117 83 125 111 29 95 109 63 108 116 63 108 116 63 108 116 63 108 116 
29 95 109 27 76 117 27 76 117 88 132 124 57 121 132 88 132 154 126 172 135 147 177 131 
97 125 111 6 33 96 7 75 102 83 125 111 63 108 116 88 132 124 57 121 132 88 132 124 
88 132 154 57 121 132 112 130 109 58 82 117 63 108 116 126 145 132 198 196 136 164 179 131 
89 107 111 24 68 95 7 59 103 7 73 121 63 108 116 88 132 124 143 150 131 126 145 132 
147 177 131 97 125 111 155 181 94 58 82 117 7 96 112 59 95 109 88 132 154 147 177 131 
164 179 131 57 82 141 155 181 94 126 145 104 63 125 116 126 145 132 155 154 99 143 150 131 
164 179 131 88 132 124 126 145 132 126 145 132 83 125 111 88 132 124 126 145 132 147 177 131 
88 132 124 126 145 104 143 150 131 126 145 132 126 145 132 126 145 132 143 150 131 126 145 132 
143 150 131 164 179 131 147 177 131 126 145 132 126 145 132 147 177 131 164 179 131 94 154 160 
7 126 130 7 113 146 7 113 146 7 113 146 7 126 130 7 113 146 7 113 146 7 113 146 
7 113 146 7 113 146 43 121 139 57 121 132 126 172 135 126 172 135 43 121 139 7 113 146 
7 113 146 7 113 146 7 113 146 7 113 146 7 126 130 7 126 130 7 126 130 7 126 130 
7 126 130 7 126 130 7 126 130 7 126 130 27 121 132 42 120 116 126 145 132 240 173 129 
240 173 129 240 173 129 199 169 104 155 144 112 208 152 121 184 151 125 208 152 121 184 151 125 
208 152 121 240 173 129 240 173 129 240 173 129 240 205 129 162 122 140 7 99 141 7 96 112 
7 81 122 7 81 122 7 73 121 3 89 142 7 99 141 6 80 137 6 80 137 6 80 137 
6 80 137 3 89 142 3 89 142 6 120 170 128 159 167 201 238 223 242 242 223 242 214 215 
242 214 215 242 242 223 156 159 166 88 100 145 43 121 169 198 212 189 242 253 234 242 253 234 
242 242 223 189 174 177 128 159 167 88 100 145 162 122 140 240 173 129 239 198 170 239 198 170 
242 214 215 225 208 211 197 198 212 128 189 216 93 161 196 7 145 184 7 113 146 6 33 96 
7 18 20 0 2 2 0 2 0 0 3 1 0 2 0 0 2 0 0 3 1 0 0 0 
0 2 0 0 4 3 0 3 1 0 3 1 2 6 2 0 4 3 2 6 2 15 7 5 
7 7 4 0 5 1 0 3 1 0 3 1 0 3 1 0 3 1 0 5 1 2 6 2 
0 6 1 5 9 2 1 3 2 0 4 3 2 10 2 2 10 2 0 5 1 2 10 2 
0 6 3 2 6 2 0 6 1 2 6 2 2 10 2 0 4 3 0 11 2 0 11 2 
0 6 1 0 6 1 0 3 1 0 4 3 0 6 1 0 6 1 0 5 1 0 5 1 

24 68 95 54 92 81 40 64 95 59 95 109 29 95 109 58 82 117 63 108 116 63 108 116 
63 108 116 59 95 109 63 108 116 126 145 132 164 179 131 126 145 132 7 52 116 24 56 95 
25 63 109 63 108 116 97 125 111 88 132 124 57 82 141 63 108 116 89 107 111 59 95 109 
97 125 111 88 132 124 57 121 132 63 108 116 58 82 117 88 132 124 126 145 132 126 172 135 
147 177 131 42 120 116 7 73 121 58 82 117 83 125 111 63 108 116 126 145 132 128 159 167 
164 179 131 83 125 111 7 48 95 24 68 95 83 125 111 112 130 109 88 132 124 88 100 145 
147 177 131 126 145 132 126 145 132 88 132 124 7 59 103 29 95 109 88 132 124 164 179 131 
198 196 136 126 145 104 24 56 95 54 115 81 7 96 112 112 130 109 88 132 154 164 179 131 
63 108 116 27 76 117 59 95 109 112 130 109 63 108 116 63 108 116 88 132 124 126 172 135 
126 145 132 126 145 132 7 81 122 63 125 116 29 95 109 112 130 109 63 108 116 88 87 111 
164 179 131 88 132 124 147 177 131 164 179 131 164 179 131 143 150 131 126 145 132 126 145 132 
164 179 131 63 108 116 126 145 104 112 130 109 155 181 94 126 145 132 143 150 131 126 145 132 
112 114 119 112 130 109 88 132 124 155 154 99 88 132 124 57 121 132 147 177 131 147 177 131 
56 162 154 7 126 130 7 126 130 7 113 146 7 113 146 7 113 146 7 126 130 7 113 146 
7 113 146 7 113 146 7 113 146 7 113 146 7 113 146 7 113 146 7 126 130 7 113 146 
7 113 146 7 113 146 7 126 130 7 113 146 7 113 146 7 126 130 7 126 130 7 126 130 
7 126 130 7 126 130 7 126 130 7 126 130 7 126 130 7 126 130 88 132 124 240 189 96 
240 173 129 240 205 129 240 173 129 184 151 125 184 152 101 240 189 96 240 189 96 240 189 96 
240 173 129 240 173 129 240 173 129 240 173 129 240 205 129 240 205 129 161 151 130 7 73 121 
7 113 119 42 120 116 7 73 121 7 73 121 7 81 122 7 81 122 6 80 137 6 80 137 
6 80 137 3 89 142 126 172 135 156 159 166 88 132 154 198 212 189 242 242 223 242 242 223 
225 208 211 242 214 215 238 227 170 156 195 167 94 154 160 197 213 164 242 242 223 242 253 234 
242 253 234 242 253 234 242 242 223 225 208 211 156 159 166 43 121 169 156 159 166 239 198 170 
239 198 170 242 214 215 242 214 215 225 208 211 156 186 216 93 161 196 43 185 193 7 145 184 
7 59 103 4 8 47 1 8 8 0 4 3 0 2 0 0 0 0 0 2 0 0 3 1 
0 3 1 0 3 1 0 5 1 0 5 1 0 3 1 0 3 1 0 3 1 0 2 0 
0 3 1 0 6 1 0 2 2 0 6 1 2 4 2 0 3 1 2 6 2 0 4 3 
0 4 3 10 9 2 0 6 1 0 4 3 2 6 2 5 9 2 0 11 2 0 6 3 
1 7 4 2 10 2 0 5 1 2 6 2 0 11 2 0 6 1 0 4 3 0 4 3 
0 6 1 10 11 4 0 6 1 0 4 3 2 10 2 0 5 1 2 6 2 0 11 2 

24 56 95 54 83 99 25 63 109 89 107 111 29 95 109 54 83 99 59 95 109 88 132 124 
83 125 111 29 95 109 29 95 109 58 82 117 88 132 154 164 179 131 112 130 109 29 95 109 
54 83 99 27 76 117 27 76 117 97 125 111 88 132 124 88 132 124 63 108 116 59 95 109 
58 82 117 126 145 132 126 172 135 88 132 124 7 73 121 83 125 111 57 121 132 43 121 139 
126 145 132 57 121 132 23 120 116 24 95 100 7 48 95 7 56 82 63 108 116 88 132 124 
128 159 167 147 177 131 6 33 96 7 48 95 29 95 109 55 71 109 112 130 109 97 125 111 
88 132 124 147 177 131 143 150 131 88 132 124 7 73 121 7 59 103 54 83 99 63 108 116 
126 145 132 88 132 124 7 52 116 63 108 116 7 59 103 59 95 109 88 132 124 147 177 131 
126 145 132 88 132 124 7 73 121 24 56 95 86 120 88 42 120 116 29 95 109 112 130 109 
126 172 135 147 177 131 112 130 109 83 125 111 42 120 116 126 145 104 63 108 116 63 108 116 
42 120 116 83 125 111 88 132 124 126 145 132 143 150 131 126 145 104 112 130 109 88 132 124 
164 179 131 126 145 132 126 145 132 126 145 132 126 145 132 126 145 132 143 150 131 143 150 131 
155 144 112 126 145 104 112 130 109 126 145 104 126 145 104 112 130 109 147 177 131 164 179 131 
126 172 135 94 154 160 27 121 132 27 121 132 7 126 130 7 113 146 7 113 146 7 113 146 
7 126 130 7 113 146 7 113 146 7 113 146 7 113 146 7 113 146 7 113 146 7 113 146 
43 121 139 88 132 154 43 121 139 7 113 146 7 113 146 43 121 139 43 121 139 27 121 132 
7 126 130 7 126 130 7 126 130 7 126 130 7 126 130 7 126 130 7 126 130 155 144 112 
240 173 129 240 173 129 240 173 129 240 189 96 237 157 111 208 152 121 184 152 101 208 152 121 
239 168 94 240 173 129 240 173 129 240 173 129 240 173 129 240 173 129 240 205 129 184 151 125 
57 82 141 63 125 116 7 73 121 7 73 121 7 73 121 7 81 122 7 81 122 7 81 122 
7 81 122 3 89 142 43 121 169 197 213 164 189 174 177 189 174 177 198 212 189 242 214 215 
225 208 211 189 174 177 198 212 189 189 174 152 6 89 150 88 132 154 198 212 189 242 242 223 
242 253 234 242 253 234 242 253 234 242 253 234 242 242 223 238 227 170 112 112 150 112 112 150 
210 180 169 239 198 170 242 214 215 242 214 215 225 208 211 189 174 177 93 161 196 43 185 193 
7 145 184 7 81 122 4 8 47 6 8 10 0 2 2 0 5 1 0 3 1 0 3 1 
0 3 1 0 3 1 0 3 1 0 6 1 0 3 1 0 2 0 0 3 1 5 9 2 
2 4 2 0 4 3 0 5 1 0 6 1 0 3 1 0 3 1 1 3 2 2 10 2 
0 6 1 0 6 1 5 9 2 10 9 2 0 3 1 0 3 1 0 6 1 0 4 3 
0 11 2 2 10 2 0 6 1 1 3 2 0 4 3 0 11 2 0 4 3 0 6 1 
2 4 2 0 4 3 5 9 2 7 7 4 0 6 1 0 5 1 0 4 3 0 5 1 

59 95 109 24 68 95 24 68 95 59 95 109 24 68 95 24 56 95 25 63 109 63 108 116 
63 108 116 63 125 116 54 83 99 25 63 109 83 125 111 88 132 124 88 132 124 88 132 124 
88 132 124 42 120 116 7 73 121 27 76 117 126 145 132 88 132 124 57 82 141 97 125 111 
63 108 116 57 121 132 88 132 154 147 177 131 88 132 124 27 76 117 63 108 116 23 120 116 
63 108 116 29 95 109 29 95 109 7 48 75 6 34 60 7 29 75 54 92 81 63 108 116 
126 145 132 126 145 104 7 59 103 89 107 111 88 132 124 27 76 117 42 120 116 59 95 109 
7 52 116 59 95 109 112 130 109 126 172 135 126 145 132 29 95 109 24 68 95 7 75 102 
63 108 116 126 145 132 88 132 124 112 130 109 40 64 95 7 48 95 27 76 117 126 145 132 
198 196 136 164 179 131 97 125 111 24 41 78 24 56 81 59 95 109 29 95 109 63 108 116 
88 132 124 143 150 131 143 150 131 88 132 124 57 121 132 83 125 111 112 130 109 147 177 131 
88 132 124 23 120 116 63 125 116 88 132 124 57 121 132 83 125 111 63 108 116 63 108 116 
83 125 111 112 130 109 88 132 124 126 145 132 112 130 109 112 130 109 126 145 104 143 150 131 
161 151 130 155 144 112 126 145 132 88 132 124 88 132 124 88 132 124 147 177 131 164 179 131 
164 179 131 94 154 160 126 172 135 126 172 135 126 172 135 7 113 146 7 113 146 7 113 146 
7 126 130 7 126 130 27 121 132 56 162 154 88 132 154 147 177 131 94 154 160 147 177 131 
164 179 131 164 179 131 198 196 136 198 170 136 198 196 136 240 205 129 240 205 129 164 179 131 
7 126 130 7 126 130 7 126 130 7 126 130 7 126 130 7 126 130 7 126 130 88 132 124 
112 130 109 184 152 101 240 189 96 237 157 111 240 173 129 239 168 94 237 157 111 159 125 108 
203 152 81 238 155 87 237 157 111 240 173 129 240 173 129 240 173 129 240 173 129 240 205 129 
198 170 136 57 82 141 7 52 116 7 73 121 7 59 103 7 73 121 7 81 122 7 81 122 
7 81 122 7 81 122 143 150 131 238 227 170 238 227 170 210 180 169 197 213 164 210 180 169 
197 213 164 197 213 164 189 174 152 143 150 131 88 132 124 126 172 135 197 213 164 225 208 211 
242 253 234 242 253 234 242 253 234 242 253 234 242 253 234 242 242 223 242 242 223 156 159 166 
112 112 150 210 180 169 239 198 170 225 208 211 239 198 170 239 198 170 189 174 177 93 161 196 
43 185 193 7 145 184 7 113 146 6 33 96 7 18 20 1 4 4 25 6 4 0 2 0 
0 0 0 0 3 1 0 3 1 0 5 1 0 3 1 0 0 0 0 3 1 0 3 1 
0 11 2 0 6 1 0 3 1 0 3 1 2 4 2 0 3 1 0 5 1 1 3 2 
0 6 1 0 4 3 0 11 2 2 6 2 0 3 1 0 11 2 2 6 2 0 4 3 
0 6 3 0 6 1 0 6 1 0 6 1 1 7 4 0 6 3 0 6 1 0 11 2 
0 3 1 0 3 1 0 11 2 1 3 2 10 9 2 0 5 1 0 4 3 0 5 1 

40 64 95 7 48 75 54 83 99 86 120 88 54 83 99 59 95 109 24 68 95 63 108 116 
88 132 124 57 121 132 29 95 109 7 59 103 59 95 109 29 95 109 59 95 109 63 108 116 
88 132 124 126 145 132 57 121 132 7 73 121 63 108 116 126 145 132 88 132 124 58 82 117 
57 121 132 57 121 132 57 121 132 94 154 160 126 145 132 126 145 132 88 132 124 27 76 117 
7 48 95 7 59 103 7 48 95 7 29 75 24 56 81 54 92 81 40 64 95 27 76 117 
59 95 109 24 68 95 7 59 103 63 108 116 147 177 131 88 132 124 58 82 117 126 145 104 
55 71 109 25 63 109 25 63 109 89 107 111 126 145 132 83 125 111 29 95 109 83 125 111 
29 95 109 88 132 154 164 179 131 126 145 132 86 120 88 7 72 82 24 67 72 7 59 103 
112 130 109 198 170 136 198 170 136 155 181 94 60 64 95 24 68 95 126 145 104 97 125 111 
29 95 109 126 145 132 164 179 131 88 132 124 147 177 131 143 150 131 27 76 117 126 145 104 
88 132 124 27 76 117 63 125 116 88 132 124 126 145 104 112 130 109 97 125 111 83 125 111 
126 145 104 88 132 124 126 145 132 126 145 132 112 130 109 126 145 104 63 108 116 143 150 131 
161 151 130 164 179 131 164 179 131 164 179 131 143 150 131 164 179 131 161 151 130 198 170 136 
198 196 136 164 179 131 164 179 131 164 179 131 164 179 131 164 179 131 27 163 154 7 113 146 
7 113 146 65 150 115 65 150 115 57 121 132 88 132 124 88 132 124 43 121 139 57 121 132 
43 121 139 7 113 146 88 132 124 126 145 132 126 145 132 164 179 131 161 151 130 88 132 124 
7 99 141 7 126 130 7 126 130 7 126 130 7 126 130 7 126 130 7 113 119 23 120 116 
64 143 106 42 120 116 199 169 104 239 168 94 240 189 96 239 168 94 240 189 96 237 157 111 
175 126 88 239 168 94 237 157 111 240 173 129 240 173 129 240 173 129 240 173 129 240 205 129 
240 205 129 198 170 136 126 145 132 58 82 117 7 59 103 7 59 103 7 59 103 7 73 121 
7 96 112 7 81 122 7 73 121 112 114 119 189 174 152 238 227 170 189 174 177 156 159 166 
88 132 154 88 132 154 126 145 132 88 132 124 7 99 141 57 121 132 128 159 167 156 159 166 
198 212 189 242 242 223 242 253 234 242 253 234 242 253 234 242 253 234 242 253 234 242 242 223 
189 174 177 189 174 177 189 174 177 239 198 170 225 208 211 239 198 170 225 208 211 189 174 177 
93 161 196 93 161 196 6 201 200 7 145 184 7 59 103 4 8 47 1 4 6 0 2 0 
0 0 0 0 2 0 0 3 1 0 2 0 1 1 0 0 3 1 0 3 1 0 0 0 
0 3 1 0 3 1 0 2 0 0 2 0 0 3 1 0 3 1 0 2 2 0 5 1 
0 5 1 0 11 2 0 3 1 0 6 1 0 3 1 0 5 1 0 6 1 0 4 3 
2 10 2 0 3 1 0 4 3 0 5 1 1 9 4 0 6 1 0 3 1 0 6 1 
0 3 1 0 3 1 0 5 1 0 6 1 0 6 1 0 2 0 0 5 1 0 6 1 

7 41 60 7 45 53 7 41 60 24 56 81 24 68 95 63 125 116 27 76 117 59 95 109 
88 132 124 126 145 132 126 145 132 59 95 109 25 63 109 25 63 109 25 63 109 59 95 109 
58 82 117 88 100 145 88 132 124 63 108 116 63 108 116 88 132 154 126 145 132 27 76 117 
63 108 116 63 125 116 57 121 132 57 121 132 88 132 124 126 145 132 126 145 132 164 179 131 
97 125 111 63 108 116 54 115 81 7 56 82 54 83 99 88 132 124 164 179 131 88 132 124 
54 92 81 7 29 75 7 56 82 29 95 109 88 132 124 143 150 131 59 95 109 89 107 111 
112 104 110 199 197 101 59 95 109 89 107 111 83 125 111 63 108 116 63 108 116 63 108 116 
88 132 124 88 132 124 164 179 131 164 179 131 55 71 109 6 33 96 7 56 82 6 33 96 
25 63 109 112 114 119 143 150 131 143 150 131 155 181 94 27 76 117 63 108 116 126 145 132 
27 76 117 88 132 124 143 150 131 57 121 132 88 132 124 112 112 150 126 145 104 63 108 116 
112 130 109 63 108 116 63 125 116 143 150 131 126 145 132 126 145 132 126 145 132 143 150 131 
126 145 132 126 145 132 112 130 109 88 132 124 112 130 109 143 150 131 143 150 131 126 145 132 
161 151 130 161 151 130 164 179 131 164 179 131 143 150 131 143 150 131 161 151 130 164 179 131 
164 179 131 198 170 136 164 179 131 164 179 131 143 150 131 88 132 154 7 113 146 27 121 132 
57 121 132 43 121 139 43 121 139 7 113 146 7 113 119 7 126 130 7 126 130 7 126 130 
7 126 130 7 126 130 7 113 146 57 121 132 88 132 124 126 145 132 155 154 99 42 120 116 
63 125 116 23 120 116 7 113 119 7 113 119 7 113 119 7 126 130 63 125 116 7 113 119 
23 120 116 112 130 109 240 189 96 237 157 111 237 157 111 239 168 94 240 173 129 240 189 96 
237 157 111 237 157 111 237 157 111 240 173 129 240 173 129 240 173 129 240 173 129 240 173 129 
240 173 129 240 173 129 240 173 129 208 152 121 58 82 117 25 63 109 7 59 103 7 59 103 
7 73 121 7 96 112 7 81 122 7 75 102 7 52 116 147 177 131 197 213 164 156 195 167 
197 213 164 189 174 152 143 150 131 6 99 150 23 120 116 7 113 146 126 145 132 88 132 124 
57 121 132 156 195 167 242 242 223 242 253 234 242 253 234 242 253 234 242 253 234 242 242 223 
242 242 223 197 198 212 156 159 166 156 159 166 189 174 177 198 212 189 198 212 189 225 208 211 
197 198 212 128 159 167 93 191 199 93 191 199 42 156 192 7 81 122 4 8 47 1 8 8 
0 2 2 0 2 0 0 2 0 0 0 0 0 3 1 1 3 2 0 5 1 0 2 0 
0 0 0 0 3 1 0 5 1 0 2 0 0 6 1 0 5 1 0 6 1 0 3 1 
0 4 3 0 6 1 0 3 1 0 6 1 0 3 1 0 6 1 2 6 2 0 4 3 
0 6 1 0 6 1 0 4 3 5 9 2 0 4 3 0 6 1 1 3 2 2 6 2 
0 4 3 0 3 1 0 4 3 0 6 1 0 5 1 0 5 1 2 6 2 0 4 3 

6 27 33 7 27 52 54 63 80 54 63 80 89 107 111 59 95 109 25 63 109 59 95 109 
63 108 116 126 145 132 126 145 132 126 145 132 88 132 124 59 95 109 29 95 109 29 95 109 
29 95 109 63 125 116 88 132 124 63 125 116 63 108 116 126 145 132 143 150 131 88 132 124 
27 76 117 63 108 116 57 121 132 88 132 124 88 132 124 88 132 154 126 172 135 156 159 166 
147 177 131 29 95 109 7 56 82 7 29 75 29 95 109 57 121 132 189 174 152 198 196 136 
25 63 109 7 56 82 25 63 109 63 108 116 88 132 124 126 145 132 27 76 117 54 83 99 
24 68 95 104 121 89 54 83 99 24 95 100 97 125 111 126 145 104 126 145 132 88 132 124 
88 132 124 88 132 124 143 150 131 147 177 131 126 145 104 7 75 102 54 115 81 124 130 88 
126 145 104 155 154 99 27 76 117 63 108 116 147 177 131 58 82 117 63 108 116 97 125 111 
112 130 109 43 121 139 143 150 131 126 172 135 88 100 145 147 177 131 147 177 131 7 73 121 
89 107 111 164 179 131 126 145 132 126 145 132 147 177 131 126 145 132 126 145 132 164 179 131 
126 145 132 143 150 131 155 144 112 126 145 104 63 125 116 112 130 109 164 179 131 143 150 131 
126 145 132 126 145 132 126 145 132 88 132 124 112 130 109 143 150 131 143 150 131 161 151 130 
126 145 132 143 150 131 143 150 131 164 179 131 147 177 131 57 121 132 88 132 124 126 172 135 
147 177 131 126 172 135 88 132 124 7 126 130 7 113 119 7 113 119 7 126 130 7 126 130 
7 126 130 7 126 130 27 121 132 126 145 132 198 170 136 199 197 101 88 132 124 27 121 132 
42 120 116 7 113 119 7 113 119 7 113 119 23 120 116 126 145 104 240 189 96 199 169 104 
63 125 116 112 130 109 240 189 96 237 157 111 239 168 94 238 155 87 216 154 83 240 189 96 
240 173 129 240 173 129 237 157 111 240 189 96 240 173 129 240 173 129 240 173 129 240 173 129 
240 205 129 240 173 129 240 173 129 240 205 129 240 173 129 240 189 96 112 104 110 97 125 111 
27 76 117 7 81 122 7 96 112 7 73 121 7 75 102 7 52 116 126 172 135 94 154 160 
197 213 164 198 212 189 189 174 177 128 159 167 57 121 132 27 121 132 143 150 131 83 125 111 
7 113 119 88 132 124 198 212 189 242 253 234 242 253 234 242 253 234 242 253 234 242 242 223 
242 242 223 242 242 223 198 212 189 127 116 140 156 159 166 189 174 177 210 180 169 189 174 177 
198 212 189 189 174 177 128 159 167 128 189 216 128 189 216 43 185 193 6 120 170 6 33 96 
7 18 20 1 1 2 0 3 1 0 2 0 3 1 1 0 3 1 0 3 1 0 6 1 
15 7 5 0 2 0 0 3 1 0 2 0 0 2 0 0 3 1 0 3 1 0 6 1 
0 4 3 0 6 1 0 3 1 0 4 3 0 3 1 0 11 2 15 7 5 0 5 1 
2 6 2 0 5 1 0 3 1 2 4 2 0 6 1 0 4 3 0 4 3 0 4 3 
2 6 2 0 5 1 0 3 1 0 4 3 0 4 3 1 3 2 0 5 1 15 7 5 

7 45 53 24 67 72 55 83 74 54 83 99 63 108 116 83 125 111 7 59 103 24 68 95 
27 76 117 88 132 124 88 132 124 88 100 145 63 108 116 63 108 116 29 95 109 29 95 109 
7 75 102 59 95 109 25 63 109 59 95 109 27 76 117 63 108 116 63 108 116 97 125 111 
27 76 117 29 95 109 58 82 117 63 108 116 63 125 116 88 132 154 128 159 167 197 213 164 
88 132 154 7 56 82 6 34 60 24 67 72 24 68 95 63 108 116 126 145 132 198 196 136 
97 125 111 59 95 109 126 145 104 88 132 124 63 108 116 54 83 99 40 64 95 59 95 109 
27 76 117 59 95 109 40 64 95 59 95 109 55 71 109 89 107 111 57 121 132 59 95 109 
7 73 121 29 95 109 27 76 117 112 130 109 143 150 131 25 63 109 7 48 95 63 108 116 
7 73 121 155 144 112 57 82 141 97 125 111 164 179 131 88 132 124 7 48 95 7 75 102 
112 130 109 164 179 131 57 82 141 112 130 109 88 132 124 57 82 141 161 151 130 126 172 135 
126 145 132 88 132 154 88 132 124 88 132 124 126 145 132 88 132 124 126 172 135 126 145 132 
63 108 116 126 145 132 126 145 132 126 145 104 155 181 94 112 130 109 126 145 104 97 125 111 
143 150 131 88 132 124 112 130 109 89 107 111 126 145 104 143 150 131 143 150 131 147 177 131 
126 145 132 147 177 131 88 132 124 112 130 109 63 125 116 42 120 116 83 125 111 57 121 132 
43 121 139 7 99 141 7 99 141 7 99 141 7 113 119 7 96 112 7 113 119 7 99 141 
7 99 141 7 113 119 27 121 132 88 132 124 199 169 104 199 169 104 126 145 132 112 130 109 
155 154 99 112 130 109 155 144 112 97 125 111 97 125 111 63 108 116 89 107 111 155 144 112 
144 120 90 184 152 101 239 168 94 239 168 94 175 126 88 203 152 81 216 154 83 237 157 111 
237 157 111 240 173 129 239 168 94 237 157 111 237 157 111 240 173 129 240 173 129 240 173 129 
240 173 129 240 173 129 240 173 129 240 173 129 240 205 129 240 205 129 240 205 129 240 173 129 
240 173 129 159 125 108 7 96 112 7 75 102 7 59 103 7 59 103 7 73 121 27 121 132 
128 159 167 238 227 170 242 214 215 198 212 189 238 227 170 143 150 131 57 121 132 112 130 109 
27 76 117 7 96 112 112 112 150 238 227 170 242 253 234 242 253 234 242 253 234 242 253 234 
242 242 223 242 242 223 242 242 223 198 212 189 156 159 166 156 159 166 156 159 166 189 174 177 
189 174 177 198 212 189 198 212 189 128 189 167 93 161 196 156 186 216 93 191 199 7 145 184 
7 59 103 4 8 47 1 4 6 0 3 1 0 3 1 0 2 0 0 3 1 0 3 1 
0 2 0 0 0 0 0 3 1 0 2 0 0 3 1 0 3 1 2 4 2 0 5 1 
0 6 1 2 6 2 0 3 1 0 3 1 0 6 1 0 3 1 0 4 3 2 6 2 
0 5 1 2 6 2 0 5 1 10 11 4 0 6 1 2 6 2 2 6 2 2 6 2 
2 6 2 0 5 1 2 10 2 2 6 2 0 6 1 0 6 1 0 5 1 2 6 2 

24 56 55 24 56 81 40 64 95 86 120 88 83 125 111 24 68 95 7 56 82 54 83 99 
89 107 111 63 108 116 57 82 141 97 125 111 27 76 117 7 48 95 7 59 103 59 95 109 
63 125 116 25 63 109 7 56 82 7 48 75 7 56 82 54 83 99 59 95 109 63 108 116 
42 120 116 7 52 116 54 92 81 40 64 95 42 120 116 57 121 132 143 150 131 197 213 164 
198 196 136 6 33 96 7 27 52 7 48 75 7 59 103 27 76 117 112 130 109 88 132 124 
97 125 111 7 75 102 57 121 132 189 174 152 147 177 131 7 29 75 7 29 75 112 130 109 
164 179 131 147 177 131 88 132 124 126 145 104 164 179 131 147 177 131 88 132 124 104 121 89 
6 33 96 24 95 100 29 95 109 63 108 116 199 197 101 164 179 131 27 76 117 155 181 94 
88 132 124 126 145 132 147 177 131 88 132 124 126 145 132 164 179 131 126 145 104 7 48 95 
97 125 111 155 181 94 126 145 104 88 132 124 147 177 131 83 125 111 126 145 132 147 177 131 
88 132 124 126 172 135 88 132 124 88 132 124 155 181 94 63 108 116 89 107 111 155 181 94 
63 108 116 59 95 109 126 145 104 59 95 109 27 76 117 83 125 111 83 125 111 59 95 109 
112 130 109 126 145 104 58 82 117 29 95 109 126 145 104 112 130 109 112 130 109 58 82 117 
63 125 116 112 130 109 59 95 109 29 95 109 7 113 119 7 113 119 7 96 112 7 113 119 
7 113 146 7 99 141 7 113 146 7 99 141 7 99 141 7 113 119 7 96 112 7 113 119 
7 113 119 7 96 112 7 113 119 7 113 119 63 108 116 155 144 112 240 189 96 240 189 96 
239 168 94 239 168 94 239 168 94 240 189 96 237 157 111 199 169 104 184 152 101 155 144 112 
203 152 81 159 125 108 239 168 94 239 168 94 216 154 83 175 126 88 216 154 83 239 168 94 
237 157 111 237 157 111 239 168 94 239 168 94 240 173 129 240 173 129 240 173 129 240 205 129 
240 173 129 240 173 129 240 173 129 240 173 129 240 173 129 240 205 129 240 205 129 240 205 129 
240 205 129 240 173 129 155 144 112 88 87 111 7 52 116 7 59 103 7 75 102 7 96 112 
7 73 121 143 150 131 238 227 170 238 227 170 210 180 169 238 227 170 161 151 130 126 145 132 
126 145 104 7 75 102 7 75 102 143 150 131 238 227 170 242 253 234 242 253 234 242 253 234 
242 253 234 242 253 234 242 242 223 242 242 223 242 214 215 189 174 177 156 159 166 156 159 166 
156 159 166 156 195 167 156 195 167 156 195 167 128 189 167 93 161 196 156 186 216 93 191 199 
7 145 184 3 89 142 7 27 52 1 4 6 0 3 1 0 2 0 2 4 2 0 0 0 
0 3 1 2 6 2 0 2 0 0 3 1 0 6 1 2 6 2 0 3 1 0 5 1 
0 3 1 10 9 2 0 3 1 0 3 1 2 10 2 0 5 1 2 10 2 0 4 3 
2 10 2 0 2 2 0 3 1 0 4 3 0 6 1 0 5 1 0 5 1 0 6 1 
0 4 3 0 6 1 7 7 4 0 5 1 0 0 0 0 5 1 0 6 1 0 3 1 

6 34 60 24 67 72 24 56 95 25 63 109 54 83 99 24 56 81 24 67 72 86 120 88 
63 108 116 88 132 124 58 82 117 112 130 109 7 48 95 24 67 72 54 83 99 63 108 116 
89 107 111 54 115 81 7 48 75 7 48 75 7 72 82 7 59 103 29 95 109 63 108 116 
63 108 116 29 95 109 54 83 99 24 68 95 27 76 117 7 73 121 88 100 145 164 179 131 
198 196 136 112 130 109 7 48 75 7 48 75 7 48 75 24 68 95 27 76 117 58 82 117 
7 48 95 7 59 103 59 95 109 156 159 166 198 196 136 40 64 95 7 48 75 24 68 95 
88 132 124 143 150 131 126 145 132 58 82 117 57 121 132 126 145 132 126 172 135 63 125 116 
24 56 95 54 115 81 24 95 100 59 95 109 55 71 109 143 150 131 147 177 131 63 108 116 
97 125 111 126 183 100 126 145 104 88 132 124 126 183 100 57 82 141 155 181 94 7 52 116 
7 75 102 58 82 117 112 130 109 43 121 139 126 145 132 57 121 132 65 150 115 126 145 132 
126 145 104 27 76 117 27 76 117 97 125 111 97 125 111 147 177 131 57 121 132 112 130 109 
147 177 131 88 132 124 63 125 116 63 125 116 126 145 104 89 107 111 27 76 117 59 95 109 
97 125 111 155 154 99 112 130 109 29 95 109 89 107 111 126 145 104 88 132 124 112 130 109 
63 108 116 7 81 122 7 81 122 7 96 112 63 125 116 88 132 124 126 145 132 143 150 131 
126 172 135 147 177 131 43 121 139 7 113 146 27 121 132 57 121 132 7 126 130 7 99 141 
7 81 122 7 113 119 7 96 112 7 96 112 7 75 102 58 82 117 199 169 104 237 157 111 
239 168 94 239 168 94 237 157 111 239 168 94 240 189 96 240 189 96 239 168 94 240 189 96 
239 168 94 238 155 87 216 154 83 239 168 94 240 189 96 239 168 94 239 168 94 239 168 94 
240 189 96 237 157 111 238 155 87 239 168 94 237 157 111 240 173 129 240 173 129 240 173 129 
240 173 129 240 173 129 240 173 129 240 173 129 240 173 129 240 173 129 237 157 111 240 173 129 
240 173 129 240 205 129 240 205 129 240 205 129 161 151 130 7 73 121 7 59 103 7 59 103 
7 48 95 27 76 117 156 159 166 238 227 170 238 227 170 189 174 177 189 174 152 198 170 136 
97 125 111 7 96 112 7 59 103 27 76 117 143 150 131 238 227 170 242 242 223 242 253 234 
242 242 223 242 242 223 242 242 223 242 242 223 242 242 223 242 242 223 225 208 211 189 174 177 
156 159 166 156 159 166 128 159 167 156 195 167 128 159 167 93 161 196 93 161 196 156 186 216 
128 189 216 43 185 193 7 113 146 7 29 75 7 18 20 1 1 2 0 3 1 0 2 0 
0 0 0 0 3 1 0 2 0 0 3 1 0 3 1 10 9 2 1 1 0 0 3 1 
0 5 1 0 6 1 0 2 0 0 5 1 0 5 1 0 6 1 2 6 2 2 4 2 
0 3 1 0 6 1 10 9 2 5 9 2 2 6 2 1 1 2 0 3 1 0 6 1 
0 4 3 1 1 0 1 1 0 2 6 2 10 9 2 0 3 1 0 3 1 0 2 0 

24 67 72 40 64 95 97 125 111 89 107 111 24 56 81 6 34 60 24 56 72 7 59 103 
89 107 111 58 82 117 126 145 104 126 145 104 24 56 81 24 68 95 54 115 81 24 68 95 
6 33 96 7 48 75 6 34 60 7 48 75 54 92 81 83 125 111 54 83 99 54 83 99 
54 83 99 59 95 109 59 95 109 24 68 95 86 120 88 55 71 109 25 63 109 58 82 117 
88 132 124 147 177 131 40 64 95 7 41 60 6 34 60 24 68 95 143 150 131 155 181 94 
7 48 75 7 48 75 59 95 109 112 112 150 198 196 136 40 64 95 6 34 60 7 29 75 
29 95 109 88 100 145 126 172 135 7 52 116 63 125 116 59 95 109 88 132 124 112 130 109 
86 120 88 7 48 95 7 29 75 54 115 81 86 120 88 7 48 95 86 120 88 54 83 99 
7 29 75 24 56 95 54 83 99 126 183 100 63 108 116 97 125 111 155 154 99 126 145 104 
126 145 104 97 125 111 83 125 111 88 132 124 88 132 124 88 132 124 88 132 124 88 132 124 
88 132 124 126 145 104 40 64 95 40 64 95 97 125 111 88 132 124 126 172 135 88 132 124 
126 145 132 112 130 109 112 130 109 112 130 109 147 177 131 164 179 131 155 144 112 112 114 119 
155 144 112 126 145 132 29 95 109 63 108 116 63 108 116 143 150 131 161 151 130 164 179 131 
164 179 131 164 179 131 147 177 131 164 179 131 198 196 136 240 205 129 240 173 129 198 196 136 
198 196 136 147 177 131 147 177 131 126 172 135 126 172 135 147 177 131 88 132 124 7 126 130 
7 81 122 7 81 122 7 96 112 7 96 112 29 95 109 126 145 104 199 169 104 199 169 104 
208 152 121 208 152 121 237 157 111 237 157 111 237 157 111 239 168 94 237 157 111 239 168 94 
239 168 94 240 189 96 239 168 94 239 168 94 239 168 94 239 168 94 239 168 94 239 168 94 
237 157 111 239 168 94 237 157 111 238 155 87 239 168 94 240 173 129 240 173 129 240 173 129 
240 173 129 240 173 129 240 205 129 240 205 129 240 173 129 240 173 129 240 173 129 240 173 129 
240 173 129 240 173 129 240 173 129 240 205 129 240 205 129 240 173 129 128 117 109 7 59 103 
7 48 95 7 48 95 63 125 116 197 213 164 242 214 215 239 198 170 210 180 169 189 174 177 
143 150 131 112 114 119 29 95 109 93 98 84 27 76 117 143 150 131 238 227 170 242 242 223 
242 242 223 242 242 223 242 242 223 242 242 223 201 238 223 242 242 223 242 242 223 242 214 215 
189 174 177 189 174 177 128 159 167 94 154 160 128 159 167 93 161 196 42 156 192 42 156 192 
93 191 199 156 186 216 93 191 199 7 145 184 7 59 103 4 8 47 1 4 6 0 2 0 
0 2 0 0 3 1 0 2 0 0 2 0 0 2 0 0 3 1 0 3 1 0 6 1 
0 3 1 0 3 1 0 3 1 0 3 1 0 5 1 0 3 1 0 11 2 0 5 1 
0 2 0 0 3 1 0 6 1 0 2 2 2 4 2 1 3 2 2 6 2 0 4 3 
0 3 1 0 3 1 5 9 2 0 3 1 2 4 2 0 3 1 25 6 4 0 5 1 

54 92 81 59 95 109 143 150 131 112 130 109 7 56 82 7 41 60 55 83 74 29 95 109 
83 125 111 59 95 109 54 83 99 24 56 95 55 83 74 54 92 81 40 64 95 24 56 95 
24 68 95 40 64 95 7 48 75 24 56 81 24 95 100 54 83 99 86 120 88 7 56 82 
7 56 82 7 48 75 24 67 72 7 29 75 104 121 89 58 82 117 86 120 88 7 48 95 
54 83 99 86 120 88 7 29 75 7 45 53 6 34 60 7 56 82 112 114 119 164 179 131 
7 29 75 7 27 52 24 56 95 126 145 132 126 145 132 24 56 81 7 27 52 7 27 52 
55 83 74 63 108 116 126 145 132 63 108 116 63 108 116 7 52 116 27 76 117 161 151 130 
63 108 116 7 72 82 7 29 75 7 29 75 7 29 75 7 48 75 7 29 75 6 34 60 
7 27 52 6 34 60 7 48 75 54 83 99 54 92 81 7 48 75 7 48 95 112 130 109 
112 130 109 54 83 99 7 59 103 29 95 109 63 108 116 63 108 116 88 132 124 88 132 124 
112 130 109 25 63 109 24 68 95 42 120 116 112 130 109 63 108 116 88 132 124 112 130 109 
88 132 124 57 82 141 126 145 104 112 114 119 88 132 124 112 114 119 126 145 132 161 151 130 
184 151 125 164 179 131 164 179 131 112 130 109 126 145 104 161 151 130 198 170 136 198 170 136 
199 197 101 240 173 129 184 151 125 198 170 136 240 173 129 240 173 129 240 189 96 161 151 130 
126 145 132 155 144 112 88 132 124 126 145 132 147 177 131 143 150 131 126 145 132 126 145 132 
63 125 116 155 154 99 63 108 116 126 145 104 184 152 101 184 152 101 184 152 101 155 144 112 
199 169 104 239 168 94 216 154 83 239 168 94 239 168 94 239 168 94 216 154 83 216 154 83 
239 168 94 238 155 87 239 168 94 239 168 94 175 126 88 203 152 81 239 168 94 240 189 96 
239 168 94 240 189 96 237 157 111 239 168 94 237 157 111 240 173 129 237 157 111 240 173 129 
240 173 129 240 173 129 240 173 129 240 173 129 240 205 129 240 173 129 240 173 129 240 173 129 
240 173 129 240 173 129 240 173 129 240 173 129 240 173 129 240 205 129 240 205 129 128 117 109 
7 59 103 7 48 95 7 48 95 126 145 132 238 227 170 225 208 211 225 208 211 225 208 211 
238 227 170 210 180 169 112 112 150 97 125 111 24 68 95 29 95 109 161 151 130 242 214 215 
242 214 215 225 208 211 225 208 211 242 242 223 242 242 223 242 242 223 242 242 223 242 242 223 
242 214 215 189 174 177 156 159 166 88 132 154 128 159 167 128 189 167 93 161 196 7 145 184 
7 145 184 93 161 196 155 221 218 93 191 199 7 145 184 7 81 122 4 8 47 1 4 6 
0 2 0 0 2 0 0 2 0 0 2 0 0 2 0 0 2 0 0 2 0 0 3 1 
2 4 2 0 3 1 0 3 1 0 5 1 0 3 1 0 3 1 0 5 1 0 3 1 
0 5 1 0 3 1 2 10 2 0 5 1 0 3 1 0 5 1 0 3 1 0 6 1 
2 4 2 0 5 1 0 3 1 2 6 2 1 3 2 0 5 1 1 3 2 1 3 2 

24 41 78 59 95 109 126 145 132 126 145 104 24 56 95 40 64 95 54 83 99 63 108 116 
97 125 111 63 108 116 155 181 94 155 154 99 88 87 111 54 83 99 24 56 81 124 130 88 
126 145 104 59 95 109 7 75 102 24 56 95 7 75 102 7 48 95 24 56 95 7 56 82 
7 41 60 7 27 52 7 34 46 7 27 52 93 98 84 40 64 95 86 120 88 6 33 96 
24 56 81 7 29 75 7 27 52 7 18 45 7 18 45 6 34 60 58 82 117 199 197 101 
7 29 75 7 18 45 54 63 80 147 177 131 155 154 99 7 48 75 7 27 52 7 18 45 
7 29 75 24 56 95 112 130 109 57 82 141 112 130 109 147 177 131 27 76 117 199 197 101 
164 179 131 27 76 117 7 59 103 7 75 102 7 48 95 7 48 75 7 48 75 6 34 60 
7 27 52 6 34 60 7 27 52 6 34 60 6 34 60 24 56 55 24 67 72 55 83 74 
54 92 81 6 34 60 7 29 75 54 115 81 97 125 111 59 95 109 104 121 89 112 130 109 
126 145 104 112 130 109 59 95 109 63 108 116 126 145 104 88 132 124 112 130 109 97 125 111 
155 181 94 126 145 104 112 130 109 126 145 132 147 177 131 147 177 131 126 145 132 155 144 112 
161 151 130 143 150 131 184 151 125 161 151 130 143 150 131 164 179 131 198 196 136 164 179 131 
126 145 132 143 150 131 143 150 131 199 169 104 240 189 96 184 152 101 184 152 101 29 95 109 
7 81 122 7 73 121 29 95 109 83 125 111 7 96 112 7 96 112 7 81 122 89 107 111 
184 151 125 199 169 104 199 169 104 184 152 101 199 169 104 184 152 101 203 152 81 203 152 81 
175 126 88 184 152 101 199 169 104 216 154 83 238 155 87 238 155 87 238 155 87 238 155 87 
239 168 94 216 154 83 216 154 83 238 155 87 238 155 87 184 152 101 239 168 94 237 157 111 
237 157 111 239 168 94 237 157 111 237 157 111 237 157 111 237 157 111 240 173 129 240 173 129 
240 173 129 240 173 129 240 173 129 237 157 111 240 173 129 240 173 129 240 173 129 240 173 129 
237 157 111 240 173 129 240 173 129 240 173 129 240 173 129 240 173 129 240 173 129 240 205 129 
208 152 121 25 63 109 6 33 96 29 95 109 189 174 152 225 208 211 225 208 211 225 208 211 
225 208 211 242 242 223 210 180 169 184 151 125 128 117 109 27 76 117 63 108 116 189 174 152 
242 214 215 225 208 211 225 208 211 225 208 211 242 242 223 242 242 223 225 208 211 242 242 223 
242 214 215 242 214 215 189 174 177 189 174 177 128 159 167 94 154 160 128 189 167 56 162 154 
7 145 184 7 145 184 43 185 193 128 189 216 43 185 193 7 145 184 7 99 141 7 29 75 
6 8 10 1 1 2 0 0 0 0 0 0 0 0 0 0 2 0 0 2 0 0 2 0 
0 6 1 0 3 1 0 2 0 0 2 0 0 2 0 0 5 1 0 3 1 3 1 1 
2 4 2 0 5 1 0 5 1 0 5 1 0 5 1 0 3 1 0 5 1 0 3 1 
2 6 2 1 3 2 2 6 2 0 6 1 0 4 3 0 6 1 0 5 1 0 3 1 

59 95 109 6 33 96 97 125 111 54 83 99 54 83 99 59 95 109 54 83 99 97 125 111 
124 130 88 55 71 109 89 107 111 143 150 131 198 196 136 198 196 136 40 64 95 60 64 95 
104 121 89 83 125 111 97 125 111 63 108 116 83 125 111 24 56 95 54 92 81 54 92 81 
7 56 82 7 41 60 7 27 52 6 34 60 24 56 72 7 29 75 54 83 99 63 108 116 
89 107 111 40 64 95 7 41 60 7 18 45 7 18 45 24 56 81 88 132 124 126 145 132 
27 76 117 6 34 60 7 29 75 155 181 94 59 95 109 6 34 60 7 27 52 24 67 72 
7 48 75 24 56 95 155 154 99 63 108 116 27 76 117 164 179 131 88 100 145 57 82 141 
112 130 109 55 71 109 7 75 102 42 120 116 63 125 116 7 96 112 7 75 102 7 48 75 
7 29 75 7 48 75 7 56 82 7 29 75 6 34 60 6 34 60 6 34 60 7 27 52 
7 27 52 7 18 45 24 67 72 24 68 95 86 120 88 24 41 78 7 29 75 24 68 95 
24 95 100 104 121 89 7 59 103 7 48 75 54 63 80 54 92 81 54 83 99 54 83 99 
54 83 99 25 63 109 7 73 121 63 108 116 147 177 131 164 179 131 126 172 135 143 150 131 
155 154 99 184 151 125 161 151 130 164 179 131 164 179 131 161 151 130 126 145 132 155 144 112 
112 130 109 97 125 111 63 125 116 63 108 116 63 108 116 27 76 117 29 95 109 7 75 102 
7 73 121 42 120 116 7 75 102 7 59 103 7 59 103 7 81 122 88 132 124 184 151 125 
240 173 129 240 173 129 199 169 104 237 157 111 237 157 111 239 168 94 216 154 83 216 154 83 
216 154 83 216 154 83 216 154 83 216 154 83 239 168 94 239 168 94 238 155 87 216 154 83 
238 155 87 238 155 87 239 168 94 216 154 83 216 154 83 175 126 88 216 154 83 239 168 94 
240 189 96 239 168 94 237 157 111 239 168 94 237 157 111 237 157 111 237 157 111 237 157 111 
240 173 129 240 173 129 237 157 111 239 168 94 240 173 129 240 173 129 240 173 129 240 173 129 
240 173 129 240 173 129 237 157 111 240 173 129 240 173 129 240 173 129 237 157 111 240 173 129 
240 205 129 199 169 104 40 64 95 6 33 96 143 150 131 238 227 170 225 208 211 225 208 211 
225 208 211 242 242 223 242 242 223 236 177 170 208 152 121 155 144 112 199 197 101 156 159 166 
189 174 177 225 208 211 225 208 211 225 208 211 242 214 215 242 242 223 225 208 211 225 208 211 
242 242 223 242 214 215 225 208 211 197 198 212 189 174 177 128 159 167 94 154 160 94 154 160 
94 154 160 7 145 184 7 145 184 7 145 184 93 191 199 43 185 193 6 201 200 6 120 170 
6 33 96 4 8 47 0 2 2 0 2 0 0 3 1 0 3 1 0 3 1 0 0 0 
0 0 0 0 2 0 0 3 1 0 3 1 0 3 1 0 3 1 0 5 1 0 3 1 
0 2 0 0 3 1 0 6 1 2 6 2 0 3 1 0 3 1 1 3 2 0 2 0 
0 5 1 0 4 3 0 5 1 0 3 1 0 6 1 0 5 1 0 3 1 0 5 1 

164 179 131 126 145 132 104 121 89 7 48 95 54 83 99 97 125 111 25 63 109 6 33 96 
7 29 75 7 29 75 7 56 82 27 76 117 112 112 150 197 213 164 164 179 131 6 33 96 
7 48 75 89 107 111 63 108 116 55 71 109 126 145 104 27 76 117 24 68 95 104 121 89 
83 125 111 24 68 95 7 48 75 24 67 72 7 48 75 7 29 75 54 83 99 97 125 111 
97 125 111 83 125 111 7 72 82 7 45 53 7 18 45 86 120 88 126 145 104 88 100 145 
126 145 104 24 95 100 7 29 75 89 107 111 126 145 104 24 67 72 7 48 75 54 115 81 
7 48 75 7 48 75 54 83 99 24 68 95 25 63 109 147 177 131 112 114 119 63 108 116 
155 181 94 40 64 95 7 59 103 63 108 116 88 132 124 43 121 139 42 120 116 29 95 109 
7 75 102 27 76 117 42 120 116 7 96 112 7 75 102 7 48 75 7 48 75 6 34 60 
7 41 60 6 34 60 7 29 75 7 75 102 7 59 103 7 48 75 24 56 72 7 56 82 
6 33 96 6 33 96 7 56 82 7 48 75 7 56 82 7 48 75 24 68 95 59 95 109 
24 95 100 63 108 116 63 108 116 29 95 109 25 63 109 126 145 132 143 150 131 155 144 112 
83 125 111 89 107 111 88 132 124 97 125 111 88 132 124 63 108 116 104 121 89 88 87 111 
63 108 116 126 145 104 97 125 111 89 107 111 112 130 109 83 125 111 7 59 103 7 96 112 
23 120 116 7 75 102 7 75 102 7 75 102 7 75 102 126 145 104 240 189 96 208 152 121 
208 152 121 199 169 104 239 168 94 237 157 111 237 157 111 199 169 104 216 154 83 216 154 83 
216 154 83 239 168 94 239 168 94 239 168 94 239 168 94 238 155 87 216 154 83 175 126 88 
238 155 87 216 154 83 184 152 101 203 152 81 155 144 90 203 152 81 203 152 81 239 168 94 
239 168 94 240 189 96 239 168 94 239 168 94 237 157 111 208 152 121 237 157 111 237 157 111 
237 157 111 237 157 111 237 157 111 237 157 111 240 173 129 240 173 129 240 173 129 237 157 111 
240 173 129 240 173 129 240 173 129 237 157 111 237 157 111 240 173 129 240 173 129 240 173 129 
240 205 129 240 205 129 216 154 83 88 87 111 63 108 116 197 213 164 225 208 211 225 208 211 
197 198 212 225 208 211 242 242 223 242 214 215 236 177 170 184 151 125 162 122 140 238 227 170 
225 208 211 225 208 211 225 208 211 197 198 212 225 208 211 242 242 223 242 214 215 197 198 212 
225 208 211 242 242 223 225 208 211 242 214 215 210 180 169 156 159 166 128 159 167 128 159 167 
128 189 167 93 181 160 7 145 184 7 145 184 7 145 184 93 191 199 128 189 216 6 201 200 
7 145 184 7 52 116 4 8 47 1 4 6 0 0 0 0 2 0 0 2 0 0 0 0 
0 2 0 1 1 0 0 3 1 0 3 1 0 2 0 0 3 1 0 3 1 25 6 4 
0 6 1 0 3 1 0 4 3 0 5 1 0 3 1 0 6 1 2 10 2 0 3 1 
0 3 1 0 3 1 0 3 1 0 2 0 0 3 1 0 6 1 10 9 2 0 3 1 

147 177 131 164 179 131 55 71 109 7 48 75 93 98 84 155 154 99 89 107 111 93 98 84 
104 121 89 86 120 88 7 48 75 24 68 95 27 76 117 143 150 131 197 213 164 126 145 104 
6 33 96 89 107 111 25 63 109 24 56 95 126 145 104 126 145 104 24 68 95 7 59 103 
126 145 104 59 95 109 7 59 103 104 121 89 54 92 81 24 56 81 54 83 99 63 108 116 
29 95 109 89 107 111 54 92 81 7 45 53 7 27 52 24 56 72 24 56 81 54 92 81 
124 130 88 86 120 88 7 56 82 24 68 95 54 83 99 54 115 81 7 48 95 54 92 81 
7 48 75 6 34 60 7 56 82 7 56 82 54 63 80 89 107 111 54 83 99 29 95 109 
54 83 99 7 59 103 112 130 109 126 145 132 164 179 131 88 132 154 88 132 154 88 132 124 
88 132 124 126 145 132 88 132 124 65 150 115 57 121 132 27 76 117 27 76 117 7 75 102 
7 48 95 7 48 95 24 68 95 24 95 100 27 76 117 29 95 109 59 95 109 27 76 117 
83 125 111 83 125 111 83 125 111 7 48 95 54 92 81 54 92 81 24 95 100 59 95 109 
29 95 109 83 125 111 83 125 111 42 120 116 59 95 109 97 125 111 63 108 116 112 104 110 
89 107 111 112 130 109 63 125 116 97 125 111 126 145 104 83 125 111 97 125 111 89 107 111 
155 154 99 161 151 130 88 132 124 63 108 116 63 125 116 126 145 132 88 132 124 27 76 117 
7 96 112 7 75 102 7 75 102 7 75 102 7 96 112 63 108 116 199 169 104 199 169 104 
184 152 101 128 117 109 184 152 101 175 126 88 203 152 81 216 154 83 199 169 104 239 168 94 
238 155 87 238 155 87 239 168 94 239 168 94 239 168 94 238 155 87 238 155 87 238 155 87 
238 155 87 238 155 87 216 154 83 144 120 90 155 144 90 203 152 81 184 151 83 175 126 88 
184 151 83 240 189 96 239 168 94 238 155 87 239 168 94 239 168 94 239 168 94 237 157 111 
237 157 111 237 157 111 237 157 111 237 157 111 237 157 111 240 173 129 237 157 111 240 173 129 
237 157 111 240 173 129 240 173 129 240 173 129 240 173 129 240 173 129 237 157 111 240 205 129 
240 205 129 240 173 129 240 173 129 184 152 101 54 83 99 126 145 132 238 227 170 239 198 170 
239 198 170 225 208 211 225 208 211 242 214 215 242 214 215 239 198 170 184 151 125 189 174 152 
225 208 211 242 214 215 242 242 223 242 242 223 225 208 211 225 208 211 242 214 215 225 208 211 
225 208 211 225 208 211 242 242 223 225 208 211 239 198 170 189 174 177 189 174 177 128 159 167 
94 154 160 56 162 154 27 163 154 7 145 184 7 145 184 7 145 184 156 186 216 156 186 216 
42 156 192 7 145 184 3 89 142 7 29 75 6 8 10 0 2 2 0 3 1 0 3 1 
0 2 0 1 1 0 0 2 0 0 3 1 0 3 1 0 3 1 0 2 0 0 2 0 
0 3 1 0 3 1 2 4 2 0 2 0 0 2 0 0 5 1 0 3 1 0 3 1 
0 3 1 1 1 0 0 3 1 2 10 2 0 6 1 0 3 1 0 5 1 0 3 1 

112 112 150 198 196 136 89 107 111 7 29 75 55 83 74 89 107 111 59 95 109 40 64 95 
54 83 99 155 181 94 24 67 72 7 48 75 24 68 95 112 114 119 156 195 167 198 196 136 
25 63 109 59 95 109 86 120 88 24 56 81 24 56 95 155 154 99 54 83 99 24 41 78 
54 92 81 7 56 82 54 92 81 54 115 81 93 98 84 24 68 95 88 87 111 89 107 111 
54 92 81 54 63 80 7 41 60 4 8 47 6 27 33 7 18 45 7 18 45 7 27 52 
7 29 75 24 56 81 7 56 82 24 67 72 7 48 75 24 95 100 7 72 82 7 48 75 
7 27 52 7 27 52 7 41 60 6 34 60 7 48 75 24 56 81 40 64 95 24 68 95 
24 68 95 93 98 84 128 117 109 143 150 131 161 151 130 164 179 131 126 145 132 161 151 130 
143 150 131 143 150 131 126 145 132 88 132 154 143 150 131 147 177 131 126 145 132 88 132 124 
126 145 104 59 95 109 42 120 116 7 81 122 112 130 109 88 132 124 126 145 132 143 150 131 
126 145 132 126 145 132 126 145 104 24 68 95 7 48 95 7 48 95 27 76 117 83 125 111 
83 125 111 42 120 116 112 130 109 83 125 111 83 125 111 83 125 111 112 130 109 83 125 111 
42 120 116 63 125 116 83 125 111 63 108 116 97 125 111 97 125 111 143 150 131 143 150 131 
143 150 131 184 151 125 164 179 131 126 145 132 164 179 131 161 151 130 161 151 130 83 125 111 
7 81 122 7 96 112 7 75 102 29 95 109 126 145 104 126 145 104 155 144 112 184 151 125 
155 144 112 104 121 89 59 95 109 104 121 89 55 71 109 184 151 83 216 154 83 239 168 94 
199 169 104 216 154 83 216 154 83 203 152 81 216 154 83 239 168 94 238 155 87 238 155 87 
239 168 94 239 168 94 203 152 81 104 121 89 112 104 110 175 126 88 124 104 87 93 98 84 
55 71 109 175 126 88 239 168 94 239 168 94 175 126 88 239 168 94 239 168 94 238 155 87 
239 168 94 240 173 129 240 173 129 237 157 111 237 157 111 240 173 129 240 173 129 239 168 94 
240 173 129 240 173 129 240 173 129 240 173 129 240 173 129 240 173 129 237 157 111 240 173 129 
240 173 129 240 205 129 240 205 129 208 152 121 93 98 84 7 75 102 126 145 132 197 213 164 
210 180 169 198 212 189 225 208 211 242 242 223 225 208 211 239 198 170 239 198 170 210 180 169 
198 212 189 225 208 211 225 208 211 242 242 223 242 242 223 225 208 211 225 208 211 225 208 211 
225 208 211 225 208 211 225 208 211 242 242 223 225 208 211 239 198 170 189 174 177 189 174 152 
128 159 167 94 154 160 7 145 184 56 162 154 7 145 184 7 145 184 7 145 184 198 212 189 
197 198 212 43 185 193 7 145 184 6 120 170 6 33 96 4 8 47 0 4 3 0 0 0 
0 0 0 0 0 0 0 2 0 0 3 1 0 5 1 0 3 1 0 3 1 0 3 1 
0 3 1 0 2 0 0 11 2 0 2 0 0 3 1 0 3 1 1 3 2 0 3 1 
0 2 0 0 3 1 0 3 1 0 3 1 0 6 1 0 0 0 0 3 1 0 3 1 

126 172 135 143 150 131 97 125 111 7 56 82 24 41 78 24 56 81 155 144 90 124 130 88 
6 34 60 24 41 78 24 56 72 24 56 72 24 68 95 88 132 124 112 112 150 197 213 164 
126 145 132 27 76 117 40 64 95 7 48 75 7 29 75 93 98 84 104 121 89 24 67 72 
54 63 80 6 34 60 7 27 52 7 27 52 7 27 52 6 34 60 54 63 80 104 121 89 
7 29 75 7 41 60 7 27 52 6 27 33 6 27 33 6 27 33 7 18 45 7 34 46 
7 27 52 6 34 60 24 104 67 7 48 75 7 48 75 7 56 82 7 48 75 6 34 60 
7 34 46 7 27 52 7 27 52 6 34 60 7 48 75 24 56 81 24 68 95 7 75 102 
25 63 109 89 107 111 128 117 109 155 144 112 161 151 130 184 151 125 184 151 125 184 151 125 
155 144 112 143 150 131 161 151 130 161 151 130 161 151 130 161 151 130 88 132 124 88 132 124 
88 132 124 88 132 124 88 132 124 88 132 124 126 145 132 126 145 132 126 145 132 164 179 131 
164 179 131 126 145 104 27 76 117 59 95 109 83 125 111 63 108 116 112 130 109 126 145 104 
126 145 104 83 125 111 83 125 111 63 125 116 63 108 116 42 120 116 126 145 104 88 132 124 
83 125 111 63 108 116 83 125 111 63 108 116 97 125 111 155 144 112 164 179 131 161 151 130 
164 179 131 164 179 131 164 179 131 184 152 101 97 125 111 112 130 109 126 145 132 57 121 132 
126 145 104 97 125 111 7 81 122 29 95 109 112 130 109 199 169 104 112 130 109 159 125 108 
184 152 101 124 130 88 89 107 111 59 95 109 124 130 88 155 144 90 216 154 83 216 154 83 
239 168 94 216 154 83 216 154 83 216 154 83 184 152 101 239 168 94 239 168 94 239 168 94 
239 168 94 238 155 87 175 126 88 203 152 81 239 168 94 144 120 90 54 83 99 54 92 81 
184 151 83 216 154 83 239 168 94 240 189 96 240 189 96 237 157 111 239 168 94 239 168 94 
237 157 111 237 157 111 237 157 111 239 168 94 237 157 111 237 157 111 237 157 111 239 168 94 
237 157 111 240 173 129 240 173 129 240 173 129 240 173 129 240 173 129 237 157 111 237 157 111 
240 173 129 240 173 129 240 205 129 208 152 121 104 121 89 24 95 100 7 59 103 112 114 119 
198 196 136 189 174 152 239 198 170 225 208 211 242 214 215 225 208 211 225 208 211 198 212 189 
210 180 169 198 212 189 225 208 211 225 208 211 225 208 211 242 242 223 225 208 211 242 214 215 
210 180 169 225 208 211 242 214 215 242 214 215 242 242 223 225 208 211 210 180 169 189 174 177 
156 159 166 128 159 167 94 154 160 56 162 154 27 163 154 7 145 184 7 145 184 42 156 192 
198 212 189 198 212 189 128 189 216 43 185 193 7 145 184 7 52 116 4 8 47 1 4 6 
0 0 0 0 2 0 0 0 0 0 2 0 0 0 0 0 3 1 0 3 1 0 2 0 
0 2 0 2 4 2 0 3 1 0 3 1 0 3 1 25 6 4 10 9 2 0 2 0 
0 3 1 0 4 3 0 5 1 0 6 1 0 3 1 0 3 1 0 3 1 2 6 2 

112 112 150 143 150 131 63 108 116 24 56 95 55 83 74 7 27 52 7 29 75 124 130 88 
7 27 52 6 27 33 24 56 55 55 83 74 7 75 102 89 107 111 88 132 124 164 179 131 
198 196 136 164 179 131 83 125 111 7 56 82 6 34 60 6 34 60 7 48 75 54 92 81 
7 48 75 7 34 46 6 27 33 7 18 20 6 27 33 6 27 33 6 34 60 24 41 78 
24 56 72 24 56 55 7 27 52 7 18 45 7 34 46 7 34 46 7 34 46 7 34 46 
7 45 53 7 41 60 7 48 75 7 48 75 7 56 82 7 56 82 7 48 75 7 41 60 
6 34 60 7 27 52 6 34 60 7 41 60 24 68 95 54 83 99 59 95 109 126 145 104 
59 95 109 89 107 111 89 107 111 143 150 131 143 150 131 155 154 99 88 87 111 93 78 89 
112 104 110 159 125 108 184 151 125 161 151 130 143 150 131 112 114 119 63 108 116 58 82 117 
88 132 124 143 150 131 88 132 124 126 145 132 112 114 119 126 145 132 126 145 132 88 132 124 
89 107 111 63 108 116 112 130 109 126 145 132 147 177 131 164 179 131 88 132 124 29 95 109 
63 108 116 83 125 111 7 81 122 89 107 111 83 125 111 126 145 104 88 132 124 97 125 111 
97 125 111 63 108 116 97 125 111 155 144 112 199 169 104 112 130 109 126 145 132 155 154 99 
112 114 119 126 145 104 112 130 109 112 130 109 104 121 89 59 95 109 155 154 99 143 150 131 
126 145 132 112 130 109 155 154 99 63 108 116 155 154 99 89 107 111 83 125 111 155 154 99 
83 125 111 124 130 88 155 144 90 184 152 101 184 152 101 199 169 104 184 152 101 184 152 101 
184 152 101 216 154 83 203 152 81 239 168 94 239 168 94 239 168 94 239 168 94 238 155 87 
239 168 94 239 168 94 216 154 83 238 155 87 238 155 87 203 152 81 203 152 81 175 126 88 
184 151 83 184 152 101 239 168 94 239 168 94 239 168 94 237 157 111 239 168 94 240 189 96 
237 157 111 237 157 111 237 157 111 239 168 94 237 157 111 237 157 111 237 157 111 237 157 111 
239 168 94 237 157 111 237 157 111 240 173 129 237 157 111 240 173 129 240 173 129 237 157 111 
237 157 111 240 173 129 240 173 129 240 205 129 159 125 108 86 120 88 24 95 100 7 75 102 
89 107 111 112 114 119 198 196 136 225 208 211 225 208 211 225 208 211 225 208 211 225 208 211 
198 212 189 210 180 169 225 208 211 225 208 211 197 198 212 225 208 211 225 208 211 225 208 211 
242 214 215 225 208 211 225 208 211 225 208 211 242 242 223 242 242 223 225 208 211 239 198 170 
189 174 177 126 145 132 126 172 135 128 159 167 56 162 154 7 145 184 7 145 184 6 120 170 
42 156 192 128 189 167 198 212 189 156 186 216 43 185 193 7 145 184 3 89 142 7 29 75 
6 8 10 0 2 2 0 3 1 1 1 0 0 0 0 2 4 2 0 0 0 0 2 0 
0 3 1 0 3 1 0 5 1 0 2 0 0 2 0 0 0 0 0 3 1 2 10 2 
0 3 1 10 11 4 0 3 1 0 5 1 0 6 1 0 3 1 0 2 0 0 6 1 

147 177 131 112 112 150 126 172 135 55 71 109 54 92 81 93 98 84 24 56 81 93 98 84 
6 34 60 6 27 33 7 27 52 24 67 72 24 56 95 59 95 109 58 82 117 63 108 116 
58 82 117 143 150 131 164 179 131 25 63 109 7 48 95 7 29 75 7 41 60 24 67 72 
24 56 55 7 34 46 6 27 33 6 27 33 6 27 33 7 34 46 55 83 74 24 41 78 
104 121 89 7 29 75 24 56 55 7 27 52 6 27 33 7 34 46 7 34 46 7 34 46 
7 45 53 7 41 60 7 48 75 7 56 82 7 29 75 7 48 75 7 29 75 6 34 60 
7 29 75 7 48 75 7 29 75 7 48 95 104 121 89 126 145 104 63 108 116 126 145 132 
89 107 111 54 83 99 89 107 111 97 125 111 63 108 116 54 83 99 7 48 75 7 48 75 
40 64 95 59 95 109 89 107 111 89 107 111 89 107 111 54 83 99 59 95 109 126 145 104 
143 150 131 164 179 131 143 150 131 88 132 124 88 132 124 88 132 124 126 172 135 126 145 132 
58 82 117 126 145 104 143 150 131 88 132 124 88 132 124 88 132 124 59 95 109 25 63 109 
54 83 99 24 68 95 29 95 109 112 130 109 88 132 124 126 145 132 126 145 132 63 108 116 
42 120 116 27 76 117 83 125 111 97 125 111 112 130 109 83 125 111 112 130 109 97 125 111 
97 125 111 59 95 109 7 59 103 7 48 95 24 68 95 29 95 109 83 125 111 126 145 132 
199 197 101 199 169 104 155 154 99 97 125 111 112 130 109 112 130 109 97 125 111 199 169 104 
184 152 101 88 87 111 128 117 109 199 169 104 184 152 101 155 144 90 184 152 101 128 117 109 
155 144 90 216 154 83 216 154 83 216 154 83 239 168 94 239 168 94 239 168 94 238 155 87 
216 154 83 238 155 87 239 168 94 238 155 87 239 168 94 239 168 94 175 126 88 239 168 94 
239 168 94 239 168 94 216 154 83 238 155 87 239 168 94 239 168 94 239 168 94 240 189 96 
239 168 94 237 157 111 239 168 94 237 157 111 237 157 111 239 168 94 237 157 111 239 168 94 
237 157 111 237 157 111 240 173 129 240 173 129 240 173 129 240 173 129 240 173 129 239 168 94 
237 157 111 237 157 111 240 173 129 240 173 129 237 157 111 155 144 112 124 130 88 86 120 88 
7 75 102 7 75 102 161 151 130 198 212 189 225 208 211 225 208 211 225 208 211 225 208 211 
225 208 211 210 180 169 198 212 189 225 208 211 225 208 211 197 198 212 225 208 211 225 208 211 
242 242 223 242 214 215 225 208 211 225 208 211 225 208 211 242 242 223 242 242 223 225 208 211 
239 198 170 189 174 177 156 159 166 156 159 166 94 154 160 27 163 154 7 145 184 6 120 170 
7 145 184 7 145 184 42 156 192 198 212 189 197 198 212 93 191 199 6 201 200 7 113 146 
6 33 96 7 18 20 0 2 2 0 3 1 0 2 0 0 2 0 0 2 0 0 0 0 
0 3 1 0 6 1 0 5 1 2 6 2 1 1 0 0 2 0 0 5 1 0 6 1 
0 3 1 0 3 1 0 3 1 0 3 1 2 10 2 0 5 1 0 5 1 0 3 1 

126 172 135 127 116 140 143 150 131 199 197 101 7 52 116 86 120 88 7 48 75 55 83 74 
7 41 43 6 27 33 7 34 46 24 67 72 86 120 88 59 95 109 63 108 116 29 95 109 
24 68 95 54 83 99 112 114 119 155 154 99 155 181 94 126 145 104 24 41 78 7 29 75 
7 41 60 7 34 46 7 34 46 6 27 33 7 34 46 24 56 55 86 120 88 7 48 95 
86 120 88 7 48 75 55 83 74 6 34 60 7 27 52 7 34 46 7 34 46 7 27 52 
7 27 52 7 41 60 24 68 95 89 107 111 83 125 111 40 64 95 24 68 95 7 48 75 
7 56 82 54 92 81 104 121 89 97 125 111 128 117 109 97 125 111 27 76 117 89 107 111 
93 98 84 24 56 95 24 68 95 24 68 95 40 64 95 7 29 75 7 48 75 7 48 75 
7 56 82 7 59 103 7 59 103 7 59 103 7 59 103 24 68 95 29 95 109 88 132 124 
57 82 141 88 132 124 126 145 132 89 107 111 63 108 116 112 130 109 88 132 124 143 150 131 
143 150 131 126 145 132 88 100 145 43 121 139 63 108 116 29 95 109 42 120 116 63 108 116 
126 145 104 27 76 117 63 125 116 88 132 124 88 132 124 126 145 132 63 108 116 29 95 109 
63 108 116 112 130 109 83 125 111 29 95 109 63 108 116 83 125 111 112 130 109 112 130 109 
63 108 116 7 75 102 24 95 100 7 75 102 54 92 81 29 95 109 83 125 111 59 95 109 
112 130 109 155 144 112 97 125 111 59 95 109 63 108 116 128 117 109 184 152 101 199 169 104 
199 169 104 199 169 104 216 154 83 184 152 101 184 152 101 144 120 90 128 117 109 155 144 90 
175 126 88 216 154 83 239 168 94 239 168 94 238 155 87 238 155 87 238 155 87 238 155 87 
175 126 88 216 154 83 239 168 94 239 168 94 239 168 94 239 168 94 239 168 94 216 154 83 
239 168 94 239 168 94 238 155 87 216 154 83 237 157 111 237 157 111 237 157 111 239 168 94 
239 168 94 239 168 94 216 154 83 237 157 111 239 168 94 239 168 94 237 157 111 237 157 111 
237 157 111 237 157 111 240 173 129 237 157 111 240 173 129 240 173 129 240 173 129 240 173 129 
237 157 111 237 157 111 240 173 129 240 173 129 240 173 129 237 157 111 184 152 101 184 152 101 
89 107 111 24 95 100 112 130 109 239 198 170 225 208 211 225 208 211 225 208 211 225 208 211 
225 208 211 225 208 211 225 208 211 225 208 211 225 208 211 225 208 211 225 208 211 225 208 211 
225 208 211 225 208 211 242 242 223 225 208 211 225 208 211 225 208 211 242 214 215 242 242 223 
225 208 211 239 198 170 210 180 169 156 159 166 143 150 131 27 121 132 6 120 170 7 145 184 
7 145 184 7 145 184 6 120 170 42 156 192 156 186 216 197 198 212 93 191 199 7 145 184 
7 145 184 7 59 103 4 8 47 1 4 4 0 0 0 0 2 0 0 3 1 0 0 0 
0 2 0 0 3 1 3 1 1 0 3 1 0 3 1 0 3 1 0 3 1 0 0 0 
2 4 2 0 3 1 0 3 1 0 2 0 0 5 1 0 3 1 25 6 4 0 5 1 

126 145 132 147 177 131 58 82 117 112 114 119 155 181 94 54 92 81 6 34 60 7 18 45 
6 27 33 6 27 33 7 27 52 55 83 74 63 108 116 88 100 145 63 108 116 27 76 117 
7 56 82 54 63 80 54 92 81 40 64 95 59 95 109 155 144 112 199 197 101 55 71 109 
7 29 75 6 34 60 6 34 60 6 34 60 7 41 60 7 29 75 86 120 88 54 92 81 
7 29 75 7 29 75 6 34 60 7 41 60 7 34 46 7 34 46 7 34 46 6 34 60 
6 34 60 54 63 80 89 107 111 88 100 145 161 151 130 97 125 111 83 125 111 25 63 109 
6 33 96 88 87 111 144 120 90 88 87 111 59 95 109 54 83 99 104 121 89 40 64 95 
7 29 75 7 48 75 7 48 75 7 29 75 7 48 75 7 48 75 7 48 75 7 72 82 
7 59 103 7 75 102 7 96 112 7 75 102 7 59 103 29 95 109 83 125 111 88 132 124 
57 82 141 83 125 111 143 150 131 97 125 111 59 95 109 97 125 111 63 108 116 164 179 131 
164 179 131 126 145 132 143 150 131 126 145 104 57 121 132 83 125 111 29 95 109 57 82 141 
88 132 124 88 132 124 88 132 124 88 132 124 57 121 132 143 150 131 63 108 116 88 132 124 
97 125 111 112 130 109 7 59 103 7 56 82 24 95 100 29 95 109 88 132 124 126 145 132 
126 145 104 29 95 109 83 125 111 63 108 116 59 95 109 59 95 109 83 125 111 126 145 104 
112 130 109 155 144 90 88 87 111 124 130 88 184 151 83 112 130 109 155 154 99 199 169 104 
199 169 104 199 169 104 184 152 101 184 152 101 184 152 101 155 144 90 184 151 83 184 152 101 
239 168 94 216 154 83 216 154 83 203 152 81 216 154 83 238 155 87 238 155 87 203 152 81 
216 154 83 203 152 81 239 168 94 238 155 87 159 125 108 216 154 83 239 168 94 239 168 94 
239 168 94 237 157 111 239 168 94 216 154 83 239 168 94 239 168 94 239 168 94 239 168 94 
237 157 111 239 168 94 216 154 83 237 157 111 239 168 94 239 168 94 237 157 111 239 168 94 
237 157 111 237 157 111 237 157 111 237 157 111 240 173 129 237 157 111 240 173 129 240 173 129 
240 173 129 237 157 111 240 173 129 240 173 129 240 173 129 240 173 129 240 173 129 208 152 121 
199 169 104 59 95 109 7 75 102 164 179 131 225 208 211 225 208 211 225 208 211 225 208 211 
225 208 211 225 208 211 225 208 211 225 208 211 225 208 211 225 208 211 225 208 211 225 208 211 
225 208 211 225 208 211 225 208 211 225 208 211 225 208 211 225 208 211 225 208 211 225 208 211 
242 214 215 225 208 211 239 198 170 189 174 152 161 151 130 126 145 132 43 121 139 6 120 170 
6 120 170 7 145 184 7 145 184 7 145 184 7 145 184 156 186 216 198 212 189 128 189 216 
43 185 193 7 145 184 7 73 121 4 8 47 1 4 6 0 0 0 0 3 1 0 2 0 
0 2 0 0 0 0 0 3 1 3 1 1 0 3 1 0 2 0 0 0 0 1 1 0 
1 3 2 0 3 1 0 2 0 0 3 1 0 6 1 0 5 1 0 6 1 0 3 1 

55 71 109 126 145 104 59 95 109 126 145 104 161 151 130 86 120 88 6 34 60 6 27 33 
6 27 28 53 43 37 55 83 74 24 56 72 59 95 109 143 150 131 198 196 136 89 107 111 
40 64 95 54 63 80 40 64 95 24 56 95 6 33 96 25 63 109 164 179 131 147 177 131 
126 145 104 104 121 89 60 64 95 93 98 84 93 98 84 40 64 95 155 154 99 55 71 109 
24 67 72 24 67 72 24 67 72 7 48 75 7 41 60 7 41 60 6 34 60 6 34 60 
54 63 80 88 87 111 164 179 131 184 151 125 184 151 125 112 114 119 112 104 110 159 125 108 
155 144 112 128 117 109 93 78 89 54 83 99 59 95 109 24 68 95 24 56 95 124 130 88 
24 67 72 24 67 72 7 48 75 7 48 75 7 48 75 24 56 81 24 68 95 24 68 95 
7 75 102 7 75 102 7 75 102 59 95 109 54 83 99 7 59 103 89 107 111 88 132 124 
126 145 132 89 107 111 112 114 119 164 179 131 27 76 117 89 107 111 59 95 109 88 132 124 
147 177 131 57 121 132 89 107 111 29 95 109 97 125 111 63 125 116 83 125 111 164 179 131 
126 172 135 126 145 132 126 145 132 88 132 124 112 130 109 112 130 109 63 108 116 63 108 116 
42 120 116 42 120 116 7 48 95 7 29 75 7 75 102 83 125 111 143 150 131 155 154 99 
155 144 112 89 107 111 126 145 104 184 152 101 184 152 101 159 125 108 155 144 112 155 144 112 
155 154 99 159 125 108 126 145 104 63 108 116 112 130 109 155 154 99 155 144 112 199 169 104 
184 152 101 184 152 101 155 144 112 155 144 112 216 154 83 184 152 101 184 152 101 184 152 101 
199 169 104 184 152 101 216 154 83 216 154 83 216 154 83 238 155 87 238 155 87 203 152 81 
216 154 83 216 154 83 175 126 88 216 154 83 184 152 101 239 168 94 239 168 94 239 168 94 
239 168 94 239 168 94 239 168 94 239 168 94 239 168 94 216 154 83 216 154 83 239 168 94 
239 168 94 216 154 83 216 154 83 216 154 83 237 157 111 237 157 111 237 157 111 239 168 94 
237 157 111 237 157 111 239 168 94 208 152 121 240 173 129 237 157 111 240 173 129 240 173 129 
240 173 129 240 173 129 240 173 129 240 173 129 240 173 129 240 173 129 240 173 129 240 173 129 
240 189 96 144 120 90 7 75 102 63 108 116 197 213 164 242 214 215 225 208 211 225 208 211 
242 214 215 225 208 211 225 208 211 225 208 211 225 208 211 225 208 211 210 180 169 210 180 169 
225 208 211 242 214 215 225 208 211 225 208 211 225 208 211 225 208 211 242 214 215 242 214 215 
225 208 211 225 208 211 225 208 211 239 198 170 210 180 169 189 174 152 126 145 132 7 113 146 
7 113 146 6 120 170 7 145 184 27 163 154 7 145 184 7 145 184 128 189 167 198 212 189 
156 186 216 43 185 193 7 145 184 7 99 141 4 8 47 1 8 8 0 2 0 0 2 0 
0 0 0 0 2 0 0 0 0 0 3 1 0 2 0 0 0 0 0 2 0 0 2 0 
0 3 1 0 2 0 0 6 1 0 3 1 0 3 1 0 6 1 0 2 0 0 3 1 

54 83 99 89 107 111 40 64 95 55 71 109 126 145 104 54 63 80 7 34 46 6 27 33 
6 27 33 24 40 47 93 98 84 7 48 75 7 29 75 143 150 131 198 196 136 89 107 111 
54 83 99 93 98 84 104 121 89 126 145 104 63 108 116 89 107 111 128 117 109 89 107 111 
128 117 109 184 152 101 128 117 109 155 144 112 155 144 112 112 114 119 199 197 101 88 87 111 
24 68 95 54 83 99 54 83 99 24 68 95 54 92 81 54 83 99 55 83 74 24 56 81 
54 63 80 112 130 109 164 179 131 161 151 130 128 117 109 128 117 109 124 104 87 159 125 108 
155 144 112 155 154 99 59 95 109 155 154 99 199 197 101 126 145 104 7 48 95 24 56 81 
24 56 81 54 63 80 54 83 99 88 87 111 93 98 84 59 95 109 112 104 110 83 125 111 
89 107 111 54 83 99 59 95 109 29 95 109 104 121 89 24 68 95 59 95 109 126 145 132 
126 145 132 59 95 109 7 48 95 155 181 94 83 125 111 24 95 100 63 108 116 27 76 117 
97 125 111 42 120 116 7 59 103 54 83 99 63 108 116 7 59 103 89 107 111 58 82 117 
88 132 124 88 132 124 63 108 116 27 76 117 63 108 116 27 76 117 97 125 111 43 121 139 
88 132 124 59 95 109 7 48 95 7 56 82 7 59 103 59 95 109 155 154 99 112 130 109 
128 117 109 155 144 90 126 145 104 199 169 104 199 169 104 184 152 101 155 144 112 184 151 125 
199 169 104 199 169 104 184 152 101 155 154 99 126 145 104 128 117 109 184 152 101 155 144 112 
184 152 101 184 152 101 184 152 101 184 152 101 184 152 101 184 152 101 184 151 83 128 117 109 
184 152 101 216 154 83 203 152 81 216 154 83 216 154 83 238 155 87 239 168 94 238 155 87 
184 152 101 199 169 104 184 151 83 175 126 88 216 154 83 239 168 94 237 157 111 239 168 94 
239 168 94 239 168 94 239 168 94 239 168 94 239 168 94 239 168 94 238 155 87 216 154 83 
216 154 83 216 154 83 216 154 83 199 169 104 199 169 104 216 154 83 216 154 83 216 154 83 
238 155 87 216 154 83 239 168 94 239 168 94 237 157 111 237 157 111 240 173 129 240 173 129 
240 173 129 240 173 129 240 173 129 240 173 129 240 173 129 240 173 129 240 173 129 240 173 129 
237 157 111 184 152 101 54 83 99 7 75 102 143 150 131 238 227 170 242 214 215 242 214 215 
225 208 211 242 242 223 242 214 215 225 208 211 225 208 211 225 208 211 239 198 170 210 180 169 
189 174 177 225 208 211 225 208 211 225 208 211 225 208 211 225 208 211 225 208 211 242 214 215 
225 208 211 225 208 211 242 242 223 239 198 170 239 198 170 210 180 169 189 174 152 88 132 154 
6 99 150 7 113 146 6 120 170 7 145 184 7 145 184 7 145 184 7 145 184 156 195 167 
198 212 189 156 186 216 93 191 199 6 201 200 7 113 146 6 33 96 6 8 10 0 2 0 
0 0 0 0 2 0 0 0 0 0 3 1 0 0 0 0 2 0 0 2 0 0 2 0 
0 3 1 24 23 9 0 2 0 0 2 0 0 3 1 0 3 1 0 2 0 0 5 1 

54 63 80 54 83 99 7 48 95 89 107 111 112 130 109 24 56 81 7 41 60 7 34 46 
6 27 33 7 45 53 24 56 81 24 67 72 6 33 96 128 117 109 164 179 131 63 108 116 
54 83 99 24 68 95 60 64 95 155 144 112 198 170 136 126 145 132 126 145 104 126 145 104 
88 87 111 112 104 110 40 64 95 89 107 111 161 151 130 127 116 140 198 196 136 88 87 111 
54 83 99 54 83 99 54 83 99 59 95 109 59 95 109 89 107 111 93 78 89 54 92 81 
40 64 95 112 130 109 89 107 111 89 107 111 54 83 99 40 64 95 24 56 81 7 48 95 
40 64 95 88 87 111 83 125 111 58 82 117 127 116 140 198 196 136 7 59 103 7 29 75 
24 68 95 93 98 84 112 104 110 112 104 110 128 117 109 126 145 104 155 144 112 128 117 109 
112 104 110 54 83 99 24 56 95 7 29 75 7 48 75 24 68 95 54 83 99 112 130 109 
89 107 111 7 48 95 6 33 96 54 83 99 40 64 95 7 48 95 54 115 81 7 75 102 
24 68 95 7 48 95 7 75 102 24 95 100 7 59 103 7 48 95 7 56 82 7 75 102 
83 125 111 83 125 111 63 108 116 25 63 109 29 95 109 88 132 124 164 179 131 126 145 132 
88 132 124 7 73 121 7 48 95 7 56 82 7 48 95 54 83 99 126 145 104 126 145 104 
155 144 90 184 152 101 184 152 101 184 152 101 184 152 101 155 144 112 155 154 99 155 144 112 
199 169 104 199 169 104 155 154 99 184 152 101 155 144 112 199 169 104 184 151 125 155 144 112 
155 144 112 155 154 99 155 144 112 216 154 83 184 152 101 199 169 104 184 151 83 155 144 90 
144 120 90 184 152 101 199 169 104 239 168 94 239 168 94 216 154 83 239 168 94 239 168 94 
184 152 101 199 169 104 216 154 83 203 152 81 184 152 101 239 168 94 239 168 94 239 168 94 
239 168 94 239 168 94 239 168 94 216 154 83 237 157 111 199 169 104 216 154 83 216 154 83 
216 154 83 216 154 83 216 154 83 208 152 121 216 154 83 216 154 83 216 154 83 239 168 94 
237 157 111 239 168 94 239 168 94 239 168 94 240 173 129 240 173 129 240 173 129 240 173 129 
240 173 129 240 173 129 240 173 129 240 173 129 240 173 129 240 173 129 240 173 129 240 173 129 
240 173 129 237 157 111 124 104 87 24 95 100 27 76 117 198 170 136 239 198 170 225 208 211 
242 214 215 242 242 223 225 208 211 225 208 211 210 180 169 225 208 211 225 208 211 210 180 169 
239 198 170 210 180 169 225 208 211 225 208 211 225 208 211 225 208 211 225 208 211 242 214 215 
242 214 215 225 208 211 242 214 215 242 242 223 210 180 169 210 180 169 189 174 152 126 145 132 
57 121 132 7 113 146 7 113 146 6 120 170 6 120 170 6 120 170 7 145 184 42 156 192 
198 212 189 225 208 211 156 186 216 93 191 199 43 185 193 6 120 170 7 48 95 4 8 47 
1 1 2 0 2 0 0 0 0 0 0 0 0 0 0 0 0 0 0 3 1 0 0 0 
0 3 1 0 3 1 0 2 0 0 3 1 0 3 1 0 3 1 0 3 1 0 3 1 

7 41 60 24 67 72 7 48 75 93 78 89 126 145 104 40 64 95 24 56 55 7 34 46 
7 34 46 7 41 60 86 120 88 89 107 111 59 95 109 88 132 124 161 151 130 83 125 111 
40 64 95 24 68 95 7 48 95 24 56 95 184 152 101 199 169 104 155 144 112 128 117 109 
55 71 109 104 121 89 40 64 95 88 87 111 112 114 119 112 114 119 199 197 101 112 114 119 
59 95 109 54 83 99 59 95 109 54 83 99 54 83 99 93 98 84 93 78 89 24 56 81 
54 83 99 25 63 109 24 68 95 40 64 95 7 56 82 7 48 75 7 48 75 7 41 60 
7 48 75 54 92 81 88 87 111 89 107 111 57 82 141 164 179 131 112 130 109 55 71 109 
59 95 109 112 104 110 128 117 109 128 117 109 112 114 119 126 145 104 128 117 109 89 107 111 
128 117 109 54 92 81 7 29 75 7 29 75 6 34 60 7 29 75 40 64 95 24 95 100 
24 68 95 24 56 81 7 56 82 7 48 75 7 48 75 7 48 75 7 48 75 7 29 75 
7 56 82 7 48 75 7 75 102 24 95 100 24 68 95 7 48 75 7 48 75 7 48 75 
7 59 103 59 95 109 27 76 117 59 95 109 83 125 111 126 145 132 198 196 136 126 145 132 
88 132 124 29 95 109 7 75 102 7 59 103 7 48 95 29 95 109 89 107 111 59 95 109 
89 107 111 184 152 101 155 144 112 155 154 99 155 144 90 155 144 112 155 144 90 112 130 109 
97 125 111 155 154 99 155 154 99 184 152 101 155 144 112 184 152 101 184 151 125 155 154 99 
155 144 112 126 145 104 89 107 111 55 71 109 59 95 109 128 117 109 27 76 117 155 144 90 
184 152 101 155 144 90 184 152 101 184 152 101 239 168 94 216 154 83 199 169 104 184 152 101 
199 169 104 144 120 90 155 144 90 216 154 83 184 152 101 239 168 94 238 155 87 239 168 94 
239 168 94 238 155 87 238 155 87 199 169 104 239 168 94 216 154 83 203 152 81 203 152 81 
239 168 94 239 168 94 237 157 111 237 157 111 237 157 111 184 152 101 216 154 83 237 157 111 
237 157 111 208 152 121 237 157 111 239 168 94 237 157 111 240 173 129 240 173 129 237 157 111 
239 168 94 240 173 129 240 173 129 237 157 111 240 173 129 240 173 129 240 173 129 240 173 129 
240 173 129 240 189 96 175 126 88 54 92 81 7 75 102 58 82 117 198 196 136 225 208 211 
242 214 215 242 242 223 242 214 215 225 208 211 225 208 211 225 208 211 225 208 211 225 208 211 
210 180 169 225 208 211 225 208 211 225 208 211 225 208 211 242 214 215 242 214 215 225 208 211 
242 214 215 225 208 211 225 208 211 225 208 211 242 214 215 210 180 169 210 180 169 161 151 130 
57 121 132 7 99 141 7 99 141 7 113 146 7 113 146 6 120 170 6 120 170 7 145 184 
42 156 192 198 212 189 225 208 211 156 186 216 93 191 199 43 185 193 7 145 184 7 59 103 
4 8 47 1 4 4 0 3 1 0 0 0 0 0 0 0 2 0 0 0 0 0 2 0 
0 2 0 0 3 1 0 3 1 0 2 0 0 2 0 10 9 2 0 2 0 0 3 1 

7 45 53 7 41 60 7 41 60 24 56 81 54 92 81 7 56 82 7 45 53 6 27 33 
6 27 33 7 27 52 93 78 89 112 130 109 88 132 124 88 100 145 112 114 119 59 95 109 
40 64 95 104 121 89 104 121 89 24 56 95 7 48 95 24 56 95 88 87 111 104 121 89 
93 98 84 59 95 109 54 83 99 54 83 99 155 154 99 126 145 132 112 114 119 88 87 111 
54 83 99 54 83 99 24 68 95 24 68 95 24 67 72 7 29 75 6 34 60 7 29 75 
24 68 95 63 108 116 29 95 109 7 56 82 7 56 82 7 48 75 7 48 75 7 48 75 
7 48 75 54 63 80 60 64 95 155 144 112 112 114 119 198 170 136 198 170 136 128 117 109 
112 104 110 112 104 110 112 104 110 112 114 119 112 104 110 89 107 111 97 125 111 126 145 104 
54 83 99 7 59 103 7 56 82 7 48 75 6 34 60 7 48 75 7 56 82 7 48 75 
7 48 75 24 56 72 7 29 75 6 34 60 6 34 60 6 34 60 7 48 75 7 48 75 
7 56 82 7 59 103 7 75 102 7 48 95 7 48 75 7 29 75 6 34 60 7 48 75 
24 95 100 7 73 121 63 125 116 83 125 111 89 107 111 59 95 109 155 144 112 161 151 130 
126 145 132 63 108 116 7 48 95 7 59 103 63 108 116 97 125 111 112 130 109 29 95 109 
7 96 112 89 107 111 184 152 101 199 169 104 155 144 112 112 130 109 144 120 90 126 145 104 
155 154 99 126 145 104 128 117 109 126 145 104 155 154 99 155 144 112 126 145 132 155 144 112 
112 130 109 89 107 111 124 130 88 124 130 88 155 144 90 203 152 81 144 120 90 184 152 101 
239 168 94 184 152 101 184 152 101 184 152 101 239 168 94 239 168 94 184 152 101 155 144 90 
184 152 101 199 169 104 155 144 90 93 98 84 203 152 81 239 168 94 239 168 94 239 168 94 
216 154 83 203 152 81 184 152 101 199 169 104 239 168 94 184 152 101 203 152 81 216 154 83 
199 169 104 237 157 111 239 168 94 240 173 129 237 157 111 216 154 83 216 154 83 239 168 94 
240 189 96 240 189 96 239 168 94 239 168 94 239 168 94 240 173 129 237 157 111 237 157 111 
237 157 111 240 173 129 240 173 129 239 168 94 237 157 111 240 173 129 240 173 129 240 173 129 
240 173 129 240 173 129 237 157 111 59 95 109 7 75 102 7 75 102 63 108 116 197 213 164 
225 208 211 242 214 215 242 242 223 242 242 223 225 208 211 225 208 211 225 208 211 242 214 215 
239 198 170 198 212 189 225 208 211 225 208 211 225 208 211 225 208 211 225 208 211 242 214 215 
225 208 211 225 208 211 242 214 215 242 214 215 242 214 215 225 208 211 210 180 169 189 174 152 
88 132 154 7 126 130 7 113 146 6 99 150 7 113 146 7 113 146 7 113 146 6 120 170 
7 145 184 42 156 192 128 189 216 225 208 211 156 186 216 128 189 216 43 185 193 7 145 184 
7 73 121 4 8 47 1 8 8 0 0 0 0 2 0 0 0 0 9 2 2 2 4 2 
4 5 4 0 2 0 0 0 0 0 3 1 0 3 1 0 3 1 0 3 1 0 3 1 

7 41 43 7 45 53 24 56 72 24 56 72 7 48 75 7 41 60 7 34 46 6 27 33 
6 27 33 7 34 46 24 41 78 89 107 111 88 100 145 112 114 119 89 107 111 58 82 117 
54 83 99 89 107 111 58 82 117 54 92 81 40 64 95 93 98 84 24 56 81 7 48 75 
24 41 78 40 64 95 93 98 84 55 71 109 159 125 108 240 189 96 58 82 117 88 87 111 
104 121 89 54 83 99 24 68 95 7 56 82 7 48 75 7 29 75 7 48 75 7 56 82 
54 83 99 89 107 111 24 68 95 7 56 82 7 56 82 24 56 81 7 56 82 6 34 60 
7 41 60 24 67 72 24 56 81 144 120 90 155 144 112 184 151 125 198 170 136 199 169 104 
128 117 109 124 104 87 128 117 109 89 107 111 59 95 109 59 95 109 58 82 117 55 71 109 
7 48 95 7 56 82 24 67 72 7 56 82 7 41 60 7 48 75 7 48 75 7 48 75 
7 72 82 7 48 75 6 34 60 6 34 60 7 48 75 7 48 75 7 59 103 7 75 102 
7 75 102 54 83 99 24 95 100 7 75 102 7 56 82 7 48 75 7 48 75 7 56 82 
59 95 109 97 125 111 112 130 109 54 83 99 24 68 95 63 108 116 155 144 112 164 179 131 
126 145 132 89 107 111 7 59 103 7 75 102 155 154 99 199 197 101 199 169 104 112 130 109 
29 95 109 112 130 109 199 169 104 199 169 104 155 144 112 112 104 110 29 95 109 97 125 111 
126 145 104 112 130 109 155 144 112 155 144 112 184 152 101 184 152 101 199 169 104 112 104 110 
184 151 83 184 152 101 199 169 104 128 117 109 112 130 109 199 169 104 184 151 83 155 144 90 
155 144 112 184 152 101 184 152 101 155 144 90 155 144 112 199 169 104 239 168 94 184 152 101 
199 169 104 216 154 83 175 126 88 7 48 95 144 120 90 239 168 94 216 154 83 216 154 83 
216 154 83 239 168 94 239 168 94 199 169 104 216 154 83 184 152 101 203 152 81 216 154 83 
216 154 83 237 157 111 237 157 111 208 152 121 239 168 94 184 152 101 184 152 101 216 154 83 
237 157 111 239 168 94 239 168 94 239 168 94 237 157 111 237 157 111 240 173 129 239 168 94 
237 157 111 237 157 111 237 157 111 239 168 94 240 173 129 240 173 129 240 173 129 240 173 129 
240 173 129 240 173 129 240 189 96 159 125 108 7 75 102 7 72 82 7 75 102 143 150 131 
239 198 170 225 208 211 242 214 215 242 242 223 225 208 211 225 208 211 225 208 211 242 214 215 
225 208 211 225 208 211 225 208 211 225 208 211 225 208 211 225 208 211 225 208 211 225 208 211 
225 208 211 242 214 215 225 208 211 225 208 211 242 214 215 225 208 211 225 208 211 210 180 169 
189 174 152 88 132 154 27 163 154 43 121 139 6 99 150 7 113 146 6 120 170 6 99 150 
6 99 150 7 145 184 7 145 184 128 189 216 198 212 189 156 186 216 128 189 216 43 185 193 
7 145 184 7 99 141 7 29 75 1 8 8 0 3 1 0 2 0 0 2 0 0 2 0 
3 1 1 0 3 1 0 2 0 1 3 2 0 2 0 0 2 0 0 3 1 0 3 1 

7 27 52 7 41 60 24 56 72 54 92 81 7 56 82 6 34 60 6 27 33 6 27 33 
6 27 33 6 27 33 24 67 72 89 107 111 83 125 111 89 107 111 112 130 109 112 130 109 
89 107 111 97 125 111 88 87 111 54 83 99 40 64 95 24 68 95 24 56 72 7 41 60 
7 41 60 54 63 80 93 98 84 88 87 111 199 197 101 164 179 131 88 87 111 112 104 110 
128 117 109 88 87 111 24 68 95 7 48 95 24 56 95 7 48 95 24 68 95 86 120 88 
88 87 111 112 104 110 25 63 109 24 68 95 24 67 72 7 56 82 7 56 82 7 48 75 
7 41 60 7 48 75 24 56 72 60 64 95 159 125 108 155 144 112 127 116 140 128 117 109 
88 87 111 93 98 84 112 104 110 112 104 110 124 104 87 128 117 109 184 152 101 128 117 109 
93 98 84 7 48 75 7 29 75 7 48 75 7 56 82 7 56 82 7 56 82 24 68 95 
24 68 95 7 29 75 6 34 60 7 48 75 7 48 95 59 95 109 83 125 111 63 108 116 
59 95 109 63 108 116 29 95 109 7 59 103 7 48 95 7 56 82 7 75 102 24 95 100 
63 108 116 63 108 116 86 120 88 6 33 96 7 48 95 63 108 116 126 145 104 155 144 112 
155 144 112 155 144 112 112 130 109 97 125 111 88 132 124 147 177 131 199 169 104 240 189 96 
184 152 101 89 107 111 63 108 116 155 144 112 155 144 112 155 154 99 89 107 111 112 130 109 
155 144 112 184 152 101 184 152 101 184 152 101 155 154 99 126 145 104 184 151 83 59 95 109 
59 95 109 88 87 111 126 145 104 126 145 104 155 154 99 112 130 109 89 107 111 184 152 101 
184 152 101 184 152 101 184 152 101 199 169 104 184 152 101 184 152 101 199 169 104 199 169 104 
155 144 112 216 154 83 239 168 94 144 120 90 144 120 90 239 168 94 216 154 83 175 126 88 
203 152 81 184 152 101 238 155 87 216 154 83 184 152 101 184 152 101 184 152 101 184 152 101 
208 152 121 239 168 94 237 157 111 159 125 108 199 169 104 239 168 94 239 168 94 199 169 104 
237 157 111 239 168 94 239 168 94 238 155 87 238 155 87 237 157 111 239 168 94 237 157 111 
237 157 111 237 157 111 237 157 111 237 157 111 240 173 129 237 157 111 240 173 129 240 173 129 
240 173 129 240 173 129 240 173 129 239 168 94 89 107 111 7 75 102 7 59 103 29 95 109 
189 174 152 239 198 170 242 214 215 225 208 211 242 214 215 225 208 211 225 208 211 225 208 211 
242 242 223 242 214 215 225 208 211 225 208 211 198 212 189 225 208 211 198 212 189 225 208 211 
242 214 215 225 208 211 242 242 223 242 242 223 225 208 211 225 208 211 225 208 211 225 208 211 
210 180 169 189 174 152 88 132 154 94 154 160 94 154 160 6 99 150 7 113 146 7 113 146 
6 99 150 6 120 170 7 145 184 7 145 184 128 189 167 198 212 189 156 186 216 128 189 216 
93 161 196 7 145 184 7 113 146 7 29 75 6 8 10 0 2 2 0 2 0 0 3 1 
0 3 1 3 1 1 2 6 2 1 1 0 2 4 2 0 3 1 0 3 1 0 3 1 

7 45 53 7 41 60 24 56 72 104 121 89 97 125 111 7 48 75 7 34 46 7 35 30 
7 35 30 6 27 33 7 27 52 54 92 81 54 83 99 7 48 75 7 29 75 112 104 110 
88 87 111 89 107 111 104 121 89 54 83 99 24 56 81 24 67 72 7 41 60 7 45 53 
24 56 55 24 56 72 93 78 89 112 104 110 161 151 130 161 151 130 88 87 111 88 87 111 
89 107 111 59 95 109 59 95 109 29 95 109 88 87 111 184 152 101 184 152 101 58 82 117 
88 87 111 126 145 104 155 144 112 83 125 111 7 56 82 7 29 75 7 29 75 24 56 72 
24 56 81 24 56 81 60 64 95 124 104 87 159 125 108 155 144 112 155 144 112 126 145 104 
89 107 111 40 64 95 89 107 111 112 104 110 88 87 111 97 125 111 112 114 119 112 104 110 
93 78 89 7 48 75 7 48 75 7 48 95 54 83 99 7 59 103 7 59 103 29 95 109 
7 48 95 7 56 82 7 48 95 7 59 103 63 125 116 126 145 104 128 117 109 112 114 119 
112 104 110 89 107 111 63 108 116 7 73 121 7 75 102 7 59 103 29 95 109 83 125 111 
55 71 109 7 59 103 6 33 96 7 48 95 54 83 99 126 145 104 155 144 112 155 144 112 
112 130 109 199 169 104 240 189 96 112 114 119 63 108 116 63 108 116 25 63 109 89 107 111 
184 152 101 199 197 101 155 144 90 155 144 112 199 169 104 184 152 101 184 152 101 184 152 101 
155 144 112 155 144 112 155 144 112 155 144 90 155 144 90 58 82 117 89 107 111 27 76 117 
112 130 109 155 144 90 89 107 111 124 130 88 112 130 109 155 144 112 126 145 104 97 125 111 
155 144 112 184 152 101 240 189 96 199 169 104 199 169 104 184 152 101 184 152 101 184 152 101 
184 152 101 184 152 101 203 152 81 184 151 83 155 144 90 199 169 104 216 154 83 203 152 81 
216 154 83 216 154 83 216 154 83 216 154 83 175 126 88 184 152 101 184 152 101 184 152 101 
199 169 104 237 157 111 239 168 94 184 152 101 184 152 101 237 157 111 239 168 94 216 154 83 
199 169 104 239 168 94 239 168 94 216 154 83 184 152 101 237 157 111 237 157 111 237 157 111 
237 157 111 237 157 111 237 157 111 237 157 111 240 173 129 237 157 111 237 157 111 240 173 129 
240 173 129 240 173 129 240 173 129 240 189 96 199 169 104 59 95 109 7 75 102 7 75 102 
97 125 111 210 180 169 225 208 211 242 214 215 225 208 211 242 214 215 225 208 211 225 208 211 
242 214 215 242 214 215 242 214 215 225 208 211 225 208 211 225 208 211 225 208 211 225 208 211 
225 208 211 242 242 223 242 214 215 242 242 223 242 214 215 225 208 211 225 208 211 225 208 211 
225 208 211 210 180 169 156 159 166 43 121 139 94 154 160 88 132 154 7 113 146 6 99 150 
6 99 150 6 99 150 6 120 170 7 145 184 42 156 192 93 161 196 198 212 189 198 212 189 
156 186 216 93 191 199 6 201 200 6 120 170 7 48 95 4 8 47 0 4 3 0 3 1 
0 3 1 0 0 0 0 3 1 0 3 1 0 3 1 0 3 1 0 2 0 0 2 0 

24 56 55 24 67 72 7 41 60 60 64 95 155 181 94 40 64 95 7 34 46 6 27 33 
6 27 33 6 27 33 6 27 33 24 56 81 104 121 89 24 56 72 7 41 60 54 63 80 
86 120 88 24 56 95 24 41 78 7 48 75 7 41 60 7 41 60 6 34 60 6 34 60 
24 56 72 24 56 95 88 87 111 155 144 112 240 205 129 198 170 136 128 117 109 88 87 111 
55 71 109 25 63 109 97 125 111 59 95 109 89 107 111 128 117 109 199 169 104 199 169 104 
112 130 109 112 114 119 112 114 119 89 107 111 7 56 82 7 48 75 6 34 60 7 48 75 
93 98 84 155 144 90 128 117 109 184 152 101 155 144 112 175 126 88 128 117 109 128 117 109 
93 78 89 54 92 81 93 98 84 93 98 84 40 64 95 27 76 117 89 107 111 59 95 109 
54 83 99 7 48 95 7 48 95 54 83 99 104 121 89 59 95 109 59 95 109 126 145 104 
59 95 109 29 95 109 59 95 109 59 95 109 112 114 119 126 145 132 128 117 109 128 117 109 
112 130 109 89 107 111 112 130 109 83 125 111 29 95 109 29 95 109 42 120 116 63 125 116 
63 108 116 7 59 103 7 48 95 86 120 88 112 130 109 112 130 109 128 117 109 155 144 112 
89 107 111 58 82 117 155 144 112 199 169 104 184 152 101 128 117 109 63 108 116 25 63 109 
27 76 117 112 104 110 112 130 109 59 95 109 128 117 109 184 152 101 199 169 104 199 169 104 
199 169 104 184 152 101 155 144 90 25 63 109 59 95 109 155 144 90 112 130 109 155 154 99 
128 117 109 89 107 111 59 95 109 155 144 90 112 114 119 155 154 99 155 154 99 155 154 99 
63 108 116 126 145 104 155 144 112 159 125 108 126 145 104 155 144 112 159 125 108 155 154 99 
155 144 112 239 168 94 184 152 101 128 117 109 184 151 83 184 151 83 216 154 83 199 169 104 
240 189 96 239 168 94 239 168 94 216 154 83 159 125 108 124 130 88 184 152 101 216 154 83 
208 152 121 239 168 94 239 168 94 239 168 94 216 154 83 216 154 83 184 152 101 216 154 83 
184 152 101 184 152 101 239 168 94 238 155 87 184 152 101 199 169 104 237 157 111 237 157 111 
237 157 111 237 157 111 237 157 111 237 157 111 237 157 111 237 157 111 239 168 94 240 173 129 
240 173 129 240 173 129 240 173 129 240 173 129 240 189 96 203 152 81 54 83 99 7 96 112 
42 120 116 161 151 130 239 198 170 225 208 211 242 214 215 225 208 211 225 208 211 225 208 211 
225 208 211 225 208 211 242 214 215 242 242 223 225 208 211 225 208 211 225 208 211 225 208 211 
197 198 212 225 208 211 242 214 215 242 242 223 242 242 223 242 214 215 225 208 211 225 208 211 
225 208 211 210 180 169 210 180 169 128 159 167 6 120 170 27 163 154 56 162 154 7 113 146 
7 113 146 7 113 146 7 145 184 128 189 167 56 162 154 6 120 170 94 154 160 156 195 167 
156 186 216 156 186 216 93 191 199 43 185 193 7 145 184 7 59 103 4 8 47 1 4 6 
0 0 0 0 0 0 0 0 0 0 0 0 0 2 0 0 2 0 0 3 1 0 2 0 

24 56 55 7 41 60 7 34 46 7 27 52 54 63 80 24 67 72 7 45 53 7 34 46 
7 35 30 6 27 33 7 34 46 24 67 72 104 121 89 55 83 74 7 41 60 24 56 72 
54 63 80 7 48 75 7 41 60 7 41 60 7 41 60 24 56 72 7 41 60 7 41 60 
93 98 84 155 154 99 128 117 109 112 114 119 161 151 130 184 151 125 199 169 104 128 117 109 
199 197 101 112 130 109 58 82 117 58 82 117 89 107 111 112 104 110 58 82 117 112 104 110 
59 95 109 128 117 109 112 114 119 97 125 111 40 64 95 7 48 75 6 34 60 7 41 60 
24 41 78 89 107 111 112 104 110 159 125 108 159 125 108 88 87 111 144 120 90 124 104 87 
93 98 84 54 63 80 54 63 80 40 64 95 24 68 95 124 130 88 128 117 109 128 117 109 
89 107 111 93 98 84 104 121 89 89 107 111 89 107 111 89 107 111 89 107 111 97 125 111 
112 130 109 126 145 104 112 114 119 112 130 109 89 107 111 112 130 109 128 117 109 159 125 108 
199 169 104 128 117 109 89 107 111 112 130 109 97 125 111 97 125 111 88 132 124 112 130 109 
83 125 111 7 73 121 29 95 109 126 145 104 126 145 104 126 145 104 159 125 108 126 145 104 
59 95 109 7 59 103 24 56 95 184 152 101 155 144 112 155 154 99 124 130 88 112 130 109 
124 130 88 128 117 109 112 130 109 155 154 99 184 152 101 199 169 104 184 152 101 63 108 116 
112 130 109 126 145 104 112 130 109 124 130 88 124 130 88 104 121 89 63 108 116 112 130 109 
155 144 112 128 117 109 112 130 109 112 130 109 126 145 104 97 125 111 112 114 119 184 152 101 
159 125 108 63 108 116 155 144 112 199 169 104 184 152 101 155 154 99 155 144 90 126 145 104 
97 125 111 184 152 101 240 189 96 216 154 83 184 151 83 144 120 90 175 126 88 184 152 101 
199 169 104 239 168 94 239 168 94 184 152 101 203 152 81 184 151 83 159 125 108 238 155 87 
199 169 104 199 169 104 216 154 83 203 152 81 199 169 104 199 169 104 216 154 83 216 154 83 
239 168 94 239 168 94 216 154 83 199 169 104 239 168 94 237 157 111 208 152 121 208 152 121 
237 157 111 239 168 94 239 168 94 237 157 111 237 157 111 239 168 94 237 157 111 237 157 111 
237 157 111 237 157 111 240 173 129 240 173 129 240 173 129 240 189 96 159 125 108 29 95 109 
42 120 116 126 145 132 210 180 169 198 212 189 225 208 211 225 208 211 225 208 211 225 208 211 
225 208 211 225 208 211 225 208 211 242 214 215 242 242 223 225 208 211 225 208 211 225 208 211 
197 198 212 225 208 211 225 208 211 225 208 211 242 242 223 242 214 215 242 214 215 225 208 211 
225 208 211 239 198 170 210 180 169 210 180 169 128 159 167 43 121 169 27 163 154 43 121 139 
7 113 146 6 99 150 6 120 170 128 189 167 128 159 167 6 95 166 6 120 170 42 156 192 
128 189 167 128 189 167 128 189 167 128 189 216 43 185 193 7 145 184 7 81 122 4 8 47 
1 4 6 0 3 1 0 0 0 0 2 0 0 2 0 0 3 1 0 2 0 0 2 0 

24 56 95 24 56 72 7 27 52 7 34 46 7 34 46 7 41 43 7 34 46 7 41 43 
6 27 33 6 27 33 7 34 46 7 41 60 24 67 72 24 56 72 7 41 60 7 48 75 
7 56 82 7 48 75 24 56 72 24 67 72 7 48 75 55 83 74 6 34 60 6 34 60 
24 56 95 88 87 111 155 144 112 155 144 112 155 144 112 128 117 109 112 104 110 55 71 109 
112 104 110 155 144 112 155 154 99 89 107 111 59 95 109 112 104 110 155 144 90 55 71 109 
55 71 109 88 87 111 128 117 109 88 87 111 93 98 84 24 56 81 7 48 75 7 41 60 
6 34 60 104 121 89 124 130 88 112 104 110 175 126 88 159 125 108 124 104 87 40 64 95 
54 63 80 24 56 81 24 56 81 93 78 89 54 83 99 89 107 111 128 117 109 128 117 109 
88 87 111 55 71 109 89 107 111 128 117 109 112 104 110 112 104 110 112 130 109 112 130 109 
112 114 119 126 145 104 155 144 112 128 117 109 97 125 111 112 130 109 83 125 111 58 82 117 
128 117 109 112 114 119 89 107 111 112 130 109 112 114 119 112 130 109 112 130 109 112 130 109 
97 125 111 63 108 116 97 125 111 126 145 104 126 145 104 155 144 112 155 144 112 112 114 119 
63 108 116 54 115 81 59 95 109 83 125 111 155 144 112 155 154 99 155 154 99 126 145 104 
159 125 108 126 145 104 184 152 101 155 144 112 155 144 112 184 152 101 199 169 104 128 117 109 
89 107 111 83 125 111 86 120 88 40 64 95 54 63 80 54 83 99 112 130 109 155 154 99 
126 145 104 112 130 109 126 145 104 112 130 109 155 144 112 199 169 104 199 169 104 155 144 112 
199 197 101 184 152 101 112 130 109 155 154 99 126 145 104 155 144 112 112 130 109 155 154 99 
184 152 101 126 145 104 239 168 94 208 152 121 199 169 104 239 168 94 239 168 94 203 152 81 
155 144 112 199 169 104 216 154 83 184 152 101 159 125 108 184 152 101 128 117 109 184 152 101 
199 169 104 184 152 101 216 154 83 199 169 104 199 169 104 184 152 101 184 152 101 199 169 104 
216 154 83 203 152 81 216 154 83 237 157 111 237 157 111 208 152 121 208 152 121 208 152 121 
237 157 111 239 168 94 237 157 111 237 157 111 239 168 94 239 168 94 237 157 111 239 168 94 
240 173 129 237 157 111 240 173 129 240 173 129 240 173 129 240 173 129 240 173 129 112 114 119 
42 120 116 143 150 131 189 174 152 210 180 169 239 198 170 225 208 211 225 208 211 239 198 170 
239 198 170 225 208 211 242 242 223 225 208 211 225 208 211 242 242 223 242 214 215 225 208 211 
225 208 211 225 208 211 225 208 211 225 208 211 225 208 211 242 214 215 242 214 215 225 208 211 
225 208 211 225 208 211 198 212 189 198 212 189 197 213 164 156 195 167 43 121 169 7 113 146 
7 126 130 7 113 146 7 113 146 56 162 154 56 162 154 6 120 170 6 99 150 6 120 170 
128 189 167 156 195 167 189 174 177 128 159 167 93 191 199 43 185 193 7 145 184 7 99 141 
7 29 75 6 8 10 0 3 1 0 0 0 0 2 0 0 0 0 0 3 1 0 0 0 

126 145 132 112 130 109 54 63 80 7 34 46 7 34 46 7 34 46 7 41 43 7 41 43 
7 41 43 7 34 46 7 34 46 7 45 53 7 41 60 7 41 60 24 56 72 24 56 72 
54 63 80 24 67 72 7 56 82 54 63 80 7 41 60 24 56 72 7 41 60 6 34 60 
7 48 75 54 92 81 88 87 111 128 117 109 55 71 109 40 64 95 7 29 75 7 48 75 
7 48 75 7 48 75 60 64 95 93 98 84 40 64 95 93 98 84 128 117 109 128 117 109 
97 125 111 58 82 117 54 83 99 54 83 99 24 95 100 24 68 95 55 83 74 6 34 60 
7 27 52 24 41 78 54 63 80 40 64 95 124 104 87 216 154 83 240 189 96 144 120 90 
88 87 111 124 104 87 93 98 84 24 56 95 40 64 95 54 83 99 59 95 109 89 107 111 
112 104 110 93 98 84 89 107 111 128 117 109 112 104 110 89 107 111 112 130 109 112 130 109 
126 145 104 128 117 109 128 117 109 128 117 109 112 114 119 97 125 111 89 107 111 59 95 109 
124 130 88 104 121 89 112 104 110 97 125 111 126 145 104 112 130 109 128 117 109 97 125 111 
112 114 119 97 125 111 126 145 104 126 145 104 126 145 104 126 145 104 126 145 104 112 130 109 
7 75 102 59 95 109 89 107 111 89 107 111 144 120 90 155 144 90 155 144 112 126 145 104 
128 117 109 112 114 119 199 169 104 184 152 101 128 117 109 184 152 101 155 144 112 63 108 116 
126 145 104 155 154 99 89 107 111 54 83 99 59 95 109 86 120 88 89 107 111 112 130 109 
126 145 104 155 144 112 112 130 109 112 130 109 83 125 111 126 145 104 155 144 112 126 145 104 
83 125 111 112 130 109 126 145 104 199 169 104 112 114 119 126 145 104 112 130 109 112 130 109 
155 144 112 155 144 112 184 152 101 199 169 104 155 144 112 239 168 94 239 168 94 184 152 101 
239 168 94 240 189 96 237 157 111 184 152 101 155 154 99 199 169 104 184 152 101 155 144 90 
203 152 81 199 169 104 203 152 81 184 152 101 203 152 81 184 152 101 184 152 101 184 152 101 
184 152 101 184 152 101 216 154 83 199 169 104 208 152 121 237 157 111 237 157 111 208 152 121 
216 154 83 239 168 94 239 168 94 237 157 111 239 168 94 239 168 94 239 168 94 237 157 111 
240 173 129 237 157 111 237 157 111 240 173 129 240 173 129 240 173 129 240 173 129 208 152 121 
88 132 124 126 145 132 161 151 130 210 180 169 239 198 170 239 198 170 239 198 170 225 208 211 
225 208 211 225 208 211 225 208 211 242 214 215 242 214 215 242 242 223 242 214 215 225 208 211 
225 208 211 242 214 215 225 208 211 225 208 211 242 214 215 242 214 215 242 214 215 225 208 211 
225 208 211 225 208 211 225 208 211 198 212 189 210 180 169 198 212 189 189 174 152 88 132 154 
7 113 146 7 126 130 43 121 139 6 120 170 6 120 170 6 120 170 27 163 154 6 120 170 
43 121 169 156 195 167 198 212 189 189 174 177 128 159 167 93 191 199 43 185 193 7 145 184 
7 113 146 7 29 75 6 8 10 1 1 2 0 0 0 0 0 0 0 0 0 0 0 0 

164 179 131 126 145 132 89 107 111 7 48 75 6 34 60 24 56 55 7 27 52 7 34 46 
7 41 43 7 41 43 7 34 46 6 34 60 7 41 60 24 41 78 24 67 72 55 83 74 
40 64 95 40 64 95 54 63 80 7 48 75 7 48 75 24 56 72 7 41 60 7 41 60 
7 48 75 40 64 95 59 95 109 55 71 109 7 59 103 7 48 75 7 48 75 7 41 60 
6 34 60 6 34 60 7 29 75 7 29 75 7 29 75 24 41 78 124 104 87 128 117 109 
184 152 101 89 107 111 89 107 111 89 107 111 7 75 102 24 56 81 7 29 75 6 34 60 
7 41 60 24 67 72 24 56 72 7 29 75 24 41 78 144 120 90 112 104 110 184 152 101 
159 125 108 175 126 88 184 152 101 88 87 111 24 56 81 55 83 74 40 64 95 93 98 84 
93 98 84 93 98 84 124 104 87 128 117 109 128 117 109 89 107 111 89 107 111 63 108 116 
89 107 111 97 125 111 128 117 109 126 145 104 159 125 108 128 117 109 128 117 109 128 117 109 
128 117 109 104 121 89 89 107 111 97 125 111 126 145 104 126 145 132 112 130 109 126 145 104 
112 130 109 97 125 111 126 145 104 155 144 112 126 145 104 159 125 108 144 120 90 112 130 109 
27 76 117 29 95 109 89 107 111 112 130 109 126 145 104 128 117 109 155 154 99 155 144 112 
184 152 101 155 144 112 184 152 101 184 152 101 184 152 101 128 117 109 89 107 111 89 107 111 
126 145 104 199 169 104 199 169 104 199 169 104 199 169 104 155 144 112 112 130 109 89 107 111 
112 130 109 126 145 132 164 179 131 155 144 112 112 130 109 112 130 109 97 125 111 126 145 104 
126 145 104 126 145 104 155 144 112 184 152 101 126 145 104 112 130 109 112 130 109 112 130 109 
155 144 112 155 144 112 184 152 101 199 169 104 184 152 101 199 169 104 199 169 104 184 152 101 
155 144 112 184 151 125 184 152 101 155 144 90 184 152 101 199 169 104 159 125 108 155 144 90 
203 152 81 199 169 104 184 152 101 184 152 101 199 169 104 184 152 101 184 152 101 184 152 101 
184 152 101 184 152 101 184 152 101 159 125 108 203 152 81 239 168 94 237 157 111 239 168 94 
237 157 111 239 168 94 237 157 111 239 168 94 239 168 94 239 168 94 239 168 94 239 168 94 
239 168 94 239 168 94 239 168 94 240 173 129 240 173 129 240 173 129 240 173 129 240 173 129 
198 170 136 143 150 131 126 145 132 210 180 169 239 198 170 239 198 170 239 198 170 210 180 169 
239 198 170 225 208 211 225 208 211 225 208 211 242 214 215 242 214 215 242 242 223 242 214 215 
225 208 211 242 214 215 242 214 215 225 208 211 225 208 211 225 208 211 225 208 211 225 208 211 
225 208 211 225 208 211 225 208 211 225 208 211 198 212 189 198 212 189 198 212 189 156 195 167 
43 121 139 7 99 141 43 121 139 94 154 160 6 120 170 7 126 130 56 162 154 126 172 135 
128 159 167 156 195 167 198 212 189 198 212 189 198 212 189 93 161 196 93 161 196 43 185 193 
7 145 184 6 120 170 6 33 96 4 8 47 1 3 2 0 0 0 0 2 0 0 2 0 

126 145 132 128 159 167 143 150 131 63 108 116 24 56 81 24 67 72 6 34 60 7 34 46 
7 34 46 7 34 46 7 45 53 24 56 55 24 56 72 93 78 89 54 83 99 93 98 84 
54 63 80 55 83 74 55 83 74 7 48 75 7 48 75 7 48 75 7 41 60 7 48 75 
54 63 80 54 92 81 24 68 95 54 83 99 54 83 99 7 56 82 7 72 82 24 67 72 
7 41 60 6 34 60 6 34 60 7 48 75 7 41 60 6 34 60 7 48 75 40 64 95 
93 78 89 60 64 95 89 107 111 93 98 84 54 83 99 7 56 82 7 48 75 7 48 75 
7 48 75 7 48 75 7 56 82 7 48 75 24 56 81 93 98 84 93 98 84 58 82 117 
112 104 110 159 125 108 184 152 101 159 125 108 124 104 87 60 64 95 60 64 95 93 78 89 
93 78 89 54 83 99 59 95 109 89 107 111 128 117 109 128 117 109 124 104 87 124 130 88 
97 125 111 89 107 111 89 107 111 112 104 110 112 104 110 112 104 110 128 117 109 128 117 109 
155 144 112 128 117 109 54 83 99 59 95 109 97 125 111 112 130 109 126 145 104 112 130 109 
128 117 109 97 125 111 83 125 111 128 117 109 112 130 109 155 144 112 155 144 112 112 130 109 
128 117 109 124 130 88 128 117 109 155 154 99 126 145 104 112 130 109 126 145 104 128 117 109 
159 125 108 155 144 90 144 120 90 59 95 109 126 145 104 112 130 109 97 125 111 97 125 111 
155 154 99 155 144 112 126 145 132 126 145 104 89 107 111 112 114 119 199 197 101 126 145 104 
126 145 104 112 130 109 88 100 145 155 144 112 112 114 119 155 154 99 126 145 104 89 107 111 
126 145 104 112 114 119 184 152 101 155 144 112 155 154 99 155 144 112 184 152 101 155 144 112 
155 154 99 184 152 101 159 125 108 155 144 112 184 152 101 199 169 104 184 152 101 112 130 109 
155 154 99 184 152 101 155 144 112 128 117 109 184 152 101 199 169 104 184 152 101 155 144 90 
203 152 81 199 169 104 184 152 101 184 152 101 199 169 104 203 152 81 199 169 104 199 169 104 
199 169 104 216 154 83 159 125 108 184 152 101 184 152 101 237 157 111 237 157 111 237 157 111 
239 168 94 237 157 111 239 168 94 237 157 111 239 168 94 239 168 94 239 168 94 239 168 94 
239 168 94 237 157 111 237 157 111 240 173 129 240 173 129 240 173 129 240 173 129 240 173 129 
240 173 129 198 196 136 189 174 152 156 159 166 239 198 170 225 208 211 239 198 170 210 180 169 
210 180 169 210 180 169 225 208 211 225 208 211 225 208 211 242 214 215 242 214 215 242 214 215 
242 214 215 242 214 215 225 208 211 242 214 215 225 208 211 225 208 211 225 208 211 225 208 211 
225 208 211 225 208 211 225 208 211 198 212 189 210 180 169 189 174 177 198 212 189 189 174 177 
156 195 167 57 121 132 7 99 141 56 162 154 88 132 154 7 113 146 56 162 154 128 159 167 
156 195 167 189 174 177 198 212 189 198 212 189 198 212 189 198 212 189 156 186 216 128 189 167 
93 191 199 7 145 184 6 120 170 7 59 103 4 8 47 1 4 6 0 2 0 0 0 0 

88 132 124 143 150 131 143 150 131 112 130 109 25 63 109 24 68 95 7 48 75 7 41 60 
6 34 60 6 34 60 54 63 80 24 56 72 7 41 60 24 56 72 24 56 81 40 64 95 
54 63 80 24 56 81 7 29 75 7 48 75 7 48 75 7 41 60 7 48 75 7 48 75 
54 63 80 54 83 99 54 83 99 24 56 95 54 83 99 40 64 95 55 83 74 7 48 75 
7 29 75 24 56 81 24 56 81 7 56 82 7 29 75 7 48 75 24 56 81 24 68 95 
40 64 95 93 98 84 86 120 88 7 48 95 7 48 75 7 56 82 7 48 75 7 56 82 
24 56 81 40 64 95 24 68 95 7 56 82 24 68 95 54 92 81 24 68 95 89 107 111 
112 130 109 112 114 119 175 126 88 88 87 111 124 104 87 124 104 87 124 104 87 93 98 84 
93 98 84 93 98 84 93 98 84 124 104 87 59 95 109 89 107 111 89 107 111 55 71 109 
89 107 111 89 107 111 97 125 111 128 117 109 112 104 110 112 104 110 89 107 111 112 104 110 
184 152 101 216 154 83 112 104 110 59 95 109 97 125 111 112 130 109 112 114 119 112 104 110 
128 117 109 126 145 104 126 145 104 126 145 104 128 117 109 128 117 109 128 117 109 126 145 104 
128 117 109 128 117 109 155 144 112 155 144 112 155 144 112 128 117 109 128 117 109 59 95 109 
7 48 95 27 76 117 97 125 111 155 154 99 155 144 112 126 145 104 104 121 89 7 59 103 
27 76 117 155 154 99 155 144 112 112 130 109 128 117 109 58 82 117 63 108 116 88 87 111 
97 125 111 89 107 111 126 145 104 88 132 124 155 144 112 83 125 111 155 154 99 199 197 101 
155 144 112 126 145 104 155 144 112 155 144 112 155 144 112 155 144 112 199 169 104 161 151 130 
155 144 112 155 144 112 144 120 90 112 114 119 155 154 99 155 144 112 184 152 101 128 117 109 
128 117 109 184 152 101 216 154 83 184 152 101 155 154 99 216 154 83 216 154 83 155 144 90 
184 152 101 199 169 104 216 154 83 184 152 101 184 152 101 199 169 104 184 152 101 208 152 121 
203 152 81 216 154 83 239 168 94 239 168 94 239 168 94 239 168 94 237 157 111 237 157 111 
239 168 94 216 154 83 216 154 83 239 168 94 239 168 94 239 168 94 237 157 111 239 168 94 
239 168 94 239 168 94 239 168 94 237 157 111 240 173 129 240 173 129 237 157 111 240 173 129 
240 173 129 210 180 169 210 180 169 189 174 152 210 180 169 198 212 189 239 198 170 239 198 170 
210 180 169 198 212 189 239 198 170 239 198 170 225 208 211 225 208 211 225 208 211 242 214 215 
242 214 215 225 208 211 242 214 215 225 208 211 242 214 215 225 208 211 225 208 211 225 208 211 
225 208 211 225 208 211 197 198 212 189 174 177 210 180 169 189 174 177 189 174 177 189 174 177 
156 195 167 126 172 135 27 121 132 7 113 146 56 162 154 56 162 154 27 121 132 27 121 132 
88 132 154 94 154 160 128 189 167 189 174 177 198 212 189 198 212 189 198 212 189 128 159 167 
128 189 167 93 161 196 7 145 184 7 145 184 7 73 121 4 8 47 1 4 6 0 0 0 

89 107 111 57 82 141 112 130 109 63 108 116 112 130 109 54 83 99 40 64 95 24 67 72 
24 56 72 7 48 75 7 48 75 7 48 75 7 48 75 7 48 75 7 48 75 24 56 81 
24 56 81 7 56 82 24 56 81 24 56 72 7 41 60 7 41 60 24 56 72 54 63 80 
40 64 95 40 64 95 55 83 74 60 64 95 93 98 84 40 64 95 40 64 95 7 48 75 
24 56 81 54 92 81 54 83 99 24 68 95 7 72 82 7 48 75 24 56 81 40 64 95 
7 56 82 40 64 95 54 92 81 7 48 75 7 48 75 7 56 82 7 56 82 40 64 95 
93 98 84 93 98 84 59 95 109 59 95 109 54 83 99 7 48 95 7 48 95 24 68 95 
112 114 119 159 125 108 112 104 110 112 104 110 88 87 111 88 87 111 128 117 109 112 104 110 
89 107 111 89 107 111 89 107 111 89 107 111 104 121 89 89 107 111 112 104 110 104 121 89 
184 152 101 184 152 101 143 150 131 112 114 119 128 117 109 155 144 112 159 125 108 54 83 99 
88 87 111 175 126 88 144 120 90 128 117 109 112 104 110 83 125 111 112 104 110 112 104 110 
97 125 111 112 114 119 112 130 109 112 130 109 112 130 109 124 130 88 124 130 88 124 130 88 
155 144 90 199 169 104 240 189 96 239 168 94 159 125 108 126 145 104 126 145 104 155 154 99 
128 117 109 155 154 99 199 169 104 155 144 112 89 107 111 63 108 116 89 107 111 59 95 109 
27 76 117 112 130 109 199 169 104 128 117 109 128 117 109 126 145 104 112 130 109 199 197 101 
88 132 124 112 114 119 88 132 124 112 130 109 155 181 94 128 117 109 63 125 116 58 82 117 
97 125 111 97 125 111 97 125 111 97 125 111 126 145 104 112 130 109 88 132 124 88 132 124 
126 145 104 126 145 104 112 130 109 126 145 104 126 145 104 155 144 112 184 152 101 155 144 90 
155 144 90 155 154 99 155 144 112 155 154 99 155 144 112 199 169 104 184 152 101 144 120 90 
155 154 99 199 169 104 208 152 121 184 152 101 184 152 101 199 169 104 199 169 104 184 152 101 
203 152 81 199 169 104 239 168 94 216 154 83 216 154 83 237 157 111 239 168 94 216 154 83 
238 155 87 238 155 87 216 154 83 239 168 94 237 157 111 239 168 94 239 168 94 239 168 94 
239 168 94 239 168 94 239 168 94 237 157 111 240 173 129 240 173 129 237 157 111 237 157 111 
240 173 129 239 198 170 239 198 170 210 180 169 189 174 152 210 180 169 239 198 170 210 180 169 
239 198 170 210 180 169 210 180 169 210 180 169 225 208 211 225 208 211 225 208 211 225 208 211 
225 208 211 242 214 215 225 208 211 225 208 211 225 208 211 225 208 211 225 208 211 225 208 211 
225 208 211 225 208 211 225 208 211 210 180 169 210 180 169 210 180 169 189 174 177 156 159 166 
189 174 152 189 174 152 88 132 154 7 99 141 7 126 130 43 121 139 56 162 154 43 121 139 
27 163 154 43 121 169 93 181 160 156 195 167 198 212 189 198 212 189 198 212 189 189 174 177 
156 195 167 128 159 167 42 156 192 7 145 184 7 145 184 6 80 137 7 27 52 1 8 8 

89 107 111 89 107 111 88 87 111 58 82 117 27 76 117 24 68 95 24 56 95 24 68 95 
40 64 95 40 64 95 55 71 109 54 83 99 54 63 80 24 56 81 7 56 82 7 48 75 
24 67 72 55 83 74 7 56 82 7 48 75 6 34 60 24 56 72 60 64 95 40 64 95 
24 56 81 54 63 80 24 56 81 24 56 81 93 98 84 93 98 84 93 78 89 40 64 95 
54 83 99 88 87 111 89 107 111 89 107 111 24 68 95 7 48 75 24 68 95 54 92 81 
7 48 75 7 56 82 7 56 82 7 29 75 54 83 99 88 87 111 128 117 109 159 125 108 
89 107 111 128 117 109 112 104 110 112 104 110 124 104 87 24 68 95 7 72 82 24 56 81 
93 78 89 184 151 83 128 117 109 112 104 110 128 117 109 112 104 110 128 117 109 155 144 112 
112 130 109 89 107 111 89 107 111 112 104 110 89 107 111 128 117 109 89 107 111 88 87 111 
128 117 109 184 152 101 199 169 104 184 152 101 184 152 101 199 169 104 199 169 104 112 104 110 
27 76 117 97 125 111 89 107 111 128 117 109 128 117 109 104 121 89 112 104 110 89 107 111 
83 125 111 112 130 109 89 107 111 97 125 111 112 130 109 112 130 109 128 117 109 128 117 109 
89 107 111 128 117 109 199 169 104 240 189 96 199 169 104 155 144 112 184 152 101 239 168 94 
199 169 104 184 152 101 128 117 109 59 95 109 7 59 103 89 107 111 199 169 104 199 169 104 
184 152 101 126 145 104 128 117 109 199 169 104 155 144 112 155 154 99 112 130 109 155 144 112 
199 169 104 199 197 101 199 169 104 155 154 99 88 87 111 112 114 119 97 125 111 83 125 111 
83 125 111 83 125 111 128 117 109 29 95 109 83 125 111 126 145 104 126 145 104 155 154 99 
155 144 112 155 144 112 126 145 104 155 144 112 155 144 112 155 154 99 155 154 99 155 144 112 
155 144 112 155 154 99 184 152 101 184 152 101 159 125 108 199 169 104 203 152 81 175 126 88 
184 151 83 199 169 104 199 169 104 184 152 101 184 152 101 203 152 81 184 152 101 184 152 101 
203 152 81 203 152 81 216 154 83 216 154 83 216 154 83 238 155 87 239 168 94 216 154 83 
216 154 83 216 154 83 216 154 83 216 154 83 239 168 94 238 155 87 239 168 94 239 168 94 
239 168 94 239 168 94 239 168 94 237 157 111 237 157 111 237 157 111 237 157 111 240 173 129 
240 173 129 236 177 170 239 198 170 210 180 169 189 174 152 197 213 164 210 180 169 239 198 170 
210 180 169 210 180 169 210 180 169 210 180 169 225 208 211 225 208 211 225 208 211 225 208 211 
242 214 215 225 208 211 225 208 211 225 208 211 225 208 211 225 208 211 242 214 215 225 208 211 
225 208 211 210 180 169 225 208 211 225 208 211 210 180 169 210 180 169 189 174 152 189 174 152 
128 159 167 156 195 167 156 159 166 88 132 154 7 113 146 27 121 132 27 163 154 56 162 154 
7 113 146 43 121 139 27 163 154 128 159 167 156 195 167 198 212 189 198 212 189 189 174 177 
189 174 177 189 174 177 128 189 167 93 161 196 42 156 192 7 145 184 6 99 150 7 29 75 

54 83 99 59 95 109 88 87 111 112 104 110 88 87 111 54 83 99 40 64 95 97 125 111 
112 130 109 143 150 131 198 196 136 112 130 109 40 64 95 24 56 81 54 92 81 54 63 80 
24 56 72 24 56 72 7 48 75 7 48 75 7 41 60 54 63 80 124 130 88 93 98 84 
7 29 75 7 41 60 6 34 60 7 41 60 55 83 74 93 78 89 93 98 84 93 98 84 
54 83 99 89 107 111 89 107 111 89 107 111 59 95 109 7 56 82 24 56 81 7 56 82 
7 56 82 7 56 82 7 56 82 7 56 82 60 64 95 112 104 110 112 104 110 128 117 109 
88 87 111 128 117 109 128 117 109 27 76 117 24 95 100 7 48 95 7 56 82 6 33 96 
40 64 95 88 87 111 88 87 111 124 104 87 175 126 88 155 144 90 159 125 108 155 144 112 
184 152 101 184 152 101 126 145 104 112 104 110 89 107 111 89 107 111 89 107 111 54 83 99 
7 59 103 88 87 111 59 95 109 27 76 117 7 59 103 54 83 99 159 125 108 155 144 90 
144 120 90 184 152 101 184 152 101 155 144 112 128 117 109 104 121 89 89 107 111 89 107 111 
104 121 89 112 104 110 97 125 111 97 125 111 89 107 111 128 117 109 128 117 109 155 154 99 
126 145 104 112 114 119 155 144 112 237 157 111 239 168 94 199 169 104 175 126 88 184 151 83 
112 130 109 126 145 104 89 107 111 59 95 109 86 120 88 124 130 88 155 144 90 155 144 112 
112 130 109 126 145 104 89 107 111 97 125 111 97 125 111 63 108 116 83 125 111 63 108 116 
88 132 124 126 145 104 58 82 117 63 108 116 112 130 109 97 125 111 155 144 112 155 154 99 
83 125 111 155 144 112 199 169 104 159 125 108 112 130 109 112 130 109 112 130 109 155 144 112 
155 144 112 155 144 112 126 145 104 124 130 88 126 145 104 128 117 109 112 104 110 155 154 99 
155 144 112 155 154 99 155 144 112 184 151 125 184 152 101 184 152 101 184 152 101 159 125 108 
203 152 81 175 126 88 184 152 101 239 168 94 239 168 94 216 154 83 216 154 83 203 152 81 
203 152 81 175 126 88 184 151 83 216 154 83 216 154 83 184 152 101 238 155 87 239 168 94 
238 155 87 216 154 83 216 154 83 238 155 87 239 168 94 239 168 94 238 155 87 239 168 94 
239 168 94 239 168 94 239 168 94 239 168 94 239 168 94 237 157 111 208 152 121 240 173 129 
240 173 129 240 173 129 236 177 170 210 180 169 210 180 169 210 180 169 239 198 170 239 198 170 
239 198 170 210 180 169 210 180 169 239 198 170 239 198 170 225 208 211 225 208 211 225 208 211 
225 208 211 225 208 211 225 208 211 225 208 211 225 208 211 225 208 211 242 214 215 242 214 215 
225 208 211 225 208 211 198 212 189 225 208 211 225 208 211 198 212 189 189 174 177 156 159 166 
143 150 131 128 159 167 156 195 167 126 172 135 88 132 154 65 150 115 43 121 139 7 126 130 
27 163 154 43 121 139 7 113 146 27 163 154 88 132 154 156 195 167 198 212 189 198 212 189 
189 174 177 189 174 177 189 174 177 156 159 166 128 159 167 93 161 196 7 145 184 7 113 146 

89 107 111 40 64 95 93 78 89 88 87 111 88 87 111 88 87 111 58 82 117 155 144 112 
127 116 140 143 150 131 161 151 130 126 145 132 58 82 117 54 63 80 54 63 80 7 48 75 
7 41 60 7 29 75 7 48 75 59 95 109 54 83 99 40 64 95 93 98 84 40 64 95 
55 83 74 24 41 78 7 41 60 55 83 74 24 56 95 40 64 95 60 64 95 93 98 84 
40 64 95 40 64 95 60 64 95 89 107 111 97 125 111 7 48 95 7 48 75 7 56 82 
7 48 75 7 48 75 7 56 82 7 56 82 54 83 99 59 95 109 24 68 95 7 59 103 
7 59 103 55 71 109 128 117 109 58 82 117 128 117 109 58 82 117 86 120 88 25 63 109 
58 82 117 112 104 110 88 87 111 55 71 109 112 104 110 128 117 109 159 125 108 184 152 101 
199 169 104 184 152 101 184 152 101 88 87 111 89 107 111 59 95 109 59 95 109 59 95 109 
59 95 109 104 121 89 89 107 111 63 108 116 59 95 109 7 59 103 86 120 88 93 98 84 
89 107 111 88 87 111 128 117 109 128 117 109 128 117 109 159 125 108 112 130 109 89 107 111 
89 107 111 89 107 111 97 125 111 155 144 112 155 144 112 184 152 101 184 152 101 184 152 101 
155 144 112 155 144 112 126 145 104 155 144 112 239 168 94 184 152 101 59 95 109 6 33 96 
59 95 109 112 130 109 59 95 109 104 121 89 89 107 111 7 59 103 54 83 99 155 154 99 
155 144 112 155 154 99 126 145 104 59 95 109 63 108 116 89 107 111 126 145 104 112 130 109 
83 125 111 63 108 116 83 125 111 59 95 109 126 145 104 143 150 131 199 169 104 155 144 112 
89 107 111 184 152 101 184 152 101 240 189 96 184 152 101 112 130 109 124 130 88 155 154 99 
155 144 112 155 144 112 124 130 88 112 130 109 128 117 109 155 154 99 184 152 101 126 145 104 
155 144 112 155 144 112 155 144 112 155 144 112 184 152 101 184 152 101 155 144 112 155 144 112 
184 152 101 184 152 101 184 152 101 184 152 101 216 154 83 239 168 94 203 152 81 184 151 83 
203 152 81 203 152 81 203 152 81 216 154 83 216 154 83 203 152 81 239 168 94 216 154 83 
239 168 94 239 168 94 239 168 94 238 155 87 238 155 87 239 168 94 238 155 87 239 168 94 
239 168 94 239 168 94 239 168 94 239 168 94 239 168 94 237 157 111 208 152 121 198 170 136 
240 173 129 236 177 170 210 180 169 210 180 169 210 180 169 210 180 169 210 180 169 239 198 170 
198 212 189 210 180 169 210 180 169 210 180 169 239 198 170 239 198 170 225 208 211 225 208 211 
225 208 211 225 208 211 225 208 211 225 208 211 225 208 211 225 208 211 225 208 211 225 208 211 
225 208 211 225 208 211 198 212 189 225 208 211 225 208 211 225 208 211 198 212 189 189 174 177 
128 159 167 126 145 132 88 132 154 164 179 131 126 145 132 88 132 124 65 150 115 65 150 115 
43 121 139 94 154 160 43 121 139 7 113 146 88 132 124 94 154 160 189 174 177 239 198 170 
198 212 189 156 195 167 156 159 166 156 159 166 156 159 166 128 159 167 7 145 184 7 145 184 

88 87 111 88 87 111 93 78 89 88 87 111 58 82 117 88 87 111 112 130 109 127 116 140 
143 150 131 127 116 140 161 151 130 161 151 130 112 104 110 54 92 81 24 56 81 7 48 75 
54 63 80 24 56 95 112 104 110 126 145 132 89 107 111 93 78 89 93 78 89 7 48 75 
54 63 80 54 63 80 54 63 80 155 144 90 88 87 111 155 144 90 40 64 95 24 56 95 
54 63 80 40 64 95 54 83 99 155 144 112 164 179 131 54 83 99 54 92 81 54 83 99 
24 56 81 40 64 95 24 56 95 40 64 95 93 78 89 155 144 90 59 95 109 40 64 95 
40 64 95 104 121 89 144 120 90 89 107 111 144 120 90 184 152 101 155 144 112 128 117 109 
184 152 101 155 144 112 128 117 109 89 107 111 112 130 109 184 152 101 144 120 90 159 125 108 
199 169 104 208 152 121 184 152 101 59 95 109 89 107 111 88 87 111 63 108 116 59 95 109 
29 95 109 89 107 111 59 95 109 58 82 117 112 130 109 128 117 109 104 121 89 104 121 89 
86 120 88 104 121 89 155 144 90 184 151 83 203 152 81 199 169 104 155 144 90 89 107 111 
112 114 119 199 169 104 199 169 104 199 169 104 199 169 104 159 125 108 155 144 112 155 144 112 
155 144 112 126 145 104 112 130 109 112 130 109 155 144 112 184 152 101 124 130 88 24 68 95 
89 107 111 203 152 81 128 117 109 89 107 111 124 130 88 155 181 94 155 154 99 199 169 104 
184 152 101 155 144 112 126 145 104 83 125 111 7 59 103 24 95 100 83 125 111 112 130 109 
58 82 117 97 125 111 112 130 109 155 154 99 128 117 109 155 144 112 112 114 119 155 154 99 
155 154 99 155 144 112 128 117 109 199 169 104 184 152 101 155 154 99 97 125 111 97 125 111 
155 144 112 155 154 99 124 130 88 124 130 88 184 152 101 155 154 99 155 154 99 159 125 108 
155 144 112 126 145 104 184 152 101 155 154 99 184 152 101 155 144 112 184 152 101 184 152 101 
184 152 101 184 152 101 159 125 108 199 169 104 239 168 94 239 168 94 216 154 83 175 126 88 
184 151 83 203 152 81 216 154 83 184 152 101 239 168 94 175 126 88 203 152 81 238 155 87 
216 154 83 239 168 94 239 168 94 238 155 87 238 155 87 239 168 94 239 168 94 239 168 94 
238 155 87 238 155 87 238 155 87 239 168 94 239 168 94 237 157 111 237 157 111 198 170 136 
198 170 136 198 170 136 210 180 169 210 180 169 210 180 169 210 180 169 210 180 169 210 180 169 
239 198 170 239 198 170 210 180 169 210 180 169 210 180 169 239 198 170 225 208 211 225 208 211 
225 208 211 225 208 211 225 208 211 225 208 211 225 208 211 225 208 211 225 208 211 225 208 211 
225 208 211 225 208 211 225 208 211 225 208 211 225 208 211 198 212 189 225 208 211 198 212 189 
210 180 169 189 174 152 88 132 154 126 145 132 198 196 136 94 154 160 57 121 132 27 121 132 
56 162 154 56 162 154 126 172 135 57 121 132 27 121 132 126 145 132 156 159 166 210 180 169 
198 212 189 198 212 189 198 212 189 189 174 177 156 159 166 189 174 152 128 159 167 42 156 192 

89 107 111 89 107 111 88 87 111 88 87 111 93 78 89 112 114 119 112 130 109 128 117 109 
112 114 119 112 114 119 112 130 109 58 82 117 24 56 95 54 63 80 24 56 81 7 56 82 
40 64 95 97 125 111 164 179 131 198 196 136 126 145 132 93 78 89 124 104 87 24 56 81 
93 78 89 60 64 95 24 56 95 93 98 84 55 71 109 112 104 110 54 83 99 24 68 95 
54 83 99 93 98 84 124 130 88 112 104 110 155 154 99 55 71 109 124 104 87 93 98 84 
55 83 74 144 120 90 124 104 87 40 64 95 54 83 99 55 71 109 93 98 84 54 83 99 
54 83 99 88 87 111 93 98 84 60 64 95 24 68 95 88 87 111 124 104 87 88 87 111 
144 120 90 159 125 108 184 152 101 155 144 112 128 117 109 159 125 108 88 87 111 144 120 90 
184 152 101 184 152 101 184 152 101 128 117 109 184 152 101 184 152 101 184 152 101 199 169 104 
126 145 104 144 120 90 128 117 109 128 117 109 184 152 101 184 152 101 128 117 109 89 107 111 
54 83 99 54 83 99 54 83 99 93 98 84 93 78 89 124 104 87 184 151 83 155 144 90 
184 152 101 184 152 101 184 152 101 184 152 101 155 144 112 112 130 109 97 125 111 88 87 111 
63 108 116 97 125 111 126 145 104 155 154 99 89 107 111 128 117 109 155 144 90 29 95 109 
124 104 87 203 152 81 203 152 81 155 144 90 159 125 108 89 107 111 112 130 109 155 144 112 
155 154 99 155 144 112 184 151 125 199 169 104 104 121 89 7 48 95 7 48 95 89 107 111 
155 181 94 63 108 116 88 132 124 126 145 104 63 108 116 112 130 109 184 152 101 159 125 108 
112 130 109 155 144 112 155 154 99 159 125 108 155 144 112 112 130 109 97 125 111 112 104 110 
155 154 99 128 117 109 155 154 99 126 145 104 89 107 111 126 145 104 126 145 104 112 130 109 
126 145 104 155 154 99 126 145 104 128 117 109 89 107 111 155 154 99 184 152 101 199 169 104 
184 152 101 184 152 101 184 152 101 199 169 104 239 168 94 238 155 87 238 155 87 216 154 83 
184 152 101 184 152 101 184 152 101 203 152 81 203 152 81 216 154 83 175 126 88 184 151 83 
203 152 81 216 154 83 216 154 83 239 168 94 239 168 94 239 168 94 239 168 94 238 155 87 
238 155 87 238 155 87 239 168 94 239 168 94 237 157 111 239 168 94 237 157 111 208 152 121 
198 170 136 198 170 136 210 180 169 210 180 169 210 180 169 210 180 169 210 180 169 210 180 169 
239 198 170 236 177 170 210 180 169 210 180 169 210 180 169 239 198 170 225 208 211 225 208 211 
225 208 211 225 208 211 225 208 211 225 208 211 225 208 211 225 208 211 225 208 211 225 208 211 
225 208 211 225 208 211 225 208 211 225 208 211 225 208 211 225 208 211 225 208 211 225 208 211 
198 212 189 210 180 169 197 213 164 126 145 132 128 159 167 189 174 152 147 177 131 88 132 154 
43 121 139 88 132 154 56 162 154 164 179 131 57 82 141 57 121 132 147 177 131 210 180 169 
198 212 189 198 212 189 198 212 189 198 212 189 189 174 177 156 159 166 189 174 152 156 159 166 

88 87 111 112 104 110 93 98 84 60 64 95 93 78 89 88 87 111 112 104 110 128 117 109 
155 144 112 112 114 119 112 130 109 89 107 111 54 83 99 24 56 81 24 56 72 7 48 75 
24 56 81 60 64 95 112 114 119 143 150 131 126 145 132 24 56 95 7 56 82 24 56 81 
54 63 80 155 144 90 93 98 84 93 98 84 93 98 84 104 121 89 54 63 80 24 56 81 
54 92 81 93 98 84 93 78 89 88 87 111 97 125 111 55 71 109 93 78 89 93 78 89 
40 64 95 54 83 99 40 64 95 7 56 82 54 83 99 54 92 81 60 64 95 54 63 80 
54 63 80 40 64 95 24 56 81 7 72 82 7 48 95 59 95 109 54 83 99 7 48 95 
24 56 95 60 64 95 60 64 95 112 104 110 112 104 110 128 117 109 88 87 111 128 117 109 
184 151 125 184 152 101 112 104 110 144 120 90 144 120 90 144 120 90 155 144 112 112 114 119 
88 87 111 112 114 119 184 152 101 184 152 101 184 151 125 128 117 109 112 114 119 126 145 104 
59 95 109 55 71 109 29 95 109 25 63 109 93 98 84 93 98 84 124 130 88 55 71 109 
59 95 109 89 107 111 128 117 109 128 117 109 112 130 109 89 107 111 89 107 111 63 108 116 
86 120 88 88 87 111 112 104 110 112 130 109 89 107 111 155 144 112 143 150 131 63 108 116 
112 104 110 199 169 104 199 169 104 199 169 104 199 169 104 199 169 104 161 151 130 161 151 130 
155 144 112 155 144 112 184 152 101 155 144 112 97 125 111 83 125 111 126 145 104 29 95 109 
126 145 132 126 145 132 199 197 101 199 169 104 155 144 112 184 152 101 199 169 104 89 107 111 
126 145 104 184 152 101 184 152 101 155 144 112 128 117 109 128 117 109 97 125 111 112 130 109 
155 144 112 199 169 104 240 189 96 240 189 96 128 117 109 112 130 109 155 154 99 112 130 109 
112 130 109 112 130 109 155 144 90 155 154 99 184 152 101 128 117 109 89 107 111 184 152 101 
184 152 101 184 152 101 199 169 104 199 169 104 238 155 87 239 168 94 216 154 83 159 125 108 
199 169 104 199 169 104 203 152 81 216 154 83 184 152 101 216 154 83 203 152 81 184 151 83 
184 151 83 216 154 83 238 155 87 239 168 94 238 155 87 239 168 94 239 168 94 238 155 87 
216 154 83 238 155 87 238 155 87 238 155 87 239 168 94 239 168 94 237 157 111 184 151 125 
184 151 125 198 170 136 198 170 136 210 180 169 210 180 169 210 180 169 210 180 169 210 180 169 
210 180 169 239 198 170 210 180 169 210 180 169 210 180 169 210 180 169 198 212 189 239 198 170 
225 208 211 225 208 211 225 208 211 225 208 211 225 208 211 225 208 211 225 208 211 225 208 211 
239 198 170 225 208 211 225 208 211 225 208 211 225 208 211 225 208 211 225 208 211 225 208 211 
225 208 211 198 212 189 189 174 177 197 213 164 156 159 166 94 154 160 189 174 152 164 179 131 
88 132 154 126 145 132 88 132 154 88 132 154 164 179 131 88 132 124 126 145 132 210 180 169 
239 198 170 198 212 189 189 174 177 210 180 169 210 180 169 189 174 177 156 159 166 189 174 152 

40 64 95 60 64 95 24 56 81 24 56 72 24 56 72 60 64 95 128 117 109 88 87 111 
112 104 110 112 104 110 128 117 109 159 125 108 159 125 108 54 83 99 40 64 95 93 78 89 
93 98 84 88 87 111 126 145 132 112 114 119 88 87 111 40 64 95 24 56 81 55 83 74 
7 48 95 54 83 99 54 83 99 40 64 95 89 107 111 59 95 109 7 48 75 7 48 75 
54 63 80 60 64 95 60 64 95 93 78 89 93 98 84 88 87 111 54 83 99 54 63 80 
24 56 81 40 64 95 40 64 95 7 56 82 55 83 74 24 68 95 24 68 95 24 68 95 
40 64 95 54 83 99 40 64 95 24 95 100 54 83 99 88 87 111 112 130 109 89 107 111 
59 95 109 54 83 99 7 56 82 89 107 111 128 117 109 112 104 110 144 120 90 155 144 112 
184 151 125 199 169 104 144 120 90 54 83 99 54 63 80 7 48 95 59 95 109 112 104 110 
97 125 111 89 107 111 89 107 111 128 117 109 184 151 125 199 169 104 155 144 112 199 169 104 
199 169 104 199 169 104 199 169 104 112 130 109 89 107 111 97 125 111 126 145 104 155 154 99 
104 121 89 59 95 109 59 95 109 54 83 99 60 64 95 86 120 88 144 120 90 88 87 111 
155 144 112 155 144 112 184 151 125 199 169 104 199 197 101 126 145 132 240 205 129 199 169 104 
199 169 104 239 168 94 240 189 96 208 152 121 240 205 129 240 205 129 240 205 129 240 205 129 
161 151 130 155 144 112 128 117 109 155 144 112 126 145 104 112 130 109 63 108 116 63 108 116 
155 154 99 155 144 112 155 144 112 184 151 125 199 169 104 155 144 112 155 154 99 126 145 104 
97 125 111 184 152 101 184 152 101 155 144 112 155 144 112 155 144 112 126 145 104 89 107 111 
89 107 111 126 145 104 184 152 101 155 144 112 184 152 101 89 107 111 112 130 109 155 154 99 
184 152 101 155 144 112 184 152 101 155 144 112 155 144 112 199 197 101 199 169 104 184 152 101 
203 152 81 203 152 81 184 152 101 216 154 83 216 154 83 208 152 121 203 152 81 184 152 101 
199 169 104 216 154 83 216 154 83 216 154 83 184 152 101 216 154 83 203 152 81 175 126 88 
175 126 88 238 155 87 238 155 87 239 168 94 238 155 87 238 155 87 238 155 87 238 155 87 
238 155 87 238 155 87 238 155 87 238 155 87 239 168 94 237 157 111 216 154 83 184 152 101 
184 152 101 208 152 121 198 170 136 210 180 169 210 180 169 210 180 169 210 180 169 210 180 169 
210 180 169 210 180 169 210 180 169 210 180 169 210 180 169 210 180 169 239 198 170 239 198 170 
239 198 170 225 208 211 225 208 211 225 208 211 225 208 211 225 208 211 225 208 211 225 208 211 
225 208 211 225 208 211 225 208 211 225 208 211 225 208 211 225 208 211 225 208 211 225 208 211 
225 208 211 225 208 211 210 180 169 189 174 177 210 180 169 156 159 166 94 154 160 147 177 131 
164 179 131 57 121 132 65 150 115 88 132 124 94 154 160 147 177 131 143 150 131 88 132 154 
189 174 152 198 212 189 210 180 169 156 159 166 189 174 177 210 180 169 189 174 177 189 174 152 

24 56 72 7 48 75 7 41 60 7 41 60 7 41 60 40 64 95 124 130 88 55 71 109 
60 64 95 93 78 89 88 87 111 159 125 108 184 151 125 128 117 109 93 78 89 93 78 89 
112 104 110 159 125 108 184 151 125 164 179 131 112 114 119 93 98 84 40 64 95 55 83 74 
40 64 95 60 64 95 54 83 99 24 56 95 128 117 109 155 144 112 7 48 95 7 29 75 
24 56 81 55 83 74 55 83 74 40 64 95 40 64 95 54 83 99 89 107 111 54 83 99 
93 78 89 93 78 89 93 98 84 93 98 84 54 83 99 24 68 95 40 64 95 112 104 110 
88 87 111 104 121 89 54 83 99 40 64 95 54 83 99 59 95 109 161 151 130 164 179 131 
112 130 109 54 92 81 6 33 96 112 130 109 155 181 94 54 83 99 93 98 84 155 144 112 
184 151 125 184 151 125 155 144 112 89 107 111 7 48 95 55 83 74 124 104 87 93 98 84 
54 83 99 54 83 99 7 75 102 59 95 109 143 150 131 184 151 125 155 144 112 155 144 112 
155 144 112 161 151 130 208 152 121 155 144 112 128 117 109 126 145 104 112 130 109 89 107 111 
89 107 111 89 107 111 89 107 111 93 98 84 59 95 109 40 64 95 59 95 109 112 130 109 
240 205 129 198 170 136 240 205 129 240 173 129 127 116 140 143 150 131 189 174 152 240 205 129 
237 157 111 240 189 96 199 169 104 58 82 117 112 114 119 199 169 104 112 114 119 161 151 130 
199 169 104 184 152 101 155 154 99 89 107 111 126 145 132 112 130 109 126 145 104 126 145 104 
63 125 116 155 144 112 89 107 111 89 107 111 112 104 110 89 107 111 63 108 116 112 114 119 
126 145 104 155 144 112 128 117 109 112 114 119 155 144 112 112 130 109 155 154 99 155 144 90 
126 145 104 97 125 111 97 125 111 89 107 111 97 125 111 112 130 109 126 145 104 155 154 99 
155 144 112 155 154 99 199 169 104 199 169 104 184 152 101 112 104 110 199 169 104 199 169 104 
175 126 88 175 126 88 155 154 99 216 154 83 216 154 83 199 169 104 216 154 83 203 152 81 
216 154 83 216 154 83 203 152 81 203 152 81 184 152 101 184 152 101 184 152 101 184 152 101 
184 152 101 216 154 83 216 154 83 216 154 83 216 154 83 216 154 83 216 154 83 238 155 87 
239 168 94 239 168 94 239 168 94 239 168 94 239 168 94 216 154 83 159 125 108 155 154 99 
155 144 112 161 151 130 198 170 136 198 170 136 210 180 169 210 180 169 210 180 169 210 180 169 
210 180 169 210 180 169 210 180 169 210 180 169 210 180 169 210 180 169 210 180 169 210 180 169 
210 180 169 239 198 170 225 208 211 225 208 211 225 208 211 225 208 211 225 208 211 225 208 211 
225 208 211 239 198 170 198 212 189 225 208 211 225 208 211 225 208 211 225 208 211 225 208 211 
225 208 211 225 208 211 239 198 170 198 212 189 189 174 177 198 212 189 189 174 152 126 145 132 
164 179 131 147 177 131 88 132 154 43 121 139 56 162 154 94 154 160 88 132 154 88 132 124 
88 132 154 189 174 152 198 212 189 198 212 189 189 174 177 189 174 177 189 174 177 189 174 152 

6 34 60 7 41 60 7 41 60 7 41 60 6 34 60 24 56 81 93 98 84 24 56 81 
40 64 95 60 64 95 112 104 110 112 104 110 128 117 109 88 87 111 124 104 87 88 87 111 
128 117 109 128 117 109 143 150 131 184 151 125 126 145 132 88 87 111 40 64 95 40 64 95 
93 98 84 93 98 84 155 154 99 89 107 111 126 145 104 155 144 112 54 83 99 55 83 74 
55 83 74 24 56 81 40 64 95 54 83 99 24 56 95 88 87 111 126 145 104 63 108 116 
25 63 109 7 59 103 40 64 95 93 78 89 124 104 87 40 64 95 25 63 109 112 114 119 
155 154 99 112 114 119 126 145 104 88 87 111 128 117 109 112 114 119 112 114 119 164 179 131 
143 150 131 7 48 95 7 56 82 59 95 109 184 152 101 25 63 109 7 48 95 112 104 110 
126 145 104 143 150 131 184 151 125 199 169 104 126 145 104 54 83 99 60 64 95 54 83 99 
7 48 95 7 56 82 7 48 95 25 63 109 89 107 111 112 114 119 112 114 119 63 108 116 
89 107 111 155 144 112 208 152 121 155 144 112 112 130 109 63 108 116 89 107 111 97 125 111 
89 107 111 89 107 111 89 107 111 89 107 111 155 154 99 155 154 99 155 154 99 112 104 110 
112 114 119 126 145 132 161 151 130 126 145 132 126 145 104 143 150 131 198 196 136 240 205 129 
199 169 104 126 145 132 88 132 124 112 130 109 59 95 109 63 108 116 97 125 111 83 125 111 
40 64 95 7 48 95 7 59 103 112 130 109 112 130 109 112 130 109 184 152 101 155 144 112 
63 108 116 112 130 109 58 82 117 124 130 88 155 154 99 97 125 111 97 125 111 97 125 111 
89 107 111 97 125 111 112 130 109 128 117 109 112 130 109 112 130 109 89 107 111 59 95 109 
112 130 109 126 145 104 112 130 109 184 151 83 184 152 101 199 169 104 112 114 119 126 145 104 
155 154 99 155 154 99 155 144 112 184 152 101 199 169 104 184 152 101 184 152 101 199 169 104 
216 154 83 203 152 81 184 152 101 184 152 101 184 152 101 239 168 94 216 154 83 216 154 83 
203 152 81 216 154 83 184 152 101 203 152 81 184 151 83 184 152 101 184 152 101 216 154 83 
216 154 83 203 152 81 216 154 83 216 154 83 216 154 83 216 154 83 238 155 87 216 154 83 
239 168 94 238 155 87 238 155 87 216 154 83 203 152 81 175 126 88 175 126 88 155 144 90 
155 144 112 155 144 112 161 151 130 198 170 136 210 180 169 210 180 169 210 180 169 210 180 169 
210 180 169 210 180 169 189 174 152 189 174 152 210 180 169 210 180 169 210 180 169 210 180 169 
210 180 169 198 212 189 239 198 170 198 212 189 225 208 211 225 208 211 225 208 211 225 208 211 
225 208 211 239 198 170 210 180 169 210 180 169 210 180 169 239 198 170 225 208 211 225 208 211 
225 208 211 225 208 211 225 208 211 225 208 211 197 198 212 197 198 212 198 212 189 210 180 169 
126 145 132 164 179 131 156 159 166 147 177 131 94 154 160 88 132 154 56 162 154 88 132 124 
57 121 132 88 132 154 189 174 152 239 198 170 239 198 170 210 180 169 189 174 177 189 174 177 

7 45 53 24 56 55 7 41 60 6 34 60 7 48 75 54 63 80 24 56 81 7 48 75 
24 56 72 24 56 81 60 64 95 60 64 95 40 64 95 54 63 80 93 78 89 124 104 87 
93 78 89 89 107 111 89 107 111 128 117 109 88 87 111 60 64 95 93 98 84 54 63 80 
60 64 95 89 107 111 89 107 111 59 95 109 88 87 111 93 98 84 24 56 95 24 56 81 
54 63 80 7 56 82 40 64 95 88 87 111 88 87 111 97 125 111 126 145 132 164 179 131 
126 145 132 89 107 111 58 82 117 55 71 109 88 87 111 54 83 99 59 95 109 112 114 119 
127 116 140 112 114 119 199 169 104 155 144 112 128 117 109 112 114 119 88 87 111 143 150 131 
164 179 131 27 76 117 7 59 103 27 76 117 161 151 130 126 145 104 24 68 95 60 64 95 
89 107 111 128 117 109 184 151 125 208 152 121 199 169 104 112 114 119 93 98 84 89 107 111 
54 83 99 24 95 100 7 75 102 59 95 109 89 107 111 58 82 117 89 107 111 83 125 111 
97 125 111 112 114 119 126 145 132 112 114 119 97 125 111 112 130 109 112 130 109 97 125 111 
89 107 111 112 104 110 97 125 111 89 107 111 112 114 119 155 144 112 155 144 112 59 95 109 
59 95 109 63 108 116 27 76 117 97 125 111 97 125 111 112 130 109 155 144 112 89 107 111 
58 82 117 112 114 119 126 145 104 54 92 81 7 72 82 24 95 100 104 121 89 54 83 99 
60 64 95 40 64 95 24 95 100 29 95 109 27 76 117 25 63 109 27 76 117 112 130 109 
88 132 124 155 144 112 126 145 104 112 114 119 112 130 109 89 107 111 89 107 111 63 108 116 
63 108 116 89 107 111 89 107 111 89 107 111 89 107 111 128 117 109 144 120 90 155 144 90 
126 145 104 126 145 104 126 145 104 155 154 99 112 104 110 199 169 104 240 189 96 128 117 109 
128 117 109 155 154 99 124 130 88 155 154 99 184 152 101 155 144 90 155 144 90 128 117 109 
184 151 83 159 125 108 216 154 83 203 152 81 203 152 81 239 168 94 216 154 83 239 168 94 
216 154 83 203 152 81 159 125 108 184 151 83 184 152 101 216 154 83 239 168 94 199 169 104 
199 169 104 203 152 81 184 151 83 216 154 83 216 154 83 216 154 83 238 155 87 239 168 94 
239 168 94 238 155 87 238 155 87 216 154 83 175 126 88 155 144 90 112 130 109 155 144 90 
155 144 90 112 130 109 143 150 131 184 151 125 198 170 136 210 180 169 210 180 169 210 180 169 
210 180 169 210 180 169 210 180 169 198 170 136 198 170 136 210 180 169 189 174 177 210 180 169 
210 180 169 210 180 169 210 180 169 236 177 170 239 198 170 198 212 189 225 208 211 225 208 211 
225 208 211 225 208 211 198 212 189 210 180 169 210 180 169 210 180 169 225 208 211 225 208 211 
225 208 211 225 208 211 225 208 211 225 208 211 225 208 211 198 212 189 197 198 212 198 212 189 
189 174 152 156 159 166 189 174 152 189 174 177 189 174 152 156 159 166 94 154 160 126 145 132 
88 132 124 57 121 132 88 132 124 189 174 152 198 212 189 210 180 169 210 180 169 189 174 177 

7 41 60 7 48 75 7 41 60 7 41 60 7 56 82 54 92 81 24 56 81 7 48 75 
7 48 75 24 56 72 54 63 80 54 92 81 24 56 95 54 63 80 7 48 75 54 63 80 
93 78 89 60 64 95 54 83 99 60 64 95 24 56 95 24 56 81 40 64 95 24 68 95 
54 83 99 112 130 109 112 104 110 54 92 81 7 48 75 7 56 82 24 56 81 40 64 95 
40 64 95 40 64 95 54 83 99 88 87 111 155 144 112 143 150 131 126 145 132 156 159 166 
189 174 152 198 196 136 198 196 136 164 179 131 161 151 130 126 145 132 112 114 119 161 151 130 
198 170 136 126 145 132 127 116 140 143 150 131 7 52 116 89 107 111 112 130 109 143 150 131 
161 151 130 143 150 131 89 107 111 59 95 109 128 117 109 199 169 104 89 107 111 104 121 89 
89 107 111 89 107 111 155 144 112 155 144 112 159 125 108 155 144 112 59 95 109 89 107 111 
59 95 109 54 83 99 7 59 103 7 59 103 54 83 99 54 83 99 54 83 99 24 68 95 
63 108 116 89 107 111 83 125 111 97 125 111 89 107 111 59 95 109 59 95 109 89 107 111 
112 104 110 112 104 110 89 107 111 86 120 88 54 83 99 93 78 89 124 104 87 40 64 95 
7 72 82 24 68 95 29 95 109 83 125 111 63 108 116 63 108 116 155 154 99 58 82 117 
126 145 104 63 108 116 97 125 111 7 29 75 6 34 60 7 48 75 24 68 95 7 59 103 
124 130 88 184 151 83 89 107 111 155 154 99 88 87 111 59 95 109 128 117 109 126 145 104 
159 125 108 199 169 104 89 107 111 97 125 111 97 125 111 128 117 109 112 130 109 112 130 109 
112 104 110 89 107 111 59 95 109 104 121 89 89 107 111 124 130 88 112 130 109 112 104 110 
89 107 111 112 104 110 126 145 104 155 154 99 128 117 109 89 107 111 199 169 104 199 169 104 
112 130 109 89 107 111 112 104 110 59 95 109 58 82 117 124 130 88 88 87 111 128 117 109 
184 152 101 203 152 81 203 152 81 203 152 81 184 152 101 203 152 81 216 154 83 216 154 83 
216 154 83 216 154 83 203 152 81 216 154 83 216 154 83 216 154 83 184 152 101 216 154 83 
184 151 83 124 104 87 144 120 90 216 154 83 216 154 83 203 152 81 216 154 83 216 154 83 
239 168 94 239 168 94 238 155 87 238 155 87 175 126 88 144 120 90 126 145 104 155 144 90 
144 120 90 97 125 111 143 150 131 161 151 130 198 170 136 198 170 136 198 170 136 189 174 152 
210 180 169 210 180 169 210 180 169 189 174 152 189 174 152 189 174 152 210 180 169 210 180 169 
210 180 169 210 180 169 210 180 169 210 180 169 198 212 189 225 208 211 225 208 211 225 208 211 
225 208 211 225 208 211 239 198 170 210 180 169 210 180 169 210 180 169 210 180 169 198 212 189 
225 208 211 225 208 211 225 208 211 225 208 211 225 208 211 239 198 170 210 180 169 198 212 189 
210 180 169 189 174 152 156 159 166 189 174 152 189 174 152 189 174 152 156 159 166 94 154 160 
164 179 131 161 151 130 57 121 132 88 132 124 189 174 152 210 180 169 210 180 169 189 174 177 

24 56 81 7 48 75 7 56 82 7 48 95 7 48 95 24 68 95 7 56 82 7 48 75 
7 48 75 24 56 81 24 68 95 40 64 95 54 83 99 7 56 82 7 48 75 7 48 75 
7 48 75 7 29 75 7 56 82 24 56 81 7 48 75 7 56 82 54 83 99 89 107 111 
59 95 109 112 104 110 112 104 110 40 64 95 7 56 82 24 67 72 55 83 74 24 68 95 
7 56 82 40 64 95 59 95 109 59 95 109 128 117 109 126 145 132 161 151 130 143 150 131 
143 150 131 189 174 152 240 205 129 240 205 129 240 173 129 240 205 129 127 116 140 143 150 131 
164 179 131 126 145 132 161 151 130 198 196 136 112 104 110 54 83 99 112 130 109 143 150 131 
147 177 131 161 151 130 112 104 110 124 104 87 58 82 117 112 130 109 89 107 111 124 130 88 
89 107 111 55 71 109 112 130 109 88 87 111 112 104 110 175 126 88 159 125 108 112 130 109 
112 114 119 27 76 117 7 48 95 7 56 82 7 48 75 7 29 75 7 48 75 6 33 96 
7 48 95 6 33 96 7 48 95 24 68 95 27 76 117 29 95 109 59 95 109 89 107 111 
88 87 111 59 95 109 7 59 103 7 48 75 7 41 60 6 34 60 7 41 60 7 41 60 
7 27 52 24 56 81 40 64 95 89 107 111 155 144 112 112 130 109 63 108 116 83 125 111 
27 76 117 83 125 111 86 120 88 6 34 60 7 34 46 6 34 60 54 92 81 124 130 88 
24 68 95 63 108 116 112 130 109 161 151 130 199 169 104 155 144 112 199 169 104 112 114 119 
97 125 111 126 145 104 155 144 112 112 130 109 128 117 109 89 107 111 97 125 111 128 117 109 
128 117 109 144 120 90 124 104 87 93 98 84 93 98 84 104 121 89 128 117 109 112 130 109 
112 130 109 144 120 90 128 117 109 126 145 104 155 154 99 124 130 88 112 104 110 184 152 101 
239 168 94 199 169 104 155 144 112 184 152 101 159 125 108 203 152 81 240 189 96 199 169 104 
199 169 104 184 152 101 184 152 101 203 152 81 203 152 81 216 154 83 216 154 83 216 154 83 
216 154 83 203 152 81 184 152 101 203 152 81 88 87 111 184 151 83 144 120 90 124 104 87 
54 63 80 7 56 82 124 130 88 203 152 81 216 154 83 216 154 83 216 154 83 203 152 81 
203 152 81 216 154 83 238 155 87 216 154 83 184 151 83 144 120 90 155 144 90 126 145 104 
155 144 112 112 130 109 126 145 132 161 151 130 164 179 131 198 170 136 198 170 136 198 170 136 
189 174 152 210 180 169 210 180 169 210 180 169 189 174 152 189 174 152 189 174 152 210 180 169 
210 180 169 210 180 169 210 180 169 210 180 169 198 212 189 210 180 169 239 198 170 239 198 170 
225 208 211 239 198 170 239 198 170 239 198 170 210 180 169 210 180 169 210 180 169 210 180 169 
210 180 169 225 208 211 239 198 170 239 198 170 239 198 170 225 208 211 210 180 169 198 212 189 
239 198 170 239 198 170 189 174 152 156 159 166 189 174 152 189 174 152 189 174 152 126 145 132 
143 150 131 198 170 136 143 150 131 27 121 132 88 132 124 164 179 131 210 180 169 239 198 170 

93 98 84 89 107 111 88 87 111 112 130 109 89 107 111 24 56 95 7 56 82 24 67 72 
7 56 82 40 64 95 7 48 95 40 64 95 54 83 99 24 56 81 7 48 75 7 48 75 
7 48 75 24 68 95 54 115 81 24 56 95 7 48 75 7 56 82 55 71 109 112 114 119 
112 130 109 58 82 117 88 87 111 40 64 95 7 56 82 24 56 81 24 56 95 24 56 95 
40 64 95 24 68 95 59 95 109 89 107 111 155 144 112 143 150 131 143 150 131 143 150 131 
112 114 119 161 151 130 143 150 131 88 87 111 55 71 109 155 144 112 112 114 119 112 114 119 
127 116 140 147 177 131 88 100 145 112 104 110 40 64 95 7 29 75 93 98 84 112 104 110 
155 144 112 143 150 131 58 82 117 88 87 111 54 83 99 89 107 111 88 87 111 93 98 84 
93 78 89 54 83 99 88 87 111 40 64 95 40 64 95 93 78 89 60 64 95 58 82 117 
155 144 112 63 108 116 7 59 103 7 56 82 7 48 95 7 48 75 7 72 82 24 68 95 
59 95 109 63 108 116 7 75 102 7 75 102 59 95 109 59 95 109 89 107 111 59 95 109 
59 95 109 24 68 95 7 56 82 6 34 60 7 27 52 7 27 52 7 34 46 7 34 46 
7 34 46 24 67 72 24 68 95 54 83 99 59 95 109 112 114 119 97 125 111 63 108 116 
29 95 109 29 95 109 7 56 82 6 34 60 7 48 75 7 48 75 7 48 75 24 68 95 
54 63 80 89 107 111 88 87 111 199 169 104 155 144 112 128 117 109 59 95 109 155 144 112 
126 145 104 155 154 99 58 82 117 89 107 111 89 107 111 97 125 111 112 104 110 112 104 110 
112 104 110 112 104 110 93 98 84 54 83 99 54 83 99 93 98 84 144 120 90 97 125 111 
112 104 110 124 130 88 128 117 109 155 154 99 159 125 108 155 154 99 155 144 90 89 107 111 
128 117 109 155 144 90 184 152 101 199 169 104 216 154 83 199 169 104 184 152 101 184 152 101 
184 152 101 184 152 101 203 152 81 203 152 81 216 154 83 216 154 83 203 152 81 203 152 81 
203 152 81 184 151 83 203 152 81 184 151 83 203 152 81 155 144 112 155 144 90 203 152 81 
93 78 89 7 48 75 93 98 84 175 126 88 203 152 81 216 154 83 216 154 83 216 154 83 
203 152 81 216 154 83 238 155 87 216 154 83 184 151 83 144 120 90 124 130 88 126 145 104 
155 144 112 112 130 109 112 130 109 143 150 131 161 151 130 198 170 136 198 170 136 198 170 136 
189 174 152 210 180 169 210 180 169 210 180 169 210 180 169 189 174 152 189 174 152 189 174 152 
210 180 169 210 180 169 210 180 169 210 180 169 210 180 169 210 180 169 210 180 169 239 198 170 
239 198 170 239 198 170 239 198 170 210 180 169 210 180 169 189 174 152 189 174 152 189 174 152 
210 180 169 198 212 189 239 198 170 210 180 169 239 198 170 198 212 189 239 198 170 210 180 169 
210 180 169 238 227 170 239 198 170 189 174 177 189 174 177 189 174 152 189 174 152 126 145 132 
126 145 132 161 151 130 240 173 129 161 151 130 112 114 119 143 150 131 156 159 166 210 180 169 

60 64 95 63 108 116 88 87 111 63 108 116 89 107 111 24 68 95 24 67 72 7 48 75 
24 56 81 54 83 99 24 56 95 60 64 95 54 83 99 54 63 80 24 56 81 55 83 74 
55 83 74 24 68 95 93 78 89 54 83 99 54 63 80 7 56 82 40 64 95 126 145 104 
128 117 109 88 87 111 199 169 104 128 117 109 93 98 84 93 98 84 112 130 109 155 154 99 
88 87 111 112 114 119 126 145 104 55 71 109 128 117 109 155 144 112 143 150 131 143 150 131 
58 82 117 112 104 110 126 145 132 58 82 117 54 83 99 144 120 90 159 125 108 144 120 90 
88 87 111 112 114 119 97 125 111 54 83 99 7 29 75 7 27 52 7 48 75 40 64 95 
97 125 111 128 117 109 112 114 119 126 145 104 93 78 89 89 107 111 88 87 111 60 64 95 
24 56 95 24 68 95 40 64 95 24 68 95 93 98 84 54 83 99 40 64 95 59 95 109 
155 144 112 128 117 109 27 76 117 54 83 99 104 121 89 54 83 99 24 95 100 29 95 109 
59 95 109 89 107 111 59 95 109 83 125 111 7 59 103 7 48 95 54 83 99 59 95 109 
24 56 95 7 56 82 7 48 75 7 27 52 7 18 45 7 27 52 7 34 46 6 27 33 
7 18 45 6 34 60 24 68 95 54 83 99 59 95 109 59 95 109 59 95 109 83 125 111 
57 121 132 63 108 116 7 29 75 7 29 75 86 120 88 54 83 99 7 59 103 7 48 95 
7 48 95 89 107 111 83 125 111 58 82 117 89 107 111 155 144 90 88 87 111 112 130 109 
112 114 119 112 130 109 59 95 109 63 108 116 112 104 110 112 104 110 128 117 109 128 117 109 
97 125 111 128 117 109 93 98 84 93 98 84 54 83 99 112 130 109 128 117 109 144 120 90 
124 130 88 112 104 110 124 130 88 112 130 109 126 145 104 159 125 108 159 125 108 155 144 90 
124 130 88 89 107 111 89 107 111 128 117 109 175 126 88 184 151 83 175 126 88 184 152 101 
184 152 101 184 152 101 184 152 101 203 152 81 184 151 83 203 152 81 216 154 83 216 154 83 
175 126 88 184 151 83 175 126 88 144 120 90 144 120 90 203 152 81 184 152 101 184 151 83 
203 152 81 124 104 87 54 83 99 155 144 90 203 152 81 216 154 83 203 152 81 203 152 81 
216 154 83 216 154 83 238 155 87 216 154 83 216 154 83 184 151 83 144 120 90 126 145 104 
155 144 112 126 145 104 83 125 111 112 130 109 155 144 112 164 179 131 184 151 125 198 170 136 
189 174 152 210 180 169 210 180 169 210 180 169 210 180 169 210 180 169 210 180 169 189 174 152 
210 180 169 210 180 169 210 180 169 210 180 169 210 180 169 210 180 169 210 180 169 210 180 169 
239 198 170 239 198 170 239 198 170 236 177 170 236 177 170 198 170 136 198 170 136 189 174 152 
210 180 169 210 180 169 210 180 169 210 180 169 236 177 170 239 198 170 239 198 170 210 180 169 
210 180 169 210 180 169 225 208 211 198 212 189 189 174 177 189 174 152 189 174 152 189 174 152 
126 145 132 88 132 124 161 151 130 198 196 136 161 151 130 143 150 131 189 174 152 156 159 166 

88 87 111 59 95 109 58 82 117 89 107 111 40 64 95 7 48 75 7 48 75 7 41 60 
7 48 75 40 64 95 54 83 99 24 56 95 54 92 81 60 64 95 54 83 99 40 64 95 
40 64 95 40 64 95 54 83 99 54 63 80 24 56 81 93 98 84 60 64 95 126 145 104 
126 145 132 88 87 111 112 104 110 112 104 110 89 107 111 128 117 109 155 144 112 159 125 108 
155 154 99 128 117 109 83 125 111 59 95 109 7 59 103 89 107 111 97 125 111 89 107 111 
59 95 109 27 76 117 112 104 110 126 145 104 89 107 111 93 78 89 93 78 89 93 78 89 
60 64 95 88 87 111 89 107 111 25 63 109 7 48 75 6 34 60 7 41 60 7 48 75 
104 121 89 89 107 111 58 82 117 104 121 89 93 78 89 88 87 111 124 104 87 93 78 89 
93 98 84 128 117 109 89 107 111 59 95 109 112 104 110 112 104 110 88 87 111 89 107 111 
155 144 112 128 117 109 63 108 116 27 76 117 63 108 116 89 107 111 59 95 109 27 76 117 
7 59 103 54 83 99 63 108 116 126 145 104 155 154 99 40 64 95 7 59 103 59 95 109 
24 68 95 7 48 95 7 48 75 7 34 46 7 18 45 7 27 52 7 34 46 6 27 33 
6 27 33 7 18 45 24 67 72 59 95 109 59 95 109 63 108 116 29 95 109 89 107 111 
143 150 131 54 83 99 7 29 75 7 56 82 199 169 104 199 169 104 88 132 124 112 130 109 
42 120 116 112 130 109 155 154 99 112 130 109 83 125 111 88 87 111 104 121 89 59 95 109 
59 95 109 124 130 88 240 189 96 199 169 104 155 154 99 128 117 109 128 117 109 112 130 109 
128 117 109 88 87 111 93 98 84 88 87 111 112 130 109 112 130 109 112 104 110 124 130 88 
155 144 90 155 144 90 112 130 109 128 117 109 144 120 90 155 144 90 184 152 101 128 117 109 
155 154 99 155 144 90 184 151 83 104 121 89 55 71 109 54 83 99 93 98 84 155 144 90 
184 152 101 184 152 101 184 152 101 184 152 101 55 71 109 144 120 90 144 120 90 184 151 83 
144 120 90 184 151 83 175 126 88 184 151 83 88 87 111 104 121 89 144 120 90 54 83 99 
93 98 84 93 98 84 54 83 99 184 151 83 184 152 101 203 152 81 203 152 81 203 152 81 
216 154 83 216 154 83 216 154 83 216 154 83 239 168 94 203 152 81 144 120 90 112 130 109 
155 144 112 159 125 108 112 130 109 97 125 111 88 132 124 143 150 131 164 179 131 198 170 136 
189 174 152 198 170 136 210 180 169 210 180 169 210 180 169 210 180 169 210 180 169 210 180 169 
189 174 152 210 180 169 210 180 169 210 180 169 210 180 169 210 180 169 210 180 169 210 180 169 
210 180 169 239 198 170 239 198 170 236 177 170 236 177 170 189 174 152 189 174 152 189 174 152 
189 174 152 210 180 169 210 180 169 210 180 169 210 180 169 210 180 169 239 198 170 210 180 169 
210 180 169 210 180 169 210 180 169 225 208 211 210 180 169 189 174 177 189 174 152 189 174 177 
189 174 152 143 150 131 143 150 131 164 179 131 198 170 136 184 151 125 189 174 152 147 177 131 

112 114 119 112 114 119 112 114 119 112 130 109 40 64 95 7 48 75 6 34 60 6 34 60 
7 41 60 24 56 95 59 95 109 40 64 95 54 83 99 128 117 109 112 104 110 112 104 110 
112 104 110 88 87 111 40 64 95 24 56 81 7 48 75 24 56 81 60 64 95 112 104 110 
199 169 104 199 169 104 198 196 136 198 196 136 184 152 101 159 125 108 60 64 95 24 56 81 
24 56 95 54 83 99 54 83 99 54 83 99 24 68 95 55 71 109 112 130 109 59 95 109 
58 82 117 59 95 109 55 71 109 126 145 104 155 144 90 24 56 95 7 48 75 7 48 75 
24 56 81 89 107 111 88 132 124 63 108 116 7 48 95 7 48 75 7 48 75 7 48 75 
60 64 95 97 125 111 58 82 117 88 87 111 93 78 89 124 104 87 128 117 109 112 104 110 
128 117 109 159 125 108 155 144 112 89 107 111 112 104 110 88 87 111 112 104 110 89 107 111 
155 144 112 143 150 131 155 144 112 128 117 109 155 144 112 161 151 130 184 151 125 89 107 111 
29 95 109 7 59 103 7 48 95 89 107 111 184 152 101 112 130 109 29 95 109 63 125 116 
63 108 116 7 56 82 7 41 60 6 34 60 7 18 45 7 34 46 6 27 33 6 27 33 
6 27 33 6 27 33 7 27 52 54 63 80 89 107 111 89 107 111 59 95 109 89 107 111 
112 114 119 7 59 103 7 48 75 7 48 95 112 130 109 127 116 140 164 179 131 198 170 136 
126 145 132 58 82 117 155 144 112 199 169 104 89 107 111 124 130 88 27 76 117 112 130 109 
126 145 104 55 71 109 112 104 110 199 169 104 199 169 104 128 117 109 128 117 109 128 117 109 
128 117 109 112 104 110 124 130 88 144 120 90 144 120 90 159 125 108 144 120 90 144 120 90 
144 120 90 159 125 108 155 144 112 159 125 108 155 154 99 155 144 90 112 130 109 144 120 90 
126 145 104 159 125 108 155 154 99 184 152 101 155 144 90 155 144 90 59 95 109 54 83 99 
155 144 90 144 120 90 155 144 112 203 152 81 124 104 87 144 120 90 199 169 104 216 154 83 
175 126 88 124 104 87 184 151 83 93 78 89 86 120 88 184 151 83 144 120 90 93 98 84 
104 121 89 104 121 89 54 83 99 184 151 83 184 152 101 216 154 83 203 152 81 203 152 81 
203 152 81 238 155 87 216 154 83 239 168 94 239 168 94 237 157 111 184 152 101 159 125 108 
112 130 109 126 145 104 128 117 109 112 130 109 83 125 111 126 145 104 161 151 130 198 170 136 
198 170 136 198 170 136 189 174 152 210 180 169 189 174 152 210 180 169 210 180 169 210 180 169 
210 180 169 210 180 169 210 180 169 210 180 169 210 180 169 210 180 169 210 180 169 210 180 169 
210 180 169 239 198 170 239 198 170 239 198 170 210 180 169 210 180 169 198 170 136 198 170 136 
198 170 136 210 180 169 210 180 169 210 180 169 198 212 189 239 198 170 198 212 189 210 180 169 
210 180 169 210 180 169 210 180 169 210 180 169 198 212 189 189 174 177 189 174 152 156 159 166 
189 174 152 164 179 131 161 151 130 161 151 130 198 170 136 161 151 130 161 151 130 161 151 130 

63 108 116 58 82 117 55 71 109 59 95 109 7 56 82 7 48 75 7 48 75 7 48 75 
7 48 75 7 48 95 88 87 111 112 104 110 88 87 111 128 117 109 128 117 109 128 117 109 
112 104 110 40 64 95 54 63 80 24 56 72 24 56 72 24 56 72 24 56 72 40 64 95 
112 104 110 128 117 109 128 117 109 184 152 101 88 87 111 24 41 78 7 48 75 7 41 60 
24 56 72 7 48 75 24 68 95 7 72 82 24 56 95 54 83 99 89 107 111 88 87 111 
59 95 109 59 95 109 40 64 95 55 71 109 93 78 89 7 48 75 7 41 60 6 34 60 
7 48 75 40 64 95 112 114 119 97 125 111 29 95 109 7 56 82 7 56 82 7 48 75 
93 98 84 89 107 111 55 71 109 124 104 87 93 78 89 128 117 109 128 117 109 88 87 111 
88 87 111 88 87 111 128 117 109 59 95 109 112 104 110 89 107 111 124 104 87 112 104 110 
88 87 111 184 152 101 155 144 112 112 114 119 112 104 110 128 117 109 128 117 109 184 152 101 
112 130 109 59 95 109 29 95 109 59 95 109 58 82 117 97 125 111 112 104 110 89 107 111 
97 125 111 7 59 103 7 41 60 6 34 60 7 18 45 7 34 46 6 27 33 6 27 33 
6 27 33 7 18 45 7 27 52 7 41 60 7 48 75 24 67 72 7 59 103 126 145 104 
112 130 109 59 95 109 24 95 100 24 95 100 89 107 111 155 144 112 143 150 131 143 150 131 
184 152 101 59 95 109 7 59 103 63 108 116 88 87 111 126 145 104 112 130 109 143 150 131 
128 117 109 89 107 111 124 130 88 128 117 109 184 152 101 112 114 119 128 117 109 112 104 110 
89 107 111 124 104 87 104 121 89 128 117 109 128 117 109 155 144 112 155 144 112 128 117 109 
155 144 90 155 144 90 128 117 109 155 144 90 144 120 90 112 130 109 144 120 90 126 145 104 
155 144 112 155 154 99 184 152 101 199 169 104 184 152 101 184 152 101 155 144 90 25 63 109 
124 130 88 184 151 83 184 152 101 184 152 101 128 117 109 184 151 83 239 168 94 240 189 96 
216 154 83 124 104 87 40 64 95 86 120 88 155 144 90 184 152 101 175 126 88 155 144 90 
124 104 87 124 130 88 155 144 90 203 152 81 216 154 83 216 154 83 216 154 83 203 152 81 
216 154 83 216 154 83 216 154 83 216 154 83 216 154 83 216 154 83 216 154 83 159 125 108 
155 144 90 126 145 104 128 117 109 126 145 104 83 125 111 83 125 111 143 150 131 161 151 130 
164 179 131 198 170 136 189 174 152 189 174 152 189 174 152 189 174 152 210 180 169 236 177 170 
210 180 169 189 174 152 210 180 169 210 180 169 210 180 169 210 180 169 210 180 169 210 180 169 
210 180 169 210 180 169 236 177 170 210 180 169 210 180 169 198 170 136 198 170 136 198 170 136 
189 174 152 189 174 152 210 180 169 210 180 169 210 180 169 239 198 170 239 198 170 239 198 170 
210 180 169 210 180 169 239 198 170 210 180 169 239 198 170 198 212 189 189 174 177 156 159 166 
161 151 130 189 174 152 156 159 166 156 159 166 161 151 130 184 151 125 57 121 132 126 145 132 

54 83 99 24 56 95 24 56 95 7 48 95 7 48 75 7 48 75 7 56 82 7 56 82 
93 98 84 55 71 109 88 132 124 89 107 111 58 82 117 144 120 90 88 87 111 93 78 89 
54 63 80 7 48 75 7 41 60 7 41 60 7 41 60 6 34 60 7 41 60 24 56 72 
54 63 80 54 63 80 54 63 80 54 63 80 24 41 78 24 56 55 7 41 60 6 34 60 
7 41 60 7 41 60 24 56 72 7 48 75 24 56 81 54 92 81 54 83 99 24 68 95 
24 68 95 24 68 95 59 95 109 89 107 111 7 56 82 6 34 60 6 34 60 7 29 75 
54 92 81 24 68 95 25 63 109 63 108 116 63 108 116 24 68 95 24 56 81 24 56 72 
60 64 95 93 98 84 54 83 99 24 56 95 24 56 95 93 98 84 93 78 89 93 98 84 
40 64 95 93 98 84 88 87 111 89 107 111 59 95 109 40 64 95 24 56 95 93 98 84 
7 48 95 40 64 95 88 87 111 59 95 109 7 59 103 7 59 103 7 59 103 55 71 109 
89 107 111 59 95 109 63 108 116 155 144 112 155 154 99 97 125 111 112 104 110 89 107 111 
59 95 109 7 48 95 7 29 75 7 41 60 6 34 60 7 18 45 7 34 46 6 27 33 
6 27 33 6 27 33 7 34 46 7 45 53 7 27 52 6 34 60 7 48 95 155 154 99 
155 144 112 97 125 111 63 108 116 58 82 117 58 82 117 126 145 104 240 189 96 155 144 112 
126 145 132 184 152 101 58 82 117 112 130 109 88 87 111 59 95 109 112 130 109 155 154 99 
199 169 104 59 95 109 124 130 88 55 71 109 55 71 109 112 104 110 112 104 110 89 107 111 
112 104 110 104 121 89 112 130 109 155 144 112 128 117 109 126 145 104 184 152 101 159 125 108 
155 144 90 184 152 101 128 117 109 144 120 90 155 144 90 155 144 90 155 144 90 155 144 90 
159 125 108 184 152 101 184 152 101 184 152 101 203 152 81 184 151 83 203 152 81 93 98 84 
24 68 95 89 107 111 184 152 101 184 152 101 159 125 108 184 151 83 199 169 104 208 152 121 
216 154 83 175 126 88 93 98 84 155 144 90 155 144 90 159 125 108 184 152 101 184 152 101 
155 144 90 184 151 83 184 151 83 184 152 101 203 152 81 203 152 81 216 154 83 203 152 81 
216 154 83 216 154 83 216 154 83 216 154 83 216 154 83 216 154 83 216 154 83 175 126 88 
144 120 90 126 145 104 97 125 111 112 130 109 112 130 109 63 125 116 88 132 124 143 150 131 
161 151 130 189 174 152 198 170 136 189 174 152 198 170 136 189 174 152 189 174 152 210 180 169 
210 180 169 210 180 169 210 180 169 210 180 169 189 174 152 189 174 152 189 174 152 189 174 152 
189 174 152 210 180 169 210 180 169 239 198 170 236 177 170 198 170 136 198 170 136 198 170 136 
198 170 136 189 174 152 210 180 169 210 180 169 210 180 169 210 180 169 239 198 170 239 198 170 
239 198 170 210 180 169 210 180 169 210 180 169 210 180 169 239 198 170 239 198 170 210 180 169 
161 151 130 164 179 131 189 174 152 189 174 152 161 151 130 143 150 131 57 121 132 57 121 132 

24 68 95 24 56 81 24 56 81 7 56 82 24 56 81 7 48 95 24 56 95 24 56 95 
93 98 84 27 76 117 128 117 109 89 107 111 24 56 95 54 63 80 24 67 72 7 48 75 
7 41 60 7 41 60 7 41 60 6 34 60 7 34 46 7 34 46 7 41 60 6 34 60 
6 34 60 6 34 60 7 41 60 24 56 72 55 83 74 6 34 60 7 41 60 7 34 46 
7 34 46 6 34 60 7 41 60 7 48 75 7 48 75 7 48 75 24 56 81 24 68 95 
24 68 95 54 83 99 59 95 109 40 64 95 7 48 75 7 41 60 7 45 53 7 29 75 
24 68 95 104 121 89 59 95 109 88 87 111 112 130 109 25 63 109 7 48 95 7 48 75 
54 83 99 88 87 111 54 83 99 7 56 82 7 48 95 54 92 81 54 83 99 60 64 95 
40 64 95 54 83 99 54 83 99 59 95 109 97 125 111 27 76 117 54 83 99 104 121 89 
7 48 95 24 67 72 24 56 81 24 68 95 89 107 111 112 130 109 89 107 111 89 107 111 
59 95 109 54 83 99 55 71 109 155 144 112 184 151 125 112 114 119 89 107 111 112 130 109 
124 130 88 7 75 102 7 72 82 7 56 82 24 67 72 6 34 60 7 34 46 6 27 33 
6 27 33 6 27 33 7 34 46 7 34 46 7 34 46 7 27 52 7 56 82 104 121 89 
89 107 111 155 144 112 198 170 136 240 189 96 199 197 101 40 64 95 55 71 109 144 120 90 
112 104 110 112 104 110 126 145 104 88 87 111 104 121 89 24 56 95 59 95 109 58 82 117 
89 107 111 58 82 117 155 144 90 159 125 108 89 107 111 59 95 109 89 107 111 59 95 109 
128 117 109 112 104 110 112 114 119 155 144 112 155 144 112 128 117 109 128 117 109 155 144 112 
128 117 109 155 154 99 155 154 99 128 117 109 144 120 90 155 144 90 155 154 99 159 125 108 
155 144 90 184 152 101 184 152 101 203 152 81 175 126 88 155 144 90 155 144 90 144 120 90 
104 121 89 60 64 95 112 104 110 184 151 83 159 125 108 155 144 90 199 169 104 239 168 94 
239 168 94 175 126 88 93 98 84 144 120 90 144 120 90 184 151 83 216 154 83 239 168 94 
144 120 90 144 120 90 184 151 83 184 152 101 203 152 81 203 152 81 203 152 81 216 154 83 
203 152 81 216 154 83 216 154 83 184 152 101 203 152 81 184 152 101 184 152 101 159 125 108 
144 120 90 97 125 111 128 117 109 112 130 109 126 145 104 97 125 111 63 125 116 88 132 124 
126 145 132 161 151 130 189 174 152 198 170 136 198 170 136 198 170 136 189 174 152 189 174 152 
189 174 152 210 180 169 210 180 169 210 180 169 210 180 169 198 170 136 198 170 136 189 174 152 
210 180 169 210 180 169 210 180 169 210 180 169 210 180 169 210 180 169 198 170 136 198 170 136 
198 170 136 189 174 152 189 174 152 210 180 169 210 180 169 210 180 169 210 180 169 198 212 189 
239 198 170 210 180 169 210 180 169 239 198 170 210 180 169 210 180 169 239 198 170 198 212 189 
189 174 152 189 174 152 189 174 152 189 174 152 189 174 152 161 151 130 126 172 135 126 145 132 

40 64 95 24 56 81 24 56 72 24 56 81 93 98 84 93 98 84 93 98 84 24 56 95 
60 64 95 59 95 109 112 130 109 59 95 109 7 29 75 7 41 60 7 41 60 7 41 60 
7 41 60 7 41 60 7 41 60 7 41 60 7 41 60 7 45 53 7 41 60 7 45 53 
7 45 53 7 41 60 7 41 60 7 41 60 7 41 60 7 45 53 7 45 53 7 45 53 
7 34 46 7 41 60 24 56 72 24 67 72 7 56 82 7 56 82 24 68 95 24 68 95 
24 68 95 24 68 95 59 95 109 7 48 95 7 48 75 6 34 60 6 34 60 7 48 75 
7 56 82 24 68 95 40 64 95 40 64 95 55 71 109 54 83 99 24 56 81 7 48 75 
60 64 95 112 104 110 7 59 103 24 56 95 54 83 99 55 71 109 112 104 110 59 95 109 
24 56 95 54 63 80 24 56 95 93 98 84 97 125 111 89 107 111 88 87 111 112 130 109 
55 71 109 7 48 95 7 56 82 40 64 95 88 87 111 112 114 119 59 95 109 97 125 111 
59 95 109 54 83 99 7 48 95 112 104 110 184 151 125 199 169 104 112 114 119 58 82 117 
97 125 111 58 82 117 7 59 103 7 59 103 54 92 81 7 56 82 7 27 52 4 8 47 
7 34 46 7 34 46 7 18 45 7 18 45 7 27 52 7 41 60 54 63 80 88 87 111 
89 107 111 164 179 131 208 152 121 208 152 121 159 125 108 6 33 96 55 83 74 124 130 88 
29 95 109 89 107 111 199 197 101 199 169 104 155 144 90 104 121 89 29 95 109 97 125 111 
155 144 112 112 114 119 112 130 109 184 152 101 112 130 109 58 82 117 89 107 111 112 130 109 
126 145 104 128 117 109 126 145 104 155 144 112 155 144 112 144 120 90 128 117 109 155 144 112 
155 144 90 144 120 90 155 144 90 155 144 90 155 154 99 155 144 90 155 144 90 184 152 101 
184 152 101 184 152 101 175 126 88 203 152 81 175 126 88 184 151 83 155 144 90 155 144 90 
144 120 90 59 95 109 59 95 109 144 120 90 175 126 88 144 120 90 128 117 109 144 120 90 
144 120 90 155 144 90 112 104 110 124 130 88 144 120 90 155 144 90 216 154 83 175 126 88 
93 78 89 93 98 84 184 151 83 203 152 81 216 154 83 203 152 81 203 152 81 203 152 81 
216 154 83 216 154 83 203 152 81 199 169 104 184 152 101 184 152 101 203 152 81 175 126 88 
104 121 89 124 130 88 112 130 109 126 145 104 155 144 90 112 130 109 97 125 111 97 125 111 
112 130 109 126 145 132 147 177 131 189 174 152 189 174 152 189 174 152 198 170 136 198 170 136 
189 174 152 189 174 152 210 180 169 210 180 169 210 180 169 189 174 152 198 170 136 189 174 152 
189 174 152 210 180 169 210 180 169 210 180 169 210 180 169 210 180 169 189 174 152 198 170 136 
198 170 136 189 174 152 189 174 152 189 174 152 210 180 169 210 180 169 210 180 169 210 180 169 
239 198 170 225 208 211 198 212 189 198 212 189 210 180 169 210 180 169 210 180 169 239 198 170 
210 180 169 189 174 152 198 170 136 161 151 130 189 174 152 189 174 152 189 174 152 143 150 131 

54 83 99 24 56 81 24 56 81 24 56 81 24 56 81 24 56 95 54 83 99 40 64 95 
24 56 81 40 64 95 55 71 109 54 92 81 7 41 60 7 41 60 7 41 60 7 41 60 
7 41 60 7 48 75 7 41 60 7 48 75 24 56 72 7 41 60 7 41 60 6 34 60 
7 41 60 7 41 60 6 34 60 7 34 46 7 34 46 7 34 46 7 34 46 7 34 46 
7 34 46 7 41 60 24 67 72 40 64 95 24 56 95 54 92 81 40 64 95 24 68 95 
7 72 82 24 56 81 40 64 95 7 48 75 7 41 60 6 34 60 24 56 55 24 67 72 
54 63 80 7 48 75 24 56 72 7 48 75 54 92 81 54 83 99 7 48 75 7 29 75 
93 98 84 199 169 104 199 197 101 128 117 109 128 117 109 112 104 110 155 144 112 89 107 111 
93 98 84 7 48 75 7 48 75 24 56 95 27 76 117 112 130 109 128 117 109 128 117 109 
155 144 112 128 117 109 24 56 95 54 83 99 112 130 109 89 107 111 27 76 117 54 83 99 
54 83 99 54 92 81 6 33 96 93 98 84 184 152 101 237 157 111 240 205 129 199 169 104 
184 151 125 161 151 130 83 125 111 7 73 121 89 107 111 54 83 99 7 48 95 24 41 78 
7 48 75 7 29 75 7 48 75 7 29 75 7 48 75 89 107 111 58 82 117 112 130 109 
159 125 108 155 144 90 126 145 104 89 107 111 54 92 81 24 56 81 24 67 72 40 64 95 
24 68 95 59 95 109 25 63 109 55 71 109 7 59 103 54 83 99 126 145 104 89 107 111 
155 154 99 112 130 109 59 95 109 97 125 111 126 145 104 126 145 104 112 104 110 112 104 110 
83 125 111 126 145 104 128 117 109 128 117 109 112 130 109 126 145 104 128 117 109 128 117 109 
155 144 90 159 125 108 155 144 90 159 125 108 144 120 90 155 144 90 155 144 90 184 152 101 
184 152 101 184 152 101 175 126 88 184 151 83 184 151 83 144 120 90 184 151 83 199 169 104 
239 168 94 199 169 104 126 145 104 124 130 88 24 56 95 124 130 88 144 120 90 7 48 95 
40 64 95 89 107 111 199 169 104 239 168 94 216 154 83 175 126 88 203 152 81 144 120 90 
93 98 84 124 130 88 124 130 88 203 152 81 216 154 83 216 154 83 216 154 83 239 168 94 
216 154 83 216 154 83 216 154 83 216 154 83 184 151 83 203 152 81 184 152 101 184 151 83 
144 120 90 128 117 109 124 130 88 112 130 109 126 145 104 126 145 104 126 145 104 97 125 111 
97 125 111 126 145 132 143 150 131 164 179 131 189 174 152 189 174 152 198 170 136 184 151 125 
198 170 136 189 174 152 189 174 152 189 174 152 210 180 169 210 180 169 198 170 136 189 174 152 
189 174 152 210 180 169 210 180 169 210 180 169 210 180 169 210 180 169 210 180 169 198 170 136 
198 170 136 189 174 152 189 174 152 189 174 152 198 170 136 189 174 152 210 180 169 210 180 169 
210 180 169 239 198 170 198 212 189 210 180 169 210 180 169 210 180 169 210 180 169 210 180 169 
210 180 169 189 174 152 164 179 131 198 170 136 189 174 152 210 180 169 210 180 169 189 174 152 

24 56 95 24 56 81 24 56 81 24 56 81 60 64 95 54 83 99 54 83 99 93 98 84 
7 56 82 40 64 95 59 95 109 40 64 95 7 48 75 7 41 60 7 48 75 7 48 75 
7 48 75 7 48 75 7 56 82 55 83 74 54 63 80 7 56 82 7 48 75 7 48 75 
7 48 75 7 48 75 6 34 60 7 41 60 7 45 53 7 34 46 7 45 53 7 34 46 
7 34 46 6 34 60 7 48 75 54 92 81 24 68 95 24 68 95 24 68 95 7 56 82 
7 48 75 7 48 75 7 48 75 6 34 60 7 41 60 7 41 60 7 48 75 24 56 81 
7 56 82 7 48 75 7 48 75 24 56 72 7 56 82 24 56 81 7 48 75 7 41 60 
7 48 75 24 56 95 112 104 110 155 154 99 128 117 109 159 125 108 88 87 111 60 64 95 
54 83 99 7 56 82 7 29 75 7 56 82 124 130 88 83 125 111 59 95 109 54 83 99 
124 104 87 144 120 90 24 56 95 93 98 84 89 107 111 128 117 109 59 95 109 24 68 95 
7 59 103 54 83 99 24 68 95 24 56 95 124 130 88 159 125 108 240 189 96 208 152 121 
240 173 129 240 173 129 198 196 136 164 179 131 143 150 131 126 145 132 199 197 101 143 150 131 
126 145 104 63 125 116 97 125 111 155 154 99 126 145 104 199 197 101 240 189 96 199 169 104 
155 154 99 54 83 99 7 48 95 63 108 116 104 121 89 54 83 99 54 83 99 124 130 88 
63 108 116 83 125 111 155 154 99 155 144 90 54 83 99 7 48 95 124 130 88 112 130 109 
97 125 111 97 125 111 97 125 111 88 132 124 112 114 119 97 125 111 89 107 111 97 125 111 
112 130 109 112 130 109 112 130 109 112 130 109 155 144 112 159 125 108 128 117 109 112 130 109 
144 120 90 175 126 88 155 144 90 155 144 90 144 120 90 155 144 90 159 125 108 159 125 108 
155 144 112 203 152 81 184 151 83 175 126 88 203 152 81 144 120 90 144 120 90 124 104 87 
112 104 110 184 152 101 199 169 104 184 151 83 40 64 95 24 95 100 126 145 104 124 130 88 
216 154 83 199 169 104 239 168 94 240 173 129 240 189 96 199 169 104 112 130 109 184 151 83 
89 107 111 104 121 89 155 144 90 216 154 83 239 168 94 239 168 94 239 168 94 239 168 94 
216 154 83 203 152 81 203 152 81 216 154 83 203 152 81 184 151 83 184 151 83 184 151 83 
159 125 108 199 169 104 155 144 112 112 130 109 155 154 99 126 145 104 112 130 109 112 130 109 
112 130 109 112 130 109 143 150 131 161 151 130 189 174 152 189 174 152 161 151 130 161 151 130 
143 150 131 161 151 130 189 174 152 189 174 152 189 174 152 189 174 152 189 174 152 189 174 152 
198 170 136 198 170 136 198 170 136 210 180 169 210 180 169 210 180 169 210 180 169 198 170 136 
198 170 136 189 174 152 198 170 136 198 170 136 189 174 152 189 174 152 189 174 152 210 180 169 
210 180 169 210 180 169 198 212 189 198 212 189 198 212 189 210 180 169 210 180 169 210 180 169 
210 180 169 198 170 136 198 170 136 198 170 136 198 170 136 189 174 152 210 180 169 210 180 169 

88 87 111 55 71 109 93 98 84 24 56 95 112 104 110 89 107 111 58 82 117 55 71 109 
27 76 117 59 95 109 55 71 109 54 83 99 7 56 82 7 48 75 7 48 75 7 56 82 
7 48 75 7 56 82 93 98 84 59 95 109 40 64 95 24 68 95 24 68 95 24 68 95 
24 67 72 7 48 75 7 41 60 7 41 60 7 41 60 7 41 60 7 41 60 7 41 60 
7 41 60 7 41 60 24 56 72 54 63 80 54 92 81 40 64 95 24 56 81 7 48 75 
7 48 75 7 48 75 7 48 75 24 56 72 7 48 75 7 48 75 54 63 80 55 83 74 
7 48 75 7 41 60 7 41 60 6 34 60 24 56 55 7 41 60 7 41 60 7 41 60 
7 41 60 55 83 74 24 56 81 59 95 109 40 64 95 88 87 111 40 64 95 7 48 95 
24 56 95 7 56 82 7 48 75 7 48 75 60 64 95 93 98 84 24 68 95 7 59 103 
60 64 95 93 78 89 24 68 95 7 56 82 24 56 95 54 83 99 54 83 99 54 83 99 
24 68 95 24 56 95 54 92 81 24 68 95 24 68 95 93 98 84 159 125 108 161 151 130 
184 151 125 184 151 125 127 116 140 198 196 136 240 205 129 161 151 130 143 150 131 198 196 136 
164 179 131 126 145 132 89 107 111 126 145 104 63 108 116 59 95 109 128 117 109 128 117 109 
126 145 104 112 130 109 29 95 109 112 130 109 155 144 112 199 169 104 126 145 104 155 144 112 
128 117 109 27 76 117 126 145 104 155 144 112 112 130 109 54 83 99 7 59 103 55 71 109 
63 108 116 112 114 119 128 117 109 126 145 132 155 144 112 89 107 111 89 107 111 97 125 111 
89 107 111 112 130 109 112 130 109 89 107 111 126 145 104 128 117 109 128 117 109 128 117 109 
128 117 109 144 120 90 128 117 109 144 120 90 144 120 90 144 120 90 155 144 90 184 151 83 
175 126 88 203 152 81 203 152 81 175 126 88 184 152 101 184 152 101 175 126 88 203 152 81 
93 78 89 93 98 84 184 151 83 144 120 90 124 130 88 59 95 109 159 125 108 155 144 90 
124 104 87 175 126 88 216 154 83 208 152 121 240 173 129 240 173 129 239 168 94 184 152 101 
184 152 101 175 126 88 216 154 83 216 154 83 216 154 83 239 168 94 237 157 111 199 169 104 
216 154 83 216 154 83 203 152 81 216 154 83 216 154 83 203 152 81 159 125 108 203 152 81 
199 169 104 184 152 101 199 169 104 184 152 101 126 145 104 126 145 104 126 145 132 112 130 109 
112 130 109 63 125 116 126 145 104 126 145 132 147 177 131 184 151 125 161 151 130 184 151 125 
161 151 130 184 151 125 189 174 152 189 174 152 189 174 152 189 174 152 198 170 136 198 170 136 
198 170 136 198 170 136 198 170 136 198 170 136 210 180 169 210 180 169 239 198 170 210 180 169 
198 170 136 198 170 136 198 170 136 189 174 152 189 174 152 189 174 152 189 174 152 189 174 152 
210 180 169 210 180 169 198 212 189 198 212 189 198 212 189 210 180 169 210 180 169 210 180 169 
198 170 136 198 170 136 198 170 136 184 151 125 198 170 136 198 170 136 189 174 152 210 180 169 

128 117 109 112 130 109 89 107 111 112 104 110 126 145 132 127 116 140 143 150 131 126 145 132 
88 87 111 89 107 111 59 95 109 25 63 109 24 56 95 24 68 95 24 68 95 24 68 95 
83 125 111 27 76 117 88 87 111 112 130 109 88 87 111 126 145 104 128 117 109 54 83 99 
7 56 82 7 48 75 6 33 96 7 29 75 7 56 82 7 41 60 6 34 60 7 45 53 
7 45 53 7 41 60 7 41 60 24 56 72 24 56 81 40 64 95 24 56 95 24 56 81 
7 48 75 7 41 60 24 56 72 24 67 72 24 67 72 7 48 75 24 56 81 40 64 95 
7 41 60 7 41 60 7 45 53 7 34 46 6 34 60 6 34 60 7 34 46 7 34 46 
7 27 52 24 56 55 7 29 75 24 56 95 104 121 89 88 87 111 54 83 99 59 95 109 
24 68 95 7 56 82 7 48 75 7 48 75 7 48 75 7 56 82 24 68 95 7 75 102 
40 64 95 24 68 95 54 92 81 24 68 95 54 63 80 54 83 99 40 64 95 93 98 84 
54 83 99 54 83 99 40 64 95 7 48 95 24 56 95 6 33 96 60 64 95 155 144 112 
128 117 109 89 107 111 7 52 116 147 177 131 127 116 140 112 114 119 63 108 116 161 151 130 
198 196 136 164 179 131 63 108 116 63 108 116 83 125 111 54 83 99 55 71 109 7 48 95 
40 64 95 184 151 83 199 169 104 128 117 109 128 117 109 128 117 109 58 82 117 126 145 104 
128 117 109 24 56 95 24 68 95 59 95 109 58 82 117 89 107 111 58 82 117 112 130 109 
89 107 111 63 108 116 89 107 111 155 144 112 128 117 109 155 144 90 112 104 110 89 107 111 
59 95 109 89 107 111 112 130 109 89 107 111 112 130 109 126 145 104 126 145 104 155 144 90 
124 130 88 112 130 109 144 120 90 144 120 90 144 120 90 144 120 90 155 144 90 175 126 88 
144 120 90 203 152 81 203 152 81 199 169 104 199 169 104 239 168 94 184 152 101 175 126 88 
216 154 83 93 78 89 93 98 84 144 120 90 93 98 84 89 107 111 104 121 89 112 104 110 
89 107 111 184 152 101 155 144 112 184 151 125 184 151 125 199 169 104 199 169 104 216 154 83 
239 168 94 175 126 88 144 120 90 159 125 108 216 154 83 184 152 101 199 169 104 199 169 104 
240 189 96 240 189 96 216 154 83 203 152 81 216 154 83 203 152 81 184 152 101 184 152 101 
199 169 104 184 152 101 184 152 101 128 117 109 126 145 104 112 130 109 155 154 99 112 130 109 
126 145 104 63 125 116 112 114 119 112 130 109 126 145 132 126 145 132 143 150 131 161 151 130 
147 177 131 143 150 131 161 151 130 164 179 131 198 170 136 189 174 152 210 180 169 198 170 136 
161 151 130 198 170 136 189 174 152 189 174 152 210 180 169 210 180 169 210 180 169 210 180 169 
198 170 136 198 170 136 184 151 125 184 151 125 198 170 136 198 170 136 189 174 152 189 174 152 
189 174 152 210 180 169 210 180 169 239 198 170 239 198 170 210 180 169 210 180 169 210 180 169 
210 180 169 189 174 152 198 170 136 198 170 136 189 174 152 189 174 152 198 170 136 198 170 136 

127 116 140 161 151 130 112 114 119 127 116 140 161 151 130 164 179 131 189 174 152 198 196 136 
143 150 131 58 82 117 58 82 117 88 132 124 59 95 109 27 76 117 88 87 111 89 107 111 
198 196 136 240 205 129 189 174 152 161 151 130 112 114 119 155 144 112 184 151 125 89 107 111 
24 56 95 54 83 99 199 197 101 155 181 94 40 64 95 7 41 60 7 45 53 7 45 53 
6 34 60 7 41 60 7 41 60 24 56 72 7 56 82 54 83 99 54 83 99 24 67 72 
7 41 60 7 41 60 7 41 60 7 48 75 7 48 75 7 48 75 24 56 81 55 83 74 
6 34 60 7 41 60 7 45 53 6 34 60 7 41 60 7 27 52 7 34 46 7 27 52 
6 34 60 7 41 60 54 115 81 24 68 95 88 87 111 128 117 109 128 117 109 112 104 110 
59 95 109 55 83 74 7 48 75 7 56 82 24 68 95 54 83 99 89 107 111 112 130 109 
54 83 99 24 68 95 54 83 99 40 64 95 40 64 95 89 107 111 24 68 95 55 71 109 
126 145 104 112 114 119 59 95 109 54 83 99 155 181 94 143 150 131 89 107 111 89 107 111 
155 144 112 155 154 99 97 125 111 240 205 129 189 174 152 161 151 130 143 150 131 143 150 131 
189 174 152 240 205 129 161 151 130 155 144 112 88 87 111 104 121 89 144 120 90 124 130 88 
104 121 89 7 48 95 128 117 109 155 154 99 112 130 109 199 169 104 155 154 99 112 114 119 
88 87 111 54 83 99 7 59 103 54 83 99 89 107 111 112 130 109 155 154 99 155 144 112 
89 107 111 59 95 109 89 107 111 88 87 111 86 120 88 27 76 117 89 107 111 63 108 116 
59 95 109 59 95 109 112 130 109 112 114 119 128 117 109 144 120 90 128 117 109 155 154 99 
128 117 109 144 120 90 144 120 90 144 120 90 128 117 109 155 144 112 184 152 101 144 120 90 
159 125 108 175 126 88 216 154 83 159 125 108 184 152 101 199 169 104 184 152 101 155 144 90 
216 154 83 203 152 81 93 98 84 155 144 90 144 120 90 128 117 109 159 125 108 199 169 104 
184 152 101 239 168 94 199 169 104 199 169 104 184 151 125 240 189 96 216 154 83 144 120 90 
124 104 87 144 120 90 155 144 90 124 130 88 124 104 87 144 120 90 184 152 101 237 157 111 
237 157 111 237 157 111 216 154 83 216 154 83 239 168 94 216 154 83 216 154 83 203 152 81 
175 126 88 58 82 117 155 144 90 128 117 109 89 107 111 83 125 111 97 125 111 112 114 119 
112 130 109 88 132 124 112 130 109 88 132 124 88 132 124 126 145 132 126 145 132 161 151 130 
161 151 130 161 151 130 161 151 130 161 151 130 164 179 131 198 170 136 189 174 152 198 196 136 
198 170 136 184 151 125 198 170 136 198 170 136 198 170 136 210 180 169 210 180 169 210 180 169 
198 196 136 198 170 136 161 151 130 161 151 130 184 151 125 198 170 136 189 174 152 189 174 152 
189 174 152 189 174 152 210 180 169 210 180 169 210 180 169 210 180 169 210 180 169 210 180 169 
189 174 177 189 174 152 184 151 125 198 170 136 198 170 136 189 174 152 198 170 136 198 170 136 

159 125 108 127 116 140 128 117 109 161 151 130 162 122 140 161 151 130 162 122 140 184 151 125 
184 151 125 112 114 119 128 117 109 161 151 130 240 205 129 127 116 140 199 169 104 143 150 131 
161 151 130 240 173 129 240 205 129 240 205 129 184 151 125 198 170 136 240 205 129 198 170 136 
88 87 111 25 63 109 88 100 145 198 196 136 155 154 99 7 48 95 7 41 60 7 45 53 
6 34 60 7 41 60 55 83 74 54 63 80 60 64 95 128 117 109 144 120 90 54 83 99 
7 48 75 7 41 60 6 34 60 6 34 60 7 41 60 7 41 60 54 63 80 24 56 81 
7 48 75 7 41 60 7 41 60 7 41 60 7 41 60 7 45 53 7 27 52 7 41 60 
24 56 72 24 67 72 54 63 80 54 83 99 89 107 111 159 125 108 112 114 119 128 117 109 
89 107 111 24 56 95 24 56 81 24 68 95 40 64 95 54 83 99 55 71 109 112 104 110 
59 95 109 59 95 109 89 107 111 89 107 111 55 71 109 97 125 111 184 152 101 143 150 131 
161 151 130 161 151 130 155 144 112 97 125 111 164 179 131 164 179 131 83 125 111 6 33 96 
40 64 95 112 104 110 58 82 117 161 151 130 240 205 129 189 174 152 161 151 130 198 170 136 
198 170 136 198 170 136 240 205 129 164 179 131 126 145 132 112 130 109 128 117 109 104 121 89 
60 64 95 54 83 99 86 120 88 54 83 99 24 56 81 6 33 96 55 71 109 199 169 104 
112 104 110 89 107 111 86 120 88 7 75 102 24 68 95 24 56 95 88 87 111 159 125 108 
112 104 110 104 121 89 124 130 88 54 83 99 86 120 88 89 107 111 55 71 109 54 83 99 
54 83 99 86 120 88 128 117 109 124 130 88 112 130 109 126 145 104 155 144 90 155 144 112 
184 152 101 126 145 104 144 120 90 144 120 90 155 144 90 159 125 108 155 154 99 155 144 112 
184 152 101 184 152 101 199 169 104 199 169 104 155 144 112 112 130 109 199 169 104 159 125 108 
155 154 99 159 125 108 144 120 90 88 87 111 112 104 110 199 169 104 199 169 104 199 169 104 
184 152 101 159 125 108 112 104 110 144 120 90 128 117 109 144 120 90 184 152 101 88 87 111 
86 120 88 89 107 111 144 120 90 184 151 83 144 120 90 126 145 104 112 130 109 155 144 112 
199 169 104 240 173 129 239 168 94 239 168 94 239 168 94 238 155 87 184 151 83 144 120 90 
184 151 83 124 130 88 155 144 112 199 169 104 155 144 90 54 83 99 59 95 109 83 125 111 
112 130 109 143 150 131 126 145 104 97 125 111 88 132 124 97 125 111 112 130 109 126 145 104 
112 130 109 143 150 131 161 151 130 161 151 130 164 179 131 161 151 130 198 170 136 198 196 136 
198 170 136 184 151 125 184 151 125 184 151 125 198 170 136 210 180 169 210 180 169 236 177 170 
198 170 136 198 170 136 161 151 130 143 150 131 161 151 130 184 151 125 189 174 152 189 174 152 
189 174 152 189 174 152 189 174 152 210 180 169 210 180 169 210 180 169 210 180 169 210 180 169 
210 180 169 189 174 152 184 151 125 161 151 130 198 170 136 184 151 125 161 151 130 198 170 136 

159 125 108 128 117 109 128 117 109 112 114 119 128 117 109 155 144 112 184 151 125 162 122 140 
162 122 140 155 144 112 88 87 111 88 100 145 162 122 140 128 117 109 88 87 111 88 87 111 
112 114 119 58 82 117 112 114 119 240 205 129 240 205 129 162 122 140 240 205 129 198 170 136 
199 169 104 112 130 109 63 108 116 112 114 119 112 130 109 59 95 109 24 67 72 6 34 60 
7 41 60 7 48 75 93 78 89 93 98 84 93 78 89 124 104 87 128 117 109 88 87 111 
24 56 81 7 41 60 6 34 60 6 34 60 7 41 60 7 41 60 24 56 81 93 98 84 
7 48 75 7 56 82 55 83 74 7 48 75 7 56 82 7 56 82 7 29 75 55 83 74 
60 64 95 24 56 95 88 87 111 112 104 110 184 152 101 128 117 109 128 117 109 161 151 130 
128 117 109 54 83 99 40 64 95 54 83 99 54 83 99 55 71 109 89 107 111 128 117 109 
128 117 109 155 144 112 199 169 104 199 169 104 199 197 101 164 179 131 198 170 136 184 151 125 
198 196 136 161 151 130 128 117 109 58 82 117 143 150 131 127 116 140 155 154 99 6 33 96 
54 92 81 155 144 90 86 120 88 89 107 111 161 151 130 199 169 104 112 104 110 89 107 111 
199 169 104 127 116 140 240 205 129 240 205 129 240 205 129 161 151 130 59 95 109 54 92 81 
93 98 84 104 121 89 126 145 104 104 121 89 7 29 75 54 92 81 7 48 95 25 63 109 
155 154 99 112 114 119 155 144 112 155 144 112 155 144 90 112 130 109 126 145 104 88 87 111 
124 130 88 54 83 99 155 144 90 144 120 90 112 104 110 93 98 84 93 98 84 40 64 95 
24 56 95 40 64 95 88 87 111 58 82 117 97 125 111 112 130 109 128 117 109 159 125 108 
155 144 90 144 120 90 155 154 99 126 145 104 155 144 112 184 152 101 155 144 112 184 152 101 
199 169 104 199 169 104 155 144 90 144 120 90 155 144 90 155 154 99 184 152 101 199 169 104 
184 151 125 159 125 108 184 152 101 184 152 101 184 152 101 239 168 94 155 144 112 184 152 101 
126 145 104 112 130 109 86 120 88 89 107 111 93 78 89 89 107 111 184 151 83 124 104 87 
144 120 90 184 151 83 184 152 101 184 152 101 155 144 90 124 130 88 93 98 84 88 87 111 
155 144 112 199 169 104 240 173 129 239 168 94 239 168 94 238 155 87 203 152 81 124 104 87 
144 120 90 184 152 101 199 169 104 199 169 104 184 152 101 112 104 110 29 95 109 97 125 111 
112 130 109 126 145 104 83 125 111 112 114 119 112 130 109 88 132 124 112 130 109 112 130 109 
112 114 119 112 130 109 126 145 132 143 150 131 164 179 131 161 151 130 164 179 131 164 179 131 
198 170 136 161 151 130 184 151 125 184 151 125 198 170 136 198 170 136 198 196 136 198 196 136 
198 170 136 198 170 136 161 151 130 143 150 131 161 151 130 184 151 125 198 170 136 189 174 152 
189 174 152 189 174 152 189 174 152 189 174 152 210 180 169 210 180 169 210 180 169 210 180 169 
189 174 152 189 174 152 198 170 136 198 170 136 161 151 130 161 151 130 184 151 125 198 170 136 

112 104 110 89 107 111 112 104 110 112 104 110 112 104 110 128 117 109 128 117 109 159 125 108 
159 125 108 112 114 119 89 107 111 128 117 109 88 87 111 24 68 95 88 87 111 83 125 111 
58 82 117 27 76 117 24 56 95 55 71 109 88 87 111 58 82 117 162 122 140 88 87 111 
89 107 111 24 68 95 93 98 84 93 98 84 40 64 95 93 98 84 54 92 81 24 56 72 
7 48 75 7 48 75 54 63 80 54 63 80 54 63 80 40 64 95 124 104 87 54 92 81 
7 48 75 7 48 75 7 48 75 7 41 60 7 41 60 6 34 60 24 56 81 93 98 84 
40 64 95 40 64 95 55 71 109 59 95 109 126 145 104 112 130 109 59 95 109 55 71 109 
89 107 111 155 144 112 184 152 101 198 170 136 184 151 125 128 117 109 89 107 111 155 144 112 
155 144 112 59 95 109 54 83 99 40 64 95 54 83 99 126 145 104 126 145 132 126 145 132 
126 145 132 128 117 109 127 116 140 184 151 125 208 152 121 184 151 125 198 170 136 161 151 130 
198 170 136 184 151 125 97 125 111 54 83 99 104 121 89 88 132 124 164 179 131 89 107 111 
24 68 95 59 95 109 25 63 109 25 63 109 155 154 99 55 71 109 40 64 95 7 48 75 
112 130 109 126 145 132 164 179 131 184 151 125 240 205 129 198 170 136 24 56 95 55 83 74 
24 56 81 60 64 95 40 64 95 86 120 88 59 95 109 104 121 89 104 121 89 104 121 89 
184 152 101 240 189 96 199 169 104 199 169 104 199 169 104 128 117 109 89 107 111 155 144 90 
124 130 88 40 64 95 93 98 84 155 144 90 128 117 109 124 130 88 112 104 110 155 144 90 
184 151 83 112 130 109 155 144 90 155 144 90 126 145 104 155 154 99 155 144 112 155 144 90 
144 120 90 144 120 90 159 125 108 184 152 101 159 125 108 155 144 112 199 169 104 199 169 104 
199 169 104 184 152 101 112 104 110 24 95 100 27 76 117 124 104 87 93 78 89 184 152 101 
240 205 129 240 173 129 237 157 111 240 189 96 184 151 125 184 151 125 155 144 112 126 145 104 
112 104 110 89 107 111 89 107 111 112 130 109 126 145 104 128 117 109 184 152 101 184 152 101 
184 152 101 208 152 121 199 169 104 239 168 94 155 144 112 59 95 109 86 120 88 59 95 109 
128 117 109 184 152 101 239 168 94 184 152 101 239 168 94 239 168 94 159 125 108 175 126 88 
155 144 90 184 152 101 184 152 101 184 152 101 184 152 101 128 117 109 97 125 111 89 107 111 
112 104 110 83 125 111 63 108 116 83 125 111 112 130 109 126 145 132 126 145 132 126 145 132 
97 125 111 97 125 111 126 145 104 143 150 131 143 150 131 161 151 130 161 151 130 161 151 130 
161 151 130 155 144 112 128 117 109 161 151 130 198 170 136 198 170 136 198 170 136 240 173 129 
198 170 136 198 196 136 198 196 136 184 151 125 143 150 131 161 151 130 164 179 131 189 174 152 
189 174 152 189 174 152 164 179 131 189 174 152 189 174 152 210 180 169 210 180 169 210 180 169 
210 180 169 189 174 152 198 170 136 189 174 152 189 174 152 198 170 136 161 151 130 184 151 125 

40 64 95 40 64 95 54 83 99 93 78 89 112 104 110 112 104 110 128 117 109 112 104 110 
112 104 110 112 104 110 89 107 111 60 64 95 24 56 81 24 56 81 24 68 95 29 95 109 
89 107 111 126 183 100 7 48 95 7 48 75 24 56 81 93 98 84 40 64 95 24 56 81 
54 63 80 54 92 81 7 48 75 7 41 60 7 41 60 7 48 75 24 56 72 7 41 60 
7 41 60 7 48 75 24 56 81 24 67 72 7 48 75 24 56 72 7 56 82 7 56 82 
7 48 75 7 56 82 24 67 72 7 48 75 7 41 60 6 34 60 40 64 95 112 104 110 
112 104 110 126 145 104 161 151 130 198 170 136 162 122 140 198 170 136 161 151 130 112 114 119 
89 107 111 89 107 111 112 114 119 162 122 140 198 170 136 184 152 101 88 87 111 112 104 110 
112 114 119 89 107 111 97 125 111 89 107 111 128 117 109 155 144 112 161 151 130 155 144 112 
128 117 109 112 104 110 89 107 111 93 78 89 88 87 111 112 114 119 161 151 130 143 150 131 
126 145 132 143 150 131 89 107 111 7 48 95 24 56 95 27 76 117 112 130 109 88 87 111 
24 68 95 89 107 111 155 181 94 83 125 111 112 130 109 7 59 103 7 29 75 24 67 72 
59 95 109 112 130 109 89 107 111 89 107 111 112 114 119 199 197 101 144 120 90 24 68 95 
54 83 99 24 68 95 6 33 96 86 120 88 89 107 111 6 33 96 104 121 89 126 145 104 
128 117 109 88 87 111 184 152 101 89 107 111 155 144 112 155 144 112 58 82 117 88 87 111 
128 117 109 89 107 111 126 145 104 184 152 101 184 152 101 159 125 108 128 117 109 184 152 101 
184 152 101 155 144 112 112 114 119 155 144 90 128 117 109 155 154 99 184 152 101 239 168 94 
184 152 101 184 152 101 199 169 104 184 152 101 159 125 108 199 169 104 240 189 96 208 152 121 
112 114 119 97 125 111 126 145 104 126 145 104 112 130 109 54 92 81 24 68 95 54 83 99 
88 87 111 240 189 96 240 173 129 159 125 108 128 117 109 144 120 90 175 126 88 112 104 110 
112 130 109 155 154 99 112 104 110 155 154 99 155 144 112 161 151 130 208 152 121 240 173 129 
239 168 94 240 189 96 239 168 94 184 152 101 128 117 109 126 145 104 128 117 109 126 145 104 
184 152 101 184 152 101 159 125 108 175 126 88 216 154 83 239 168 94 216 154 83 203 152 81 
184 152 101 144 120 90 88 87 111 124 130 88 159 125 108 155 144 112 126 145 104 97 125 111 
59 95 109 59 95 109 63 108 116 63 108 116 112 130 109 126 145 132 126 145 132 143 150 131 
88 132 124 83 125 111 88 132 124 143 150 131 143 150 131 161 151 130 143 150 131 161 151 130 
184 151 125 155 144 112 128 117 109 155 144 112 161 151 130 198 170 136 198 170 136 198 170 136 
189 174 152 198 170 136 198 170 136 198 170 136 184 151 125 155 144 112 184 151 125 189 174 152 
189 174 152 189 174 152 164 179 131 161 151 130 189 174 152 189 174 152 210 180 169 210 180 169 
210 180 169 189 174 152 189 174 152 189 174 152 189 174 152 198 170 136 189 174 152 161 151 130 

7 48 75 7 48 75 24 68 95 54 83 99 40 64 95 54 83 99 54 83 99 54 83 99 
60 64 95 54 83 99 54 83 99 24 67 72 24 67 72 24 56 72 24 67 72 24 56 95 
24 56 95 86 120 88 104 121 89 54 63 80 7 29 75 54 83 99 7 48 95 7 48 75 
24 56 81 24 56 72 7 41 60 7 45 53 6 34 60 24 56 72 24 56 72 7 41 60 
7 41 60 7 48 75 7 48 75 24 56 72 24 56 72 7 48 75 24 68 95 24 68 95 
7 56 82 24 56 81 24 56 81 7 56 82 7 56 82 40 64 95 112 104 110 128 117 109 
161 151 130 126 145 132 143 150 131 198 170 136 162 122 140 198 170 136 198 170 136 127 116 140 
112 114 119 89 107 111 112 104 110 155 144 112 184 151 125 159 125 108 159 125 108 184 152 101 
155 144 112 89 107 111 155 144 112 112 130 109 112 114 119 161 151 130 127 116 140 112 114 119 
88 87 111 93 78 89 24 56 81 7 29 75 7 29 75 24 56 95 112 104 110 112 114 119 
97 125 111 58 82 117 89 107 111 27 76 117 7 59 103 24 68 95 88 87 111 63 125 116 
7 59 103 25 63 109 55 71 109 58 82 117 143 150 131 63 108 116 63 108 116 24 95 100 
25 63 109 126 145 104 97 125 111 25 63 109 89 107 111 161 151 130 89 107 111 88 87 111 
155 154 99 112 130 109 58 82 117 27 76 117 155 181 94 55 71 109 60 64 95 63 108 116 
184 152 101 25 63 109 93 78 89 59 95 109 112 104 110 184 152 101 184 152 101 159 125 108 
155 144 112 155 144 112 184 152 101 199 169 104 239 168 94 239 168 94 199 169 104 199 169 104 
240 189 96 199 169 104 112 130 109 155 144 90 58 82 117 126 145 104 159 125 108 159 125 108 
184 152 101 155 154 99 159 125 108 184 152 101 184 152 101 159 125 108 155 144 112 199 197 101 
184 152 101 126 145 104 128 117 109 155 144 112 126 145 104 112 104 110 124 130 88 184 152 101 
199 169 104 112 114 119 155 144 112 159 125 108 89 107 111 112 130 109 128 117 109 112 130 109 
97 125 111 126 145 104 59 95 109 59 95 109 126 145 104 184 152 101 240 189 96 240 173 129 
184 151 125 155 144 112 159 125 108 184 152 101 112 114 119 155 154 99 126 145 104 25 63 109 
97 125 111 184 152 101 199 169 104 184 152 101 184 152 101 216 154 83 216 154 83 216 154 83 
216 154 83 175 126 88 40 64 95 104 121 89 155 144 90 144 120 90 128 117 109 126 145 104 
59 95 109 63 108 116 59 95 109 63 108 116 89 107 111 97 125 111 112 130 109 126 145 104 
126 145 104 83 125 111 83 125 111 112 130 109 143 150 131 161 151 130 143 150 131 143 150 131 
161 151 130 161 151 130 161 151 130 143 150 131 161 151 130 198 170 136 198 170 136 198 170 136 
198 170 136 198 170 136 198 170 136 184 151 125 155 144 112 155 144 112 161 151 130 164 179 131 
164 179 131 164 179 131 189 174 152 161 151 130 164 179 131 189 174 152 189 174 152 210 180 169 
189 174 152 189 174 152 189 174 152 189 174 152 189 174 152 189 174 152 189 174 152 164 179 131 

24 56 72 24 56 72 24 67 72 40 64 95 40 64 95 24 56 81 24 68 95 40 64 95 
24 67 72 40 64 95 24 67 72 24 67 72 24 56 72 7 48 75 24 67 72 7 48 75 
24 67 72 24 56 81 7 56 82 7 48 75 24 56 81 124 104 87 86 120 88 93 98 84 
24 56 81 7 48 75 7 41 60 6 34 60 7 41 60 24 41 78 7 56 82 7 48 75 
93 78 89 124 130 88 40 64 95 24 56 95 55 71 109 93 98 84 54 83 99 24 56 81 
7 48 75 124 104 87 54 83 99 7 56 82 7 56 82 112 104 110 155 144 112 127 116 140 
198 170 136 208 152 121 88 87 111 161 151 130 127 116 140 143 150 131 161 151 130 127 116 140 
128 117 109 112 114 119 88 87 111 128 117 109 184 151 125 208 152 121 155 144 112 128 117 109 
198 170 136 162 122 140 155 144 112 128 117 109 143 150 131 161 151 130 127 116 140 155 144 112 
112 104 110 54 83 99 7 48 75 6 34 60 6 34 60 6 34 60 24 56 81 54 83 99 
59 95 109 89 107 111 58 82 117 112 130 109 63 108 116 54 83 99 83 125 111 126 145 104 
97 125 111 126 145 104 59 95 109 58 82 117 155 154 99 97 125 111 155 181 94 126 145 104 
86 120 88 89 107 111 126 145 132 112 130 109 112 112 150 198 196 136 164 179 131 155 144 112 
155 144 112 199 169 104 199 197 101 155 154 99 127 116 140 164 179 131 112 114 119 155 144 112 
199 197 101 55 71 109 7 56 82 24 68 95 89 107 111 184 152 101 199 169 104 184 152 101 
199 169 104 184 152 101 184 152 101 199 169 104 184 152 101 112 104 110 159 125 108 184 152 101 
199 169 104 237 157 111 155 144 112 155 144 112 128 117 109 112 130 109 184 152 101 216 154 83 
159 125 108 144 120 90 175 126 88 175 126 88 159 125 108 128 117 109 112 104 110 155 144 112 
112 114 119 112 104 110 199 169 104 112 104 110 124 130 88 155 144 90 128 117 109 184 152 101 
159 125 108 112 104 110 89 107 111 184 152 101 164 179 131 155 144 112 155 144 112 63 108 116 
89 107 111 112 130 109 89 107 111 24 95 100 97 125 111 128 117 109 159 125 108 199 197 101 
199 169 104 199 169 104 155 144 112 97 125 111 112 104 110 159 125 108 126 145 104 89 107 111 
128 117 109 155 144 112 155 144 112 199 169 104 184 151 125 240 189 96 199 169 104 216 154 83 
239 168 94 203 152 81 104 121 89 59 95 109 124 130 88 155 144 90 112 130 109 155 144 112 
128 117 109 83 125 111 83 125 111 89 107 111 63 108 116 97 125 111 97 125 111 97 125 111 
112 130 109 112 130 109 83 125 111 97 125 111 126 145 132 143 150 131 161 151 130 161 151 130 
143 150 131 143 150 131 161 151 130 143 150 131 126 145 132 164 179 131 198 170 136 198 170 136 
198 170 136 198 170 136 184 151 125 199 169 104 161 151 130 143 150 131 143 150 131 161 151 130 
161 151 130 161 151 130 161 151 130 164 179 131 143 150 131 143 150 131 189 174 152 210 180 169 
210 180 169 210 180 169 210 180 169 189 174 152 189 174 152 189 174 152 189 174 152 189 174 152 

24 67 72 24 67 72 24 56 81 54 92 81 40 64 95 24 56 81 55 83 74 24 67 72 
24 56 72 24 56 72 24 56 72 24 56 55 24 56 55 24 56 72 7 48 75 7 48 75 
7 48 75 7 48 75 7 48 75 54 92 81 24 56 95 24 56 95 24 56 95 54 92 81 
55 83 74 7 48 75 24 56 72 55 83 74 24 56 81 24 56 81 54 92 81 24 56 81 
93 98 84 184 152 101 184 152 101 159 125 108 184 152 101 143 150 131 112 114 119 55 71 109 
7 48 75 93 78 89 93 78 89 93 98 84 7 48 95 40 64 95 88 87 111 112 104 110 
112 104 110 159 125 108 63 108 116 112 114 119 112 114 119 112 114 119 126 145 132 128 117 109 
112 114 119 128 117 109 159 125 108 184 151 125 184 151 125 198 170 136 184 151 125 184 151 125 
184 151 125 184 151 125 161 151 130 112 114 119 126 145 132 143 150 131 112 114 119 112 114 119 
112 104 110 59 95 109 54 83 99 7 48 75 6 34 60 7 41 60 7 29 75 7 48 75 
24 56 95 97 125 111 112 114 119 89 107 111 89 107 111 25 63 109 27 76 117 58 82 117 
7 52 116 25 63 109 83 125 111 59 95 109 6 33 96 7 59 103 25 63 109 58 82 117 
25 63 109 24 56 95 126 145 104 161 151 130 240 205 129 198 196 136 198 196 136 143 150 131 
88 100 145 63 108 116 27 76 117 83 125 111 164 179 131 240 205 129 184 152 101 89 107 111 
199 197 101 155 154 99 59 95 109 93 98 84 59 95 109 112 104 110 184 152 101 199 169 104 
184 152 101 159 125 108 128 117 109 155 144 112 199 169 104 159 125 108 159 125 108 159 125 108 
159 125 108 199 169 104 199 169 104 199 169 104 199 197 101 112 114 119 112 104 110 199 169 104 
175 126 88 124 130 88 93 98 84 144 120 90 93 98 84 124 104 87 144 120 90 112 114 119 
112 130 109 126 145 104 128 117 109 126 145 104 58 82 117 89 107 111 128 117 109 184 152 101 
112 104 110 124 130 88 55 71 109 97 125 111 63 108 116 112 114 119 97 125 111 112 130 109 
112 130 109 88 87 111 124 130 88 25 63 109 97 125 111 155 144 112 63 108 116 128 117 109 
112 114 119 155 154 99 126 145 104 112 130 109 112 130 109 97 125 111 112 130 109 199 197 101 
184 152 101 126 145 132 199 169 104 155 144 112 184 151 125 199 169 104 237 157 111 199 169 104 
184 152 101 216 154 83 184 152 101 155 154 99 112 130 109 155 144 90 155 144 112 184 152 101 
128 117 109 126 145 104 128 117 109 112 130 109 89 107 111 97 125 111 97 125 111 83 125 111 
112 114 119 143 150 131 112 130 109 88 132 124 112 130 109 126 145 132 161 151 130 161 151 130 
161 151 130 143 150 131 126 145 132 143 150 131 143 150 131 164 179 131 189 174 152 198 170 136 
198 170 136 198 170 136 161 151 130 184 151 125 161 151 130 143 150 131 143 150 131 143 150 131 
161 151 130 161 151 130 126 145 132 161 151 130 143 150 131 143 150 131 161 151 130 189 174 152 
189 174 177 189 174 152 189 174 152 198 170 136 189 174 152 189 174 152 189 174 152 189 174 152 

59 95 109 54 83 99 54 83 99 54 92 81 24 68 95 24 56 81 24 67 72 24 67 72 
24 67 72 24 56 72 7 41 60 7 41 60 7 41 60 7 48 75 55 83 74 24 56 81 
40 64 95 24 56 81 7 48 75 93 78 89 93 98 84 55 83 74 54 63 80 93 98 84 
24 56 81 24 56 72 55 83 74 124 104 87 54 63 80 24 56 95 93 98 84 24 56 81 
93 78 89 88 87 111 199 169 104 112 104 110 60 64 95 128 117 109 240 173 129 199 197 101 
24 56 95 60 64 95 144 120 90 54 63 80 24 56 81 24 56 72 7 48 75 24 56 81 
40 64 95 40 64 95 88 87 111 89 107 111 88 87 111 112 104 110 112 114 119 112 130 109 
128 117 109 126 145 104 112 114 119 184 151 125 184 151 125 208 152 121 184 151 125 128 117 109 
159 125 108 198 196 136 184 151 125 198 170 136 161 151 130 143 150 131 57 82 141 58 82 117 
59 95 109 89 107 111 155 181 94 63 108 116 54 83 99 59 95 109 24 68 95 54 83 99 
24 68 95 40 64 95 54 83 99 55 71 109 63 108 116 54 92 81 24 68 95 40 64 95 
63 108 116 59 95 109 58 82 117 112 130 109 59 95 109 63 108 116 27 76 117 126 172 135 
147 177 131 25 63 109 63 108 116 57 82 141 162 122 140 240 205 129 198 196 136 240 205 129 
198 196 136 143 150 131 89 107 111 7 52 116 88 87 111 155 144 112 112 104 110 59 95 109 
199 197 101 128 117 109 58 82 117 89 107 111 27 76 117 112 114 119 184 152 101 159 125 108 
128 117 109 128 117 109 112 130 109 155 144 112 184 152 101 184 152 101 155 144 112 199 169 104 
112 104 110 128 117 109 184 152 101 112 104 110 128 117 109 184 152 101 128 117 109 88 87 111 
124 104 87 124 104 87 86 120 88 112 104 110 124 130 88 25 63 109 89 107 111 29 95 109 
112 130 109 112 114 119 155 144 112 184 152 101 199 197 101 164 179 131 112 130 109 112 114 119 
126 145 104 27 76 117 112 130 109 97 125 111 25 63 109 97 125 111 155 144 112 59 95 109 
126 145 104 155 154 99 27 76 117 155 154 99 63 108 116 155 154 99 155 144 90 155 144 90 
126 145 104 112 114 119 126 145 104 112 130 109 112 130 109 112 104 110 184 152 101 127 116 140 
184 151 125 126 145 132 112 130 109 155 144 112 199 169 104 239 168 94 237 157 111 239 168 94 
199 169 104 239 168 94 237 157 111 184 152 101 155 154 99 155 144 112 155 154 99 155 144 112 
128 117 109 155 144 112 126 145 104 112 130 109 89 107 111 112 130 109 112 130 109 112 130 109 
88 132 124 126 145 132 143 150 131 97 125 111 112 130 109 126 145 132 126 145 132 143 150 131 
126 145 132 143 150 131 161 151 130 126 145 132 143 150 131 161 151 130 161 151 130 198 170 136 
198 170 136 198 170 136 198 170 136 198 170 136 184 151 125 161 151 130 143 150 131 155 144 112 
126 145 132 126 145 132 143 150 131 88 132 124 143 150 131 143 150 131 126 145 132 164 179 131 
189 174 152 189 174 152 189 174 152 189 174 152 161 151 130 161 151 130 164 179 131 189 174 152 

126 145 104 54 83 99 54 83 99 40 64 95 24 68 95 24 67 72 24 56 81 24 56 72 
24 56 72 24 56 72 7 48 75 24 56 72 7 48 75 24 56 72 93 98 84 93 78 89 
144 120 90 155 144 90 40 64 95 55 83 74 24 41 78 24 56 72 54 63 80 124 104 87 
24 56 72 6 34 60 6 34 60 24 56 72 7 48 75 40 64 95 54 63 80 7 48 75 
24 56 72 24 56 81 60 64 95 104 121 89 25 63 109 55 71 109 112 104 110 199 169 104 
55 71 109 7 48 75 54 63 80 24 56 72 7 48 75 7 41 60 24 56 72 24 56 72 
24 41 78 60 64 95 60 64 95 60 64 95 60 64 95 60 64 95 88 87 111 88 87 111 
58 82 117 112 104 110 112 104 110 155 144 112 159 125 108 159 125 108 184 151 125 112 114 119 
88 100 145 161 151 130 127 116 140 162 122 140 198 196 136 198 196 136 164 179 131 143 150 131 
97 125 111 89 107 111 112 104 110 112 114 119 112 130 109 112 130 109 83 125 111 97 125 111 
54 92 81 7 48 95 7 56 82 7 48 75 24 56 95 7 56 82 7 48 75 7 72 82 
29 95 109 126 145 104 63 108 116 126 145 132 58 82 117 112 130 109 88 100 145 126 172 135 
189 174 152 88 100 145 126 145 104 164 179 131 147 177 131 7 52 116 88 87 111 184 152 101 
184 151 125 198 196 136 199 197 101 7 52 116 24 68 95 63 108 116 93 98 84 25 63 109 
58 82 117 88 87 111 199 169 104 240 205 129 143 150 131 126 145 104 159 125 108 112 104 110 
155 144 112 199 169 104 155 144 112 155 144 112 159 125 108 144 120 90 144 120 90 112 104 110 
155 144 90 144 120 90 199 169 104 112 104 110 55 71 109 128 117 109 184 152 101 89 107 111 
155 144 90 155 144 90 112 104 110 126 145 104 155 144 112 128 117 109 144 120 90 86 120 88 
89 107 111 164 179 131 88 100 145 58 82 117 88 100 145 126 145 132 112 114 119 112 104 110 
126 145 104 112 114 119 126 145 104 89 107 111 155 181 94 55 71 109 112 130 109 104 121 89 
54 83 99 104 121 89 93 78 89 126 145 104 59 95 109 59 95 109 6 33 96 40 64 95 
128 117 109 155 144 112 126 145 104 59 95 109 126 145 104 55 71 109 128 117 109 112 114 119 
155 144 112 199 169 104 63 108 116 112 114 119 128 117 109 184 152 101 237 157 111 208 152 121 
237 157 111 237 157 111 240 205 129 237 157 111 199 169 104 203 152 81 155 144 112 128 117 109 
97 125 111 128 117 109 155 144 112 112 114 119 97 125 111 97 125 111 143 150 131 126 145 132 
126 145 132 112 130 109 126 145 132 126 145 132 112 130 109 112 130 109 126 145 132 143 150 131 
161 151 130 143 150 131 161 151 130 143 150 131 143 150 131 161 151 130 161 151 130 164 179 131 
164 179 131 198 170 136 198 170 136 198 170 136 184 151 125 161 151 130 155 144 112 161 151 130 
143 150 131 112 130 109 126 145 132 88 132 124 126 145 132 126 145 132 126 145 132 126 145 132 
164 179 131 189 174 152 189 174 152 189 174 152 189 174 152 164 179 131 161 151 130 161 151 130 

25 63 109 40 64 95 93 78 89 40 64 95 24 56 81 24 56 81 24 56 72 24 67 72 
24 56 72 7 48 75 7 41 60 24 56 72 24 56 72 24 56 72 93 78 89 24 56 81 
7 48 75 7 48 95 24 56 95 40 64 95 24 56 81 7 48 75 7 56 82 7 48 75 
24 56 72 24 67 72 7 48 75 7 48 75 7 48 75 55 83 74 7 48 75 7 56 82 
24 56 81 24 56 72 40 64 95 93 98 84 184 151 83 128 117 109 155 144 112 199 169 104 
128 117 109 24 56 81 24 56 81 24 56 72 7 48 75 7 48 75 24 56 72 24 67 72 
24 56 72 55 83 74 55 83 74 40 64 95 54 63 80 54 63 80 60 64 95 155 144 112 
161 151 130 55 71 109 60 64 95 112 104 110 155 144 112 112 114 119 155 144 112 112 130 109 
126 145 132 199 169 104 88 87 111 128 117 109 143 150 131 88 100 145 162 122 140 189 174 152 
164 179 131 58 82 117 27 76 117 63 108 116 6 33 96 7 48 95 54 83 99 55 71 109 
7 48 95 7 48 75 7 48 75 24 56 81 54 83 99 7 72 82 7 48 75 7 56 82 
24 56 95 89 107 111 89 107 111 63 108 116 59 95 109 58 82 117 126 145 132 147 177 131 
147 177 131 112 130 109 58 82 117 155 144 112 184 152 101 24 56 95 24 56 81 24 67 72 
24 56 81 88 87 111 198 196 136 128 117 109 7 56 82 54 63 80 24 41 78 124 130 88 
199 197 101 112 104 110 55 71 109 128 117 109 240 205 129 112 114 119 155 144 112 184 151 83 
184 152 101 208 152 121 240 205 129 184 151 125 112 104 110 40 64 95 124 130 88 112 104 110 
155 144 90 93 78 89 93 78 89 112 104 110 104 121 89 155 144 112 199 169 104 155 144 112 
184 152 101 88 87 111 155 154 99 164 179 131 143 150 131 58 82 117 58 82 117 7 52 116 
88 87 111 164 179 131 164 179 131 126 145 104 126 145 104 97 125 111 126 145 104 89 107 111 
89 107 111 155 181 94 89 107 111 155 154 99 88 87 111 155 154 99 7 52 116 89 107 111 
29 95 109 83 125 111 112 130 109 63 108 116 63 108 116 89 107 111 112 130 109 58 82 117 
97 125 111 155 154 99 89 107 111 89 107 111 88 87 111 54 83 99 24 68 95 112 130 109 
155 144 112 128 117 109 155 154 99 128 117 109 89 107 111 184 152 101 199 169 104 199 169 104 
199 169 104 208 152 121 208 152 121 239 168 94 199 169 104 203 152 81 175 126 88 128 117 109 
126 145 104 112 114 119 97 125 111 128 117 109 112 104 110 112 114 119 161 151 130 161 151 130 
126 145 132 126 145 132 126 145 132 161 151 130 126 145 132 112 130 109 112 130 109 126 145 132 
143 150 131 143 150 131 143 150 131 143 150 131 143 150 131 143 150 131 143 150 131 189 174 152 
164 179 131 189 174 152 198 196 136 198 170 136 198 170 136 161 151 130 126 145 132 143 150 131 
161 151 130 112 130 109 88 132 124 126 145 132 126 172 135 143 150 131 143 150 131 143 150 131 
126 145 132 147 177 131 189 174 152 189 174 152 189 174 152 189 174 152 161 151 130 161 151 130 

54 83 99 93 98 84 93 78 89 24 56 81 24 56 72 24 56 72 24 56 72 24 56 72 
54 63 80 7 48 75 24 56 72 7 48 75 7 41 60 24 56 72 24 56 81 24 56 95 
55 83 74 24 56 81 144 120 90 159 125 108 25 63 109 93 98 84 55 83 74 7 48 75 
7 48 75 24 67 72 55 83 74 7 48 75 24 67 72 54 92 81 40 64 95 24 56 81 
93 98 84 24 56 81 54 63 80 24 41 78 24 56 95 88 87 111 88 87 111 184 152 101 
184 152 101 93 98 84 54 63 80 24 56 81 24 56 72 24 56 72 24 56 72 24 56 72 
7 48 75 24 56 72 24 56 72 24 56 72 54 63 80 24 56 72 54 63 80 155 144 112 
184 151 125 155 144 90 24 56 81 60 64 95 93 98 84 40 64 95 60 64 95 88 87 111 
89 107 111 128 117 109 88 87 111 55 71 109 155 144 112 143 150 131 112 114 119 112 112 150 
198 170 136 126 145 132 58 82 117 155 154 99 104 121 89 7 48 75 54 92 81 59 95 109 
24 68 95 55 83 74 7 48 75 40 64 95 59 95 109 54 83 99 24 68 95 7 48 75 
7 56 82 54 83 99 58 82 117 58 82 117 54 83 99 7 56 82 24 56 95 58 82 117 
143 150 131 88 100 145 40 64 95 89 107 111 89 107 111 6 33 96 54 92 81 54 92 81 
155 144 90 40 64 95 155 181 94 128 117 109 7 56 82 7 56 82 7 29 75 24 56 95 
88 87 111 124 104 87 7 48 95 54 83 99 128 117 109 128 117 109 124 130 88 60 64 95 
55 71 109 89 107 111 161 151 130 184 152 101 93 98 84 24 56 95 155 144 90 124 104 87 
104 121 89 124 104 87 93 98 84 155 181 94 128 117 109 93 78 89 60 64 95 54 83 99 
155 144 112 155 154 99 88 87 111 88 87 111 164 179 131 164 179 131 198 196 136 161 151 130 
126 145 104 88 100 145 143 150 131 27 76 117 89 107 111 6 33 96 40 64 95 54 83 99 
40 64 95 24 56 95 124 130 88 89 107 111 155 144 90 126 145 104 155 154 99 89 107 111 
126 145 104 155 154 99 112 114 119 164 179 131 147 177 131 112 114 119 126 145 132 164 179 131 
127 116 140 112 114 119 59 95 109 124 130 88 6 33 96 7 56 82 7 48 95 7 59 103 
112 130 109 155 154 99 128 117 109 112 130 109 59 95 109 144 120 90 159 125 108 128 117 109 
159 125 108 155 144 112 184 152 101 208 152 121 199 169 104 184 152 101 126 145 104 97 125 111 
97 125 111 89 107 111 89 107 111 97 125 111 104 121 89 89 107 111 155 144 112 161 151 130 
143 150 131 161 151 130 112 114 119 143 150 131 143 150 131 112 130 109 112 130 109 126 145 132 
143 150 131 143 150 131 143 150 131 143 150 131 143 150 131 161 151 130 161 151 130 164 179 131 
189 174 152 189 174 152 189 174 152 198 196 136 198 170 136 184 151 125 143 150 131 126 145 132 
143 150 131 155 144 112 126 145 132 143 150 131 126 172 135 143 150 131 126 145 132 147 177 131 
143 150 131 161 151 130 164 179 131 164 179 131 164 179 131 189 174 152 198 170 136 164 179 131 

60 64 95 93 98 84 93 98 84 54 92 81 24 56 81 24 56 72 7 48 75 24 56 72 
40 64 95 40 64 95 7 48 75 24 56 81 54 63 80 93 78 89 155 144 90 159 125 108 
144 120 90 40 64 95 144 120 90 112 104 110 128 117 109 124 104 87 24 56 95 7 48 75 
24 56 72 24 67 72 93 98 84 7 48 95 55 83 74 24 56 95 54 92 81 24 56 81 
55 83 74 54 63 80 24 56 72 7 41 60 24 56 72 175 126 88 144 120 90 55 71 109 
93 78 89 124 104 87 54 63 80 24 56 72 54 63 80 54 63 80 24 56 72 7 41 60 
24 56 55 24 56 55 24 56 55 6 34 60 7 45 53 7 41 60 24 56 72 40 64 95 
24 56 95 93 98 84 7 48 75 24 67 72 24 41 78 7 48 75 7 41 60 40 64 95 
60 64 95 88 87 111 89 107 111 54 83 99 88 87 111 89 107 111 89 107 111 128 117 109 
112 112 150 143 150 131 7 52 116 7 48 95 24 56 72 7 48 75 24 68 95 54 83 99 
59 95 109 24 56 95 7 48 75 7 56 82 24 68 95 59 95 109 40 64 95 7 56 82 
54 92 81 54 83 99 27 76 117 59 95 109 54 83 99 7 48 75 7 41 60 24 56 81 
155 144 112 164 179 131 89 107 111 93 98 84 199 197 101 155 181 94 24 56 95 7 29 75 
93 98 84 54 83 99 89 107 111 143 150 131 83 125 111 25 63 109 40 64 95 144 120 90 
216 154 83 159 125 108 175 126 88 88 87 111 126 145 104 112 114 119 27 76 117 7 48 95 
126 145 104 89 107 111 89 107 111 112 104 110 54 83 99 124 130 88 126 145 104 60 64 95 
40 64 95 155 144 90 60 64 95 88 87 111 155 154 99 112 130 109 155 154 99 155 144 90 
25 63 109 112 130 109 126 145 104 59 95 109 126 145 132 143 150 131 161 151 130 164 179 131 
126 145 132 63 108 116 89 107 111 88 132 124 126 145 132 126 145 104 97 125 111 63 108 116 
59 95 109 6 33 96 7 72 82 7 56 82 24 56 95 7 48 95 83 125 111 112 130 109 
6 33 96 59 95 109 126 145 132 126 145 132 112 114 119 199 197 101 112 112 150 143 150 131 
143 150 131 57 121 132 63 108 116 59 95 109 59 95 109 7 59 103 54 92 81 7 48 95 
7 75 102 112 130 109 199 169 104 128 117 109 89 107 111 144 120 90 59 95 109 27 76 117 
104 121 89 59 95 109 112 104 110 155 144 90 184 152 101 184 152 101 112 104 110 89 107 111 
89 107 111 97 125 111 63 108 116 89 107 111 89 107 111 59 95 109 126 145 104 161 151 130 
143 150 131 143 150 131 126 145 104 126 145 132 143 150 131 155 144 112 126 145 132 126 145 132 
143 150 131 161 151 130 143 150 131 126 145 132 143 150 131 161 151 130 164 179 131 161 151 130 
164 179 131 189 174 152 189 174 152 189 174 152 189 174 152 198 170 136 143 150 131 112 130 109 
112 130 109 126 145 104 155 144 112 143 150 131 143 150 131 147 177 131 126 145 132 126 145 132 
164 179 131 143 150 131 164 179 131 164 179 131 189 174 152 147 177 131 189 174 152 189 174 152 

24 56 72 24 56 81 24 56 95 40 64 95 54 63 80 55 83 74 24 67 72 54 63 80 
144 120 90 159 125 108 89 107 111 93 98 84 60 64 95 60 64 95 128 117 109 128 117 109 
155 144 112 88 87 111 128 117 109 55 71 109 93 78 89 93 78 89 54 63 80 7 48 75 
24 56 72 7 48 75 144 120 90 93 98 84 60 64 95 40 64 95 54 92 81 54 63 80 
24 56 72 24 56 72 7 41 60 7 45 53 7 34 46 6 34 60 40 64 95 124 104 87 
40 64 95 24 41 78 24 56 72 24 56 72 24 56 72 54 63 80 24 56 55 7 41 60 
7 45 53 6 34 60 7 45 53 7 34 46 7 41 43 6 34 60 7 41 60 7 48 75 
24 56 72 7 41 60 7 41 60 7 48 75 55 83 74 7 41 60 7 41 60 7 41 60 
24 56 81 60 64 95 93 98 84 144 120 90 89 107 111 59 95 109 58 82 117 128 117 109 
112 114 119 164 179 131 63 108 116 7 48 95 6 34 60 6 34 60 7 48 75 7 59 103 
89 107 111 54 83 99 7 48 75 7 48 75 24 56 95 54 83 99 54 83 99 7 48 95 
24 68 95 59 95 109 59 95 109 83 125 111 27 76 117 24 68 95 7 48 75 7 29 75 
40 64 95 88 87 111 54 83 99 7 29 75 7 29 75 60 64 95 86 120 88 40 64 95 
54 92 81 83 125 111 126 145 132 198 170 136 198 196 136 184 152 101 124 130 88 112 104 110 
203 152 81 239 168 94 216 154 83 128 117 109 112 104 110 199 169 104 199 197 101 124 130 88 
88 87 111 155 154 99 55 71 109 93 78 89 155 144 90 54 83 99 124 130 88 59 95 109 
54 83 99 60 64 95 93 98 84 55 71 109 112 104 110 112 104 110 112 104 110 155 144 90 
40 64 95 54 83 99 126 145 104 126 145 104 126 145 132 155 144 112 59 95 109 55 71 109 
89 107 111 155 154 99 89 107 111 97 125 111 88 100 145 147 177 131 164 179 131 199 169 104 
199 197 101 155 154 99 7 59 103 24 68 95 59 95 109 7 48 95 63 108 116 126 145 132 
63 108 116 83 125 111 88 132 124 89 107 111 59 95 109 126 145 132 184 151 125 89 107 111 
143 150 131 147 177 131 164 179 131 126 145 132 128 117 109 27 76 117 59 95 109 59 95 109 
59 95 109 89 107 111 126 145 104 155 144 112 112 130 109 97 125 111 89 107 111 27 76 117 
104 121 89 89 107 111 29 95 109 63 108 116 155 144 112 155 144 112 112 130 109 97 125 111 
89 107 111 89 107 111 89 107 111 89 107 111 63 108 116 63 108 116 89 107 111 143 150 131 
143 150 131 161 151 130 112 130 109 126 145 104 126 145 132 126 145 132 88 132 124 126 145 132 
161 151 130 143 150 131 143 150 131 161 151 130 143 150 131 143 150 131 161 151 130 161 151 130 
164 179 131 161 151 130 198 170 136 198 170 136 198 170 136 198 170 136 161 151 130 126 145 132 
126 145 104 97 125 111 112 130 109 126 145 132 143 150 131 126 145 132 126 145 132 126 145 132 
126 145 132 126 172 135 147 177 131 189 174 152 156 159 166 164 179 131 164 179 131 164 179 131 

7 48 75 55 83 74 93 98 84 54 92 81 60 64 95 24 67 72 24 56 81 54 63 80 
124 104 87 128 117 109 88 87 111 93 98 84 124 130 88 7 56 82 7 48 95 24 56 95 
88 87 111 159 125 108 240 189 96 112 104 110 60 64 95 60 64 95 55 83 74 24 56 72 
7 41 60 7 48 75 54 63 80 144 120 90 60 64 95 40 64 95 40 64 95 24 56 72 
7 41 60 7 41 60 7 41 60 7 45 53 7 41 43 7 41 43 24 56 72 24 56 72 
7 48 75 7 41 60 7 41 60 7 45 53 7 41 60 24 56 55 7 45 53 7 41 43 
7 34 46 7 41 43 7 41 43 7 41 43 7 34 46 7 34 46 7 45 53 7 41 60 
24 67 72 7 48 75 24 56 55 6 34 60 7 41 60 7 41 60 6 34 60 7 41 60 
7 41 60 24 56 81 24 56 81 60 64 95 93 78 89 54 83 99 54 83 99 40 64 95 
88 87 111 127 116 140 164 179 131 58 82 117 7 48 75 7 48 75 7 48 75 7 56 82 
54 83 99 59 95 109 24 68 95 24 56 81 7 56 82 40 64 95 54 83 99 24 68 95 
7 48 95 24 68 95 54 83 99 97 125 111 63 108 116 54 83 99 24 56 95 40 64 95 
54 83 99 97 125 111 89 107 111 24 41 78 7 27 52 7 29 75 24 41 78 54 92 81 
24 56 95 25 63 109 164 179 131 112 112 150 88 100 145 55 71 109 24 56 95 40 64 95 
93 78 89 93 78 89 124 104 87 88 87 111 54 83 99 25 63 109 24 56 95 54 92 81 
24 56 95 40 64 95 104 121 89 7 48 75 7 29 75 104 121 89 59 95 109 89 107 111 
144 120 90 124 130 88 40 64 95 155 154 99 93 98 84 24 56 95 93 98 84 6 33 96 
24 56 95 59 95 109 25 63 109 27 76 117 83 125 111 89 107 111 89 107 111 54 83 99 
54 83 99 89 107 111 89 107 111 112 130 109 112 130 109 97 125 111 7 52 116 24 68 95 
25 63 109 199 197 101 164 179 131 29 95 109 88 132 124 155 181 94 57 82 141 164 179 131 
126 172 135 58 82 117 112 130 109 83 125 111 143 150 131 88 132 124 126 145 132 126 145 132 
112 130 109 88 100 145 143 150 131 198 170 136 143 150 131 126 145 104 89 107 111 112 130 109 
126 145 104 89 107 111 63 108 116 155 144 112 155 144 112 128 117 109 155 154 99 89 107 111 
89 107 111 128 117 109 112 114 119 155 144 112 184 152 101 155 144 112 155 144 112 89 107 111 
63 108 116 63 108 116 63 108 116 97 125 111 89 107 111 59 95 109 59 95 109 126 145 132 
161 151 130 143 150 131 126 145 132 88 132 124 97 125 111 126 145 132 126 145 132 112 130 109 
126 145 132 143 150 131 161 151 130 161 151 130 143 150 131 126 145 132 143 150 131 143 150 131 
143 150 131 161 151 130 164 179 131 189 174 152 198 170 136 164 179 131 164 179 131 126 145 132 
88 132 124 88 132 124 59 95 109 63 125 116 126 172 135 94 154 160 126 145 132 126 145 132 
126 172 135 126 172 135 126 172 135 156 159 166 164 179 131 189 174 152 189 174 152 161 151 130 

24 56 81 24 56 81 24 56 81 24 56 81 24 56 81 24 67 72 7 48 75 24 56 72 
7 56 82 54 63 80 60 64 95 40 64 95 24 56 81 55 83 74 55 83 74 144 120 90 
93 78 89 24 56 95 112 104 110 54 83 99 54 63 80 93 78 89 60 64 95 60 64 95 
60 64 95 54 63 80 24 56 81 54 63 80 60 64 95 126 145 104 55 71 109 24 56 81 
7 48 75 24 56 72 7 41 60 7 41 60 7 45 53 7 45 53 7 41 60 7 41 60 
6 34 60 7 45 53 7 45 53 7 34 46 7 45 53 7 45 53 7 34 46 7 41 43 
7 41 43 7 34 46 7 41 43 6 27 33 7 41 43 7 45 53 7 45 53 7 41 60 
24 67 72 24 56 72 7 41 60 7 41 60 6 34 60 7 45 53 7 41 60 7 41 60 
7 48 75 7 56 82 24 56 81 7 48 75 7 48 95 24 56 95 24 68 95 7 48 75 
7 56 82 55 71 109 126 145 132 88 100 145 7 48 95 7 56 82 7 48 75 7 48 75 
24 56 95 29 95 109 24 68 95 24 95 100 7 59 103 54 83 99 54 83 99 27 76 117 
40 64 95 24 68 95 7 48 95 40 64 95 55 71 109 59 95 109 54 83 99 59 95 109 
59 95 109 89 107 111 58 82 117 63 108 116 24 56 81 24 56 72 54 92 81 7 48 75 
7 56 82 63 108 116 143 150 131 198 196 136 161 151 130 27 76 117 7 59 103 24 68 95 
7 56 82 7 56 82 24 56 95 54 83 99 93 98 84 86 120 88 40 64 95 24 41 78 
86 120 88 25 63 109 112 104 110 24 67 72 7 48 75 88 87 111 184 151 83 25 63 109 
55 71 109 7 59 103 89 107 111 126 145 104 54 83 99 7 48 95 24 67 72 7 48 95 
93 98 84 126 145 104 126 145 104 97 125 111 25 63 109 83 125 111 126 145 104 86 120 88 
24 56 95 27 76 117 7 48 95 6 33 96 97 125 111 199 197 101 55 71 109 7 56 82 
6 33 96 58 82 117 126 145 104 112 130 109 97 125 111 88 132 124 126 145 104 126 145 132 
147 177 131 112 130 109 27 76 117 55 71 109 155 144 112 164 179 131 63 108 116 126 145 104 
88 132 124 128 117 109 63 108 116 161 151 130 155 144 112 128 117 109 159 125 108 155 144 112 
126 145 132 112 130 109 128 117 109 155 144 112 159 125 108 126 145 104 155 144 112 155 144 112 
126 145 104 155 144 112 161 151 130 199 169 104 184 151 125 155 144 112 155 144 112 97 125 111 
89 107 111 63 108 116 59 95 109 63 108 116 89 107 111 89 107 111 89 107 111 97 125 111 
147 177 131 143 150 131 143 150 131 126 145 132 88 132 124 112 114 119 126 145 132 126 145 104 
126 145 132 143 150 131 143 150 131 143 150 131 143 150 131 161 151 130 143 150 131 143 150 131 
161 151 130 143 150 131 161 151 130 198 170 136 189 174 152 189 174 152 164 179 131 143 150 131 
97 125 111 83 125 111 83 125 111 27 76 117 88 132 124 126 172 135 88 132 124 57 121 132 
88 132 124 126 145 132 126 145 132 126 145 132 126 172 135 156 195 167 189 174 152 189 174 152 

124 104 87 54 83 99 93 98 84 54 83 99 24 56 95 24 56 81 7 56 82 54 63 80 
24 56 95 40 64 95 24 68 95 24 68 95 24 67 72 40 64 95 60 64 95 128 117 109 
88 87 111 24 68 95 55 83 74 40 64 95 93 78 89 124 104 87 93 78 89 112 104 110 
128 117 109 144 120 90 128 117 109 88 87 111 58 82 117 128 117 109 89 107 111 104 121 89 
54 83 99 54 63 80 24 56 81 40 64 95 24 56 81 24 56 72 7 48 75 24 56 55 
7 45 53 7 45 53 7 34 46 7 45 53 7 45 53 7 45 53 7 41 60 7 45 53 
7 34 46 7 34 46 7 41 43 7 41 43 7 41 43 7 45 53 7 45 53 7 45 53 
7 41 60 7 48 75 7 41 60 7 41 60 7 41 60 7 48 75 7 41 60 7 41 60 
24 41 78 7 56 82 7 56 82 54 83 99 126 145 104 112 130 109 89 107 111 7 56 82 
7 56 82 55 71 109 164 179 131 198 196 136 143 150 131 59 95 109 7 48 95 7 48 75 
24 56 81 54 92 81 24 68 95 24 68 95 29 95 109 29 95 109 27 76 117 59 95 109 
88 132 124 89 107 111 24 68 95 24 68 95 7 56 82 24 56 95 24 56 95 24 68 95 
54 83 99 58 82 117 126 145 104 88 87 111 54 92 81 7 29 75 24 67 72 24 67 72 
54 92 81 97 125 111 161 151 130 88 100 145 164 179 131 88 132 124 83 125 111 89 107 111 
7 48 95 7 56 82 24 67 72 7 56 82 7 56 82 112 104 110 155 154 99 55 71 109 
126 145 104 164 179 131 155 144 112 88 87 111 55 83 74 7 48 95 128 117 109 89 107 111 
155 181 94 88 87 111 25 63 109 126 145 104 58 82 117 7 56 82 24 68 95 7 75 102 
7 52 116 58 82 117 55 71 109 104 121 89 124 130 88 7 52 116 97 125 111 59 95 109 
7 59 103 155 154 99 63 108 116 83 125 111 7 52 116 89 107 111 59 95 109 24 95 100 
24 68 95 86 120 88 58 82 117 24 68 95 86 120 88 25 63 109 54 83 99 7 48 95 
59 95 109 89 107 111 83 125 111 59 95 109 7 52 116 112 130 109 29 95 109 112 104 110 
155 154 99 55 71 109 59 95 109 126 145 104 155 144 112 143 150 131 155 144 112 155 144 112 
126 145 132 155 144 112 155 144 112 155 144 112 159 125 108 97 125 111 128 117 109 155 144 112 
184 152 101 184 151 125 198 196 136 240 205 129 240 173 129 155 144 112 88 132 124 112 130 109 
126 145 104 88 87 111 42 120 116 29 95 109 59 95 109 59 95 109 89 107 111 112 114 119 
126 145 132 126 145 132 126 145 132 126 145 132 126 145 104 97 125 111 112 130 109 112 114 119 
126 145 104 143 150 131 143 150 131 126 145 132 143 150 131 126 145 132 161 151 130 147 177 131 
143 150 131 143 150 131 143 150 131 164 179 131 164 179 131 164 179 131 143 150 131 143 150 131 
126 145 132 83 125 111 63 108 116 7 96 112 29 95 109 88 132 124 126 145 132 88 132 124 
43 121 139 88 132 124 126 172 135 126 172 135 126 172 135 128 159 167 156 195 167 189 174 152 

60 64 95 93 98 84 128 117 109 155 144 112 155 144 112 40 64 95 55 83 74 93 78 89 
124 104 87 144 120 90 54 83 99 54 83 99 88 87 111 112 104 110 112 104 110 128 117 109 
184 152 101 124 104 87 54 63 80 40 64 95 144 120 90 93 78 89 60 64 95 112 104 110 
112 104 110 112 104 110 159 125 108 184 152 101 199 169 104 159 125 108 128 117 109 112 104 110 
155 144 90 54 83 99 93 98 84 124 104 87 93 98 84 54 63 80 55 83 74 54 63 80 
24 56 72 24 41 78 7 48 75 24 56 72 24 41 78 7 48 75 24 56 72 24 67 72 
54 63 80 6 34 60 7 34 46 7 45 53 7 41 60 7 48 75 7 41 60 7 41 60 
7 41 60 7 48 75 7 48 75 7 41 60 7 48 75 7 48 75 7 41 60 7 48 75 
24 67 72 24 56 81 7 56 82 24 68 95 128 117 109 88 100 145 97 125 111 55 71 109 
59 95 109 57 121 132 127 116 140 156 159 166 156 159 166 112 114 119 86 120 88 7 56 82 
7 48 75 55 83 74 7 56 82 24 56 95 29 95 109 29 95 109 58 82 117 58 82 117 
58 82 117 29 95 109 54 83 99 54 92 81 24 56 81 24 67 72 24 68 95 24 95 100 
54 83 99 24 68 95 24 56 81 54 83 99 54 83 99 24 68 95 24 68 95 7 56 82 
40 64 95 155 154 99 88 100 145 58 82 117 112 114 119 88 132 124 57 82 141 147 177 131 
58 82 117 27 76 117 7 59 103 7 56 82 7 48 75 54 83 99 112 114 119 143 150 131 
162 122 140 198 196 136 126 145 132 155 144 112 89 107 111 6 33 96 124 130 88 88 87 111 
88 100 145 184 152 101 55 71 109 89 107 111 104 121 89 7 48 95 112 130 109 155 181 94 
97 125 111 126 145 104 126 145 104 7 48 95 24 56 95 7 56 82 54 83 99 126 145 104 
40 64 95 27 76 117 58 82 117 126 145 104 89 107 111 25 63 109 27 76 117 112 130 109 
7 59 103 88 87 111 155 144 90 6 33 96 24 56 81 40 64 95 24 56 81 54 92 81 
54 83 99 97 125 111 63 108 116 59 95 109 89 107 111 97 125 111 58 82 117 7 48 95 
40 64 95 24 56 95 24 68 95 97 125 111 128 117 109 155 144 112 143 150 131 143 150 131 
143 150 131 155 144 112 155 144 112 155 144 112 126 145 104 128 117 109 112 130 109 155 144 112 
199 169 104 208 152 121 240 173 129 198 170 136 198 170 136 162 122 140 126 145 132 112 130 109 
126 145 132 112 114 119 83 125 111 63 108 116 29 95 109 54 83 99 29 95 109 83 125 111 
126 145 132 126 145 132 126 145 132 112 114 119 112 114 119 112 114 119 97 125 111 112 130 109 
97 125 111 126 145 132 88 132 124 126 145 132 143 150 131 126 145 132 126 145 132 126 145 132 
126 145 132 143 150 131 161 151 130 164 179 131 189 174 152 189 174 152 164 179 131 143 150 131 
126 145 132 126 145 132 88 132 124 42 120 116 7 81 122 57 121 132 88 132 124 88 132 124 
88 132 124 27 121 132 88 132 124 126 145 132 147 177 131 126 172 135 156 159 166 189 174 152 

54 63 80 60 64 95 93 78 89 128 117 109 175 126 88 55 71 109 54 83 99 40 64 95 
25 63 109 104 121 89 60 64 95 124 104 87 184 152 101 155 144 112 112 114 119 128 117 109 
128 117 109 93 78 89 40 64 95 40 64 95 124 104 87 60 64 95 60 64 95 124 104 87 
93 78 89 93 98 84 60 64 95 24 56 95 93 78 89 112 104 110 128 117 109 128 117 109 
159 125 108 88 87 111 112 104 110 88 87 111 88 87 111 93 78 89 24 41 78 55 83 74 
55 83 74 93 98 84 93 98 84 124 104 87 93 98 84 60 64 95 54 92 81 54 83 99 
24 56 81 7 48 75 7 41 60 7 48 75 40 64 95 93 78 89 40 64 95 24 56 81 
7 48 75 7 41 60 7 48 75 7 48 75 24 56 72 7 48 75 7 48 75 24 56 81 
24 68 95 59 95 109 24 68 95 7 56 82 54 83 99 86 120 88 89 107 111 89 107 111 
126 145 104 88 100 145 164 179 131 127 116 140 198 196 136 58 82 117 54 83 99 40 64 95 
54 83 99 7 56 82 7 48 75 24 67 72 40 64 95 54 83 99 27 76 117 59 95 109 
59 95 109 29 95 109 27 76 117 7 59 103 7 48 75 40 64 95 40 64 95 54 83 99 
24 68 95 24 67 72 7 41 60 7 48 75 86 120 88 86 120 88 63 108 116 86 120 88 
7 56 82 59 95 109 126 145 132 97 125 111 112 130 109 161 151 130 88 100 145 112 112 150 
164 179 131 199 197 101 89 107 111 24 56 95 7 48 95 24 68 95 63 108 116 143 150 131 
164 179 131 143 150 131 143 150 131 161 151 130 58 82 117 86 120 88 59 95 109 155 154 99 
161 151 130 161 151 130 164 179 131 58 82 117 29 95 109 7 48 95 7 52 116 89 107 111 
7 52 116 7 48 95 54 83 99 104 121 89 40 64 95 7 72 82 7 48 95 7 48 95 
24 68 95 63 108 116 126 145 104 88 100 145 126 145 132 63 108 116 83 125 111 27 76 117 
7 48 95 7 59 103 59 95 109 7 48 95 124 130 88 54 63 80 7 29 75 7 56 82 
7 48 95 63 108 116 59 95 109 54 83 99 86 120 88 89 107 111 155 181 94 27 76 117 
7 75 102 7 75 102 25 63 109 112 130 109 89 107 111 126 145 132 127 116 140 143 150 131 
161 151 130 184 151 125 159 125 108 126 145 132 126 145 104 155 144 112 155 144 112 155 144 112 
155 144 112 184 151 125 159 125 108 155 144 112 155 144 112 199 169 104 143 150 131 126 145 132 
164 179 131 161 151 130 63 125 116 59 95 109 27 76 117 54 83 99 24 68 95 54 83 99 
126 145 104 126 145 132 126 145 132 128 117 109 112 114 119 83 125 111 29 95 109 83 125 111 
88 132 124 88 132 124 88 132 124 88 132 124 112 130 109 126 145 132 126 145 132 126 145 132 
143 150 131 126 145 132 143 150 131 161 151 130 164 179 131 189 174 152 189 174 152 164 179 131 
161 151 130 126 145 132 88 132 124 27 121 132 7 113 119 23 120 116 57 121 132 88 132 124 
88 132 124 57 121 132 57 121 132 88 132 124 94 154 160 126 172 135 143 150 131 156 159 166 

40 64 95 24 56 72 54 63 80 60 64 95 60 64 95 112 104 110 128 117 109 184 151 83 
104 121 89 124 104 87 60 64 95 24 56 81 93 78 89 88 87 111 88 87 111 112 104 110 
88 87 111 88 87 111 55 83 74 24 56 81 54 63 80 54 63 80 54 63 80 93 78 89 
40 64 95 54 63 80 54 63 80 7 56 82 24 67 72 60 64 95 128 117 109 184 151 125 
184 151 125 198 170 136 127 116 140 112 104 110 88 87 111 93 98 84 93 78 89 93 78 89 
24 56 81 60 64 95 40 64 95 55 71 109 88 87 111 93 98 84 60 64 95 93 98 84 
93 98 84 7 56 82 24 56 95 54 83 99 93 98 84 60 64 95 93 98 84 40 64 95 
40 64 95 7 48 75 7 48 75 24 56 72 24 56 72 7 48 75 7 48 75 7 56 82 
54 63 80 93 98 84 24 56 81 24 56 72 7 48 75 24 56 81 24 56 95 60 64 95 
40 64 95 59 95 109 89 107 111 57 82 141 126 145 132 63 108 116 24 68 95 54 83 99 
126 145 104 24 68 95 7 41 60 7 48 75 24 68 95 54 83 99 7 59 103 54 83 99 
59 95 109 59 95 109 59 95 109 63 108 116 7 48 95 7 56 82 24 68 95 40 64 95 
7 48 75 7 41 60 7 45 53 7 45 53 7 29 75 40 64 95 40 64 95 7 48 75 
24 56 81 54 83 99 55 71 109 54 83 99 40 64 95 88 87 111 143 150 131 161 151 130 
143 150 131 143 150 131 199 169 104 155 144 112 63 108 116 59 95 109 54 83 99 112 130 109 
55 71 109 147 177 131 143 150 131 164 179 131 127 116 140 112 114 119 58 82 117 88 87 111 
155 144 112 88 87 111 164 179 131 88 100 145 126 145 132 126 145 132 58 82 117 126 145 104 
89 107 111 7 48 75 7 56 82 7 52 116 6 33 96 124 130 88 155 144 90 24 68 95 
7 59 103 126 145 104 59 95 109 112 130 109 126 145 132 112 114 119 58 82 117 24 95 100 
7 59 103 24 56 95 83 125 111 89 107 111 25 63 109 59 95 109 97 125 111 89 107 111 
7 52 116 7 75 102 86 120 88 7 48 95 24 68 95 24 68 95 29 95 109 59 95 109 
97 125 111 88 132 124 112 130 109 126 145 132 128 117 109 128 117 109 126 145 132 112 130 109 
143 150 131 184 151 125 155 144 112 155 144 112 155 144 112 155 144 112 155 144 112 155 144 112 
155 144 112 112 130 109 58 82 117 88 87 111 126 145 104 128 117 109 143 150 131 126 145 132 
126 145 132 184 151 125 88 132 124 63 108 116 59 95 109 24 56 95 24 68 95 24 68 95 
54 83 99 112 114 119 89 107 111 89 107 111 112 130 109 112 130 109 63 108 116 83 125 111 
88 132 124 88 132 124 88 132 124 126 145 132 126 145 132 88 132 124 126 145 132 143 150 131 
126 145 132 143 150 131 143 150 131 161 151 130 161 151 130 189 174 152 156 159 166 164 179 131 
143 150 131 88 132 124 57 121 132 29 95 109 7 96 112 7 96 112 57 121 132 57 121 132 
57 121 132 88 132 124 43 121 139 88 132 124 88 132 124 143 150 131 147 177 131 126 145 132 

